(/Applications/pcbgcode.repo/pcb-gcode.ulp)
(Copyright 2005 - 2012 by John Johnson)
(See readme.txt for licensing terms.)
(This file generated from the board:)
(.../eurorack/CR78-HB/eagle/CR78-HB.brd)
(Current profile is .../pcbgcode.repo/profiles/mach.pp  )
(This file generated 6/10/16 9:06 PM)
(Settings from pcb-machine.h)
(spindle on time = 0.0000)
(spindle speed = 20000.0000)
(tool change at 0.0000  0.0000  1.5000  )
(feed rate xy = F0     )
(feed rate z  = F20    )
(Z Axis Settings)
(  High     Up        Down     Drill)
(0.2500  	0.0500  	-0.0035 	-0.0750 )
(Settings from pcb-defaults.h)
(isolate min = 0.0050)
(isolate max = 0.0200)
(isolate step = 0.0010)
(Generated bottom outlines, bottom drill, )
(Unit of measure: inch)
( Tool|       Size       |  Min Sub |  Max Sub |   Count )
( T01 | 0.813mm 0.0320in | 0.0000in | 0.0000in |       0 )
( T02 | 0.900mm 0.0354in | 0.0000in | 0.0000in |       0 )
( T03 | 1.000mm 0.0394in | 0.0000in | 0.0000in |       0 )
( T04 | 1.200mm 0.0472in | 0.0000in | 0.0000in |       0 )
( T05 | 1.300mm 0.0512in | 0.0000in | 0.0000in |       0 )
(Inch Mode)
G20
(Absolute Coordinates)
G90
S20000
G00 Z0.2500  
G00 X0.0000  Y0.0000  
M03
G04 P0.000000
M05
G00 Z1.5000  
M06 T01  ; 0.0320  
G01 Z0.0000  F20    
M06 
G00 Z0.0500  
M03
G04 P0.000000
G82 X-0.4400 Y0.5000  Z-0.0750 F20    R0.0500  P0.020000
G82 X-0.5500 Y0.6000  
G82 X-0.6000 Y0.4100  
G82 X-0.9000 Y0.4100  
G82 X-1.0500 Y0.4100  
G82 X-1.1500 Y0.4100  
G82 X-1.2700 Y0.4500  
G82 X-1.3850 Y0.4350  
G82 X-1.4950 Y0.6000  
G82 X-1.5000 Y0.7250  
G82 X-1.3850 Y0.7350  
G82 X-1.2700 Y0.6500  
G82 X-1.1500 Y0.7100  
G82 X-1.0500 Y0.7100  
G82 X-1.0500 Y0.9000  
G82 X-1.1750 Y0.9000  
G82 X-1.3750 Y1.0000  
G82 X-1.4750 Y0.9000  
G82 X-1.6250 Y0.8750  
G82 X-1.6750 Y1.0000  
G82 X-1.8250 Y0.8750  
G82 X-1.9500 Y0.9000  
G82 X-1.9650 Y0.7150  
G82 X-2.0800 Y0.6850  
G82 X-2.1300 Y0.7600  
G82 X-2.1800 Y0.6850  
G82 X-2.3000 Y0.6000  
G82 X-2.3250 Y0.4250  
G82 X-2.4500 Y0.4000  
G82 X-2.5700 Y0.5000  
G82 X-2.6700 Y0.5800  
G82 X-2.7450 Y0.5300  
G82 X-2.7450 Y0.6300  
G82 X-2.5700 Y0.7000  
G82 X-2.4500 Y0.7000  
G82 X-2.3950 Y0.7800  
G82 X-2.3000 Y0.8000  
G82 X-2.2500 Y0.9000  
G82 X-2.3950 Y1.0800  
G82 X-2.4850 Y1.0550  
G82 X-2.4850 Y0.9500  
G82 X-2.5000 Y0.8250  
G82 X-2.7000 Y0.8250  
G82 X-2.7850 Y0.9500  
G82 X-2.7850 Y1.0550  
G82 X-2.9050 Y0.8450  
G82 X-2.9050 Y0.7450  
G82 X-2.7000 Y0.4000  
G82 X-2.7000 Y0.1000  
G82 X-2.1250 Y0.4250  
G82 X-1.9650 Y0.4150  
G82 X-1.8750 Y0.5000  
G82 X-1.8000 Y0.3750  
G82 X-1.6750 Y0.5000  
G82 X-1.6950 Y0.6000  
G82 X-1.7000 Y0.7250  
G82 X-1.8000 Y0.1750  
G82 X-0.8500 Y0.6000  
G82 X-0.7000 Y0.7500  
G82 X-0.6250 Y0.8000  
G82 X-0.7000 Y0.8500  
G82 X-0.8500 Y0.9000  
G82 X-0.4400 Y0.8000  
M05
G00 Z1.5000  
G00 X0.0000  Y0.0000  
M06 T02  ; 0.0354  
G01 Z0.0000  F20    
M06 
G00 Z0.0500  
M03
G04 P0.000000
G82 X-0.9500 Y0.5000  Z-0.0750 F20    R0.0500  P0.020000
G82 X-0.9500 Y0.8000  
M05
G00 Z1.5000  
G00 X0.0000  Y0.0000  
M06 T03  ; 0.0394  
G01 Z0.0000  F20    
M06 
G00 Z0.0500  
M03
G04 P0.000000
G82 X-0.3500 Y0.2000  Z-0.0750 F20    R0.0500  P0.020000
G82 X-0.4500 Y0.2000  
G82 X-0.5500 Y0.2000  
G82 X-0.6500 Y0.2000  
M05
G00 Z1.5000  
G00 X0.0000  Y0.0000  
M06 T04  ; 0.0472  
G01 Z0.0000  F20    
M06 
G00 Z0.0500  
M03
G04 P0.000000
G82 X-0.9031 Y0.1500  Z-0.0750 F20    R0.0500  P0.020000
G82 X-1.1000 Y0.1500  
G82 X-1.2969 Y0.1500  
G82 X-2.0281 Y0.1500  
G82 X-2.2250 Y0.1500  
G82 X-2.4219 Y0.1500  
M05
G00 Z1.5000  
G00 X0.0000  Y0.0000  
M06 T05  ; 0.0512  
G01 Z0.0000  F20    
M06 
G00 Z0.0500  
M03
G04 P0.000000
G82 X-2.9950 Y0.0980  Z-0.0750 F20    R0.0500  P0.020000
G82 X-3.0281 Y0.0984  
G82 X-3.0620 Y0.0980  
G82 X-3.2330 Y0.4980  
G82 X-3.2329 Y0.5315  
G82 X-3.2330 Y0.5650  
G82 X-3.0610 Y0.6180  
G82 X-3.0281 Y0.6181  
G82 X-2.9950 Y0.6180  
T01 
G00 Z0.2500  
M05
M02
