(/Applications/pcbgcode.repo/pcb-gcode.ulp)
(Copyright 2005 - 2012 by John Johnson)
(See readme.txt for licensing terms.)
(This file generated from the board:)
(.../eurorack/CR78-HB/eagle/CR78-HB.brd)
(Current profile is .../pcbgcode.repo/profiles/mach.pp  )
(This file generated 5/31/16 11:54 PM)
(Settings from pcb-machine.h)
(spindle on time = 0.0000)
(  Tool Size)
(0.0030  )
(spindle speed = 30000.0000)
(tool change at 0.0000  0.0000  1.5000  )
(feed rate xy = F20    )
(feed rate z  = F10    )
(Z Axis Settings)
(  High     Up        Down     Drill)
(0.2500  	0.0500  	-0.0035 	-0.0750 )
(Settings from pcb-defaults.h)
(isolate min = 0.0050)
(isolate max = 0.0200)
(isolate step = 0.0010)
(Generated bottom outlines, bottom drill, )
(Unit of measure: inch)
(Inch Mode)
G20
(Absolute Coordinates)
G90
S30000
G00 Z0.2500  
G00 X0.0000  Y0.0000  
M03
G04 P0.000000
G00 Z0.0500  
G00 X-0.0315 Y0.0820  
G01 Z-0.0035 F10    
G01 X-0.0315 Y0.1180  F20    
G01 X-0.0570 Y0.1435  
G01 X-0.0930 Y0.1435  
G01 X-0.1185 Y0.1180  
G01 X-0.1185 Y0.0820  
G01 X-0.0930 Y0.0565  
G01 X-0.0570 Y0.0565  
G01 X-0.0315 Y0.0820  
G00 Z0.0500  
G00 X-0.0315 Y0.1820  
G01 Z-0.0035 F10    
G01 X-0.0315 Y0.2180  F20    
G01 X-0.0435 Y0.2300  
G01 X-0.0435 Y0.2700  
G01 X-0.0315 Y0.2820  
G01 X-0.0315 Y0.3180  
G01 X-0.0435 Y0.3300  
G01 X-0.0435 Y0.3700  
G01 X-0.0315 Y0.3820  
G01 X-0.0315 Y0.4180  
G01 X-0.0570 Y0.4435  
G01 X-0.0930 Y0.4435  
G01 X-0.1140 Y0.4225  
G01 X-0.1360 Y0.4225  
G01 X-0.1570 Y0.4435  
G01 X-0.1930 Y0.4435  
G01 X-0.2185 Y0.4180  
G01 X-0.2185 Y0.3820  
G01 X-0.2065 Y0.3700  
G01 X-0.2065 Y0.3300  
G01 X-0.2185 Y0.3180  
G01 X-0.2185 Y0.2820  
G01 X-0.2065 Y0.2700  
G01 X-0.2065 Y0.2300  
G01 X-0.2140 Y0.2225  
G01 X-0.4765 Y0.2225  
G01 X-0.4865 Y0.2325  
G01 X-0.5135 Y0.2325  
G01 X-0.5139 Y0.2321  
G01 X-0.5775 Y0.2639  
G01 X-0.5775 Y0.4265  
G01 X-0.5675 Y0.4365  
G01 X-0.5675 Y0.4635  
G01 X-0.5679 Y0.4639  
G01 X-0.5552 Y0.4893  
G01 X-0.5540 Y0.4913  
G01 X-0.5539 Y0.4920  
G01 X-0.5536 Y0.4926  
G01 X-0.5531 Y0.4948  
G01 X-0.5525 Y0.4970  
G01 X-0.5525 Y0.4977  
G01 X-0.5524 Y0.4984  
G01 X-0.5525 Y0.5007  
G01 X-0.5525 Y0.7280  
G01 X-0.5540 Y0.7337  
G01 X-0.5570 Y0.7388  
G01 X-0.5612 Y0.7430  
G01 X-0.5663 Y0.7460  
G01 X-0.5720 Y0.7475  
G01 X-1.0530 Y0.7475  
G01 X-1.0587 Y0.7460  
G01 X-1.0638 Y0.7430  
G01 X-1.0893 Y0.7175  
G01 X-1.0899 Y0.7171  
G01 X-1.0914 Y0.7154  
G01 X-1.0930 Y0.7138  
G01 X-1.0933 Y0.7132  
G01 X-1.0938 Y0.7127  
G01 X-1.0948 Y0.7107  
G01 X-1.0960 Y0.7087  
G01 X-1.0961 Y0.7080  
G01 X-1.1339 Y0.6325  
G01 X-1.1385 Y0.6325  
G01 X-1.1575 Y0.6135  
G01 X-1.1575 Y0.6054  
G01 X-1.2525 Y0.5420  
G01 X-1.2525 Y0.6030  
G01 X-1.2540 Y0.6087  
G01 X-1.2570 Y0.6138  
G01 X-1.3570 Y0.7138  
G01 X-1.3612 Y0.7180  
G01 X-1.3663 Y0.7210  
G01 X-1.3720 Y0.7225  
G01 X-1.5015 Y0.7225  
G01 X-1.5115 Y0.7325  
G01 X-1.5385 Y0.7325  
G01 X-1.5575 Y0.7135  
G01 X-1.5575 Y0.7054  
G01 X-1.6100 Y0.6704  
G01 X-1.6147 Y0.6672  
G01 X-1.6149 Y0.6671  
G01 X-1.6189 Y0.6626  
G01 X-1.6215 Y0.6573  
G01 X-1.6215 Y0.6571  
G01 X-1.6452 Y0.5386  
G01 X-1.7068 Y0.4975  
G01 X-1.7265 Y0.4975  
G01 X-1.7365 Y0.5075  
G01 X-1.7635 Y0.5075  
G01 X-1.7735 Y0.4975  
G01 X-1.8265 Y0.4975  
G01 X-1.8365 Y0.5075  
G01 X-1.8635 Y0.5075  
G01 X-1.8825 Y0.4885  
G01 X-1.8825 Y0.4615  
G01 X-1.8635 Y0.4425  
G01 X-1.8365 Y0.4425  
G01 X-1.8265 Y0.4525  
G01 X-1.7735 Y0.4525  
G01 X-1.7635 Y0.4425  
G01 X-1.7365 Y0.4425  
G01 X-1.7265 Y0.4525  
G01 X-1.7022 Y0.4525  
G01 X-1.7015 Y0.4524  
G01 X-1.6993 Y0.4525  
G01 X-1.6970 Y0.4525  
G01 X-1.6963 Y0.4527  
G01 X-1.6956 Y0.4527  
G01 X-1.6935 Y0.4535  
G01 X-1.6913 Y0.4540  
G01 X-1.6907 Y0.4544  
G01 X-1.6900 Y0.4546  
G01 X-1.6881 Y0.4559  
G01 X-1.6862 Y0.4570  
G01 X-1.6857 Y0.4575  
G01 X-1.6150 Y0.5046  
G01 X-1.6101 Y0.5079  
G01 X-1.6061 Y0.5124  
G01 X-1.6035 Y0.5177  
G01 X-1.5798 Y0.6364  
G01 X-1.5332 Y0.6675  
G01 X-1.5115 Y0.6675  
G01 X-1.5015 Y0.6775  
G01 X-1.3843 Y0.6775  
G01 X-1.2975 Y0.5907  
G01 X-1.2975 Y0.5235  
G01 X-1.3075 Y0.5135  
G01 X-1.3075 Y0.4865  
G01 X-1.2885 Y0.4675  
G01 X-1.2615 Y0.4675  
G01 X-1.2425 Y0.4865  
G01 X-1.2425 Y0.4946  
G01 X-1.1332 Y0.5675  
G01 X-1.1115 Y0.5675  
G01 X-1.0925 Y0.5865  
G01 X-1.0925 Y0.6135  
G01 X-1.0929 Y0.6139  
G01 X-1.0565 Y0.6867  
G01 X-1.0407 Y0.7025  
G01 X-0.5975 Y0.7025  
G01 X-0.5975 Y0.5053  
G01 X-0.6089 Y0.4825  
G01 X-0.6135 Y0.4825  
G01 X-0.6325 Y0.4635  
G01 X-0.6325 Y0.4365  
G01 X-0.6225 Y0.4265  
G01 X-0.6225 Y0.2523  
G01 X-0.6226 Y0.2516  
G01 X-0.6225 Y0.2493  
G01 X-0.6225 Y0.2470  
G01 X-0.6223 Y0.2464  
G01 X-0.6223 Y0.2457  
G01 X-0.6216 Y0.2435  
G01 X-0.6210 Y0.2413  
G01 X-0.6206 Y0.2407  
G01 X-0.6204 Y0.2401  
G01 X-0.6191 Y0.2382  
G01 X-0.6180 Y0.2362  
G01 X-0.6175 Y0.2357  
G01 X-0.6171 Y0.2351  
G01 X-0.6154 Y0.2336  
G01 X-0.6138 Y0.2320  
G01 X-0.6132 Y0.2317  
G01 X-0.6127 Y0.2312  
G01 X-0.6107 Y0.2302  
G01 X-0.6087 Y0.2290  
G01 X-0.6080 Y0.2289  
G01 X-0.5325 Y0.1911  
G01 X-0.5325 Y0.1865  
G01 X-0.5225 Y0.1765  
G01 X-0.5225 Y0.0475  
G01 X-2.5947 Y0.0475  
G01 X-2.6175 Y0.0589  
G01 X-2.6175 Y0.0635  
G01 X-2.6365 Y0.0825  
G01 X-2.6635 Y0.0825  
G01 X-2.6695 Y0.0764  
G01 X-2.8218 Y0.1041  
G01 X-2.8230 Y0.1117  
G01 X-2.8258 Y0.1201  
G01 X-2.8298 Y0.1280  
G01 X-2.8351 Y0.1352  
G01 X-2.8413 Y0.1415  
G01 X-2.8485 Y0.1467  
G01 X-2.8565 Y0.1508  
G01 X-2.8649 Y0.1535  
G01 X-2.8737 Y0.1549  
G01 X-2.9668 Y0.1549  
G01 X-3.2025 Y0.3120  
G01 X-3.2025 Y0.7598  
G01 X-3.1299 Y0.7888  
G01 X-3.0668 Y0.7888  
G01 X-3.0598 Y0.7902  
G01 X-3.0532 Y0.7929  
G01 X-3.0472 Y0.7969  
G01 X-3.0422 Y0.8019  
G01 X-3.0382 Y0.8079  
G01 X-3.0355 Y0.8144  
G01 X-3.0341 Y0.8214  
G01 X-3.0341 Y0.8286  
G01 X-3.0355 Y0.8356  
G01 X-3.0382 Y0.8421  
G01 X-3.0422 Y0.8481  
G01 X-3.0472 Y0.8531  
G01 X-3.0532 Y0.8571  
G01 X-3.0598 Y0.8598  
G01 X-3.0668 Y0.8612  
G01 X-3.1332 Y0.8612  
G01 X-3.1402 Y0.8598  
G01 X-3.1468 Y0.8571  
G01 X-3.1528 Y0.8531  
G01 X-3.1578 Y0.8481  
G01 X-3.1618 Y0.8421  
G01 X-3.1645 Y0.8356  
G01 X-3.1659 Y0.8286  
G01 X-3.1659 Y0.8229  
G01 X-3.2321 Y0.7964  
G01 X-3.2337 Y0.7960  
G01 X-3.2349 Y0.7953  
G01 X-3.2361 Y0.7948  
G01 X-3.2374 Y0.7938  
G01 X-3.2388 Y0.7930  
G01 X-3.2398 Y0.7920  
G01 X-3.2409 Y0.7912  
G01 X-3.2419 Y0.7900  
G01 X-3.2430 Y0.7888  
G01 X-3.2437 Y0.7876  
G01 X-3.2445 Y0.7866  
G01 X-3.2452 Y0.7851  
G01 X-3.2460 Y0.7837  
G01 X-3.2463 Y0.7824  
G01 X-3.2468 Y0.7811  
G01 X-3.2471 Y0.7795  
G01 X-3.2475 Y0.7780  
G01 X-3.2475 Y0.7766  
G01 X-3.2477 Y0.7753  
G01 X-3.2475 Y0.7737  
G01 X-3.2475 Y0.3007  
G01 X-3.2476 Y0.2985  
G01 X-3.2475 Y0.2978  
G01 X-3.2475 Y0.2970  
G01 X-3.2469 Y0.2949  
G01 X-3.2465 Y0.2927  
G01 X-3.2462 Y0.2920  
G01 X-3.2460 Y0.2913  
G01 X-3.2448 Y0.2894  
G01 X-3.2439 Y0.2874  
G01 X-3.2434 Y0.2868  
G01 X-3.2430 Y0.2862  
G01 X-3.2414 Y0.2846  
G01 X-3.2399 Y0.2829  
G01 X-3.2393 Y0.2825  
G01 X-3.2388 Y0.2820  
G01 X-3.2369 Y0.2809  
G01 X-3.0201 Y0.1364  
G01 X-3.0212 Y0.1352  
G01 X-3.0265 Y0.1280  
G01 X-3.0305 Y0.1201  
G01 X-3.0333 Y0.1117  
G01 X-3.0346 Y0.1029  
G01 X-3.0346 Y0.0940  
G01 X-3.0333 Y0.0852  
G01 X-3.0305 Y0.0767  
G01 X-3.0265 Y0.0688  
G01 X-3.0212 Y0.0616  
G01 X-3.0150 Y0.0553  
G01 X-3.0078 Y0.0501  
G01 X-2.9998 Y0.0461  
G01 X-2.9914 Y0.0433  
G01 X-2.9826 Y0.0419  
G01 X-2.8737 Y0.0419  
G01 X-2.8649 Y0.0433  
G01 X-2.8565 Y0.0461  
G01 X-2.8485 Y0.0501  
G01 X-2.8413 Y0.0553  
G01 X-2.8358 Y0.0609  
G01 X-2.6782 Y0.0323  
G01 X-2.6635 Y0.0175  
G01 X-2.6365 Y0.0175  
G01 X-2.6361 Y0.0179  
G01 X-2.6107 Y0.0052  
G01 X-2.6087 Y0.0040  
G01 X-2.6080 Y0.0039  
G01 X-2.6074 Y0.0036  
G01 X-2.6052 Y0.0031  
G01 X-2.6030 Y0.0025  
G01 X-2.6023 Y0.0025  
G01 X-2.6016 Y0.0024  
G01 X-2.5993 Y0.0025  
G01 X-0.4970 Y0.0025  
G01 X-0.4913 Y0.0040  
G01 X-0.4862 Y0.0070  
G01 X-0.4820 Y0.0112  
G01 X-0.4790 Y0.0163  
G01 X-0.4775 Y0.0220  
G01 X-0.4775 Y0.1765  
G01 X-0.4765 Y0.1775  
G01 X-0.2140 Y0.1775  
G01 X-0.1930 Y0.1565  
G01 X-0.1570 Y0.1565  
G01 X-0.1360 Y0.1775  
G01 X-0.1140 Y0.1775  
G01 X-0.0930 Y0.1565  
G01 X-0.0570 Y0.1565  
G01 X-0.0315 Y0.1820  
G00 Z0.0500  
G00 X-0.1570 Y0.1435  
G01 Z-0.0035 F10    
G01 X-0.1930 Y0.1435  F20    
G01 X-0.2185 Y0.1180  
G01 X-0.2185 Y0.0820  
G01 X-0.1930 Y0.0565  
G01 X-0.1570 Y0.0565  
G01 X-0.1315 Y0.0820  
G01 X-0.1315 Y0.1180  
G01 X-0.1570 Y0.1435  
G00 Z0.0500  
G00 X-0.1570 Y0.4565  
G01 Z-0.0035 F10    
G01 X-0.1360 Y0.4775  F20    
G01 X-0.1140 Y0.4775  
G01 X-0.0930 Y0.4565  
G01 X-0.0570 Y0.4565  
G01 X-0.0315 Y0.4820  
G01 X-0.0315 Y0.5180  
G01 X-0.0570 Y0.5435  
G01 X-0.0930 Y0.5435  
G01 X-0.1140 Y0.5225  
G01 X-0.1360 Y0.5225  
G01 X-0.1570 Y0.5435  
G01 X-0.1930 Y0.5435  
G01 X-0.2140 Y0.5225  
G01 X-0.3222 Y0.5225  
G01 X-0.3224 Y0.5225  
G01 X-0.3252 Y0.5225  
G01 X-0.3280 Y0.5225  
G01 X-0.3281 Y0.5225  
G01 X-0.3283 Y0.5224  
G01 X-0.3310 Y0.5217  
G01 X-0.3337 Y0.5210  
G01 X-0.3339 Y0.5209  
G01 X-0.3340 Y0.5208  
G01 X-0.3364 Y0.5194  
G01 X-0.3388 Y0.5180  
G01 X-0.3390 Y0.5179  
G01 X-0.3391 Y0.5178  
G01 X-0.3410 Y0.5158  
G01 X-0.3430 Y0.5138  
G01 X-0.3431 Y0.5136  
G01 X-0.3432 Y0.5135  
G01 X-0.3446 Y0.5111  
G01 X-0.3460 Y0.5087  
G01 X-0.3460 Y0.5085  
G01 X-0.3461 Y0.5083  
G01 X-0.3468 Y0.5056  
G01 X-0.3475 Y0.5030  
G01 X-0.3475 Y0.5028  
G01 X-0.3926 Y0.3225  
G01 X-0.4765 Y0.3225  
G01 X-0.4775 Y0.3235  
G01 X-0.4775 Y0.8030  
G01 X-0.4790 Y0.8087  
G01 X-0.4820 Y0.8138  
G01 X-0.4862 Y0.8180  
G01 X-0.4913 Y0.8210  
G01 X-0.4970 Y0.8225  
G01 X-2.2515 Y0.8225  
G01 X-2.2615 Y0.8325  
G01 X-2.2885 Y0.8325  
G01 X-2.2985 Y0.8225  
G01 X-2.3530 Y0.8225  
G01 X-2.3587 Y0.8210  
G01 X-2.3638 Y0.8180  
G01 X-2.3743 Y0.8075  
G01 X-2.3885 Y0.8075  
G01 X-2.4075 Y0.7885  
G01 X-2.4075 Y0.7615  
G01 X-2.3885 Y0.7425  
G01 X-2.3615 Y0.7425  
G01 X-2.3425 Y0.7615  
G01 X-2.3425 Y0.7757  
G01 X-2.3407 Y0.7775  
G01 X-2.2985 Y0.7775  
G01 X-2.2885 Y0.7675  
G01 X-2.2615 Y0.7675  
G01 X-2.2515 Y0.7775  
G01 X-0.5225 Y0.7775  
G01 X-0.5225 Y0.3235  
G01 X-0.5325 Y0.3135  
G01 X-0.5325 Y0.2865  
G01 X-0.5135 Y0.2675  
G01 X-0.4865 Y0.2675  
G01 X-0.4765 Y0.2775  
G01 X-0.3778 Y0.2775  
G01 X-0.3776 Y0.2775  
G01 X-0.3748 Y0.2775  
G01 X-0.3720 Y0.2775  
G01 X-0.3719 Y0.2775  
G01 X-0.3717 Y0.2776  
G01 X-0.3690 Y0.2783  
G01 X-0.3663 Y0.2790  
G01 X-0.3661 Y0.2791  
G01 X-0.3660 Y0.2792  
G01 X-0.3636 Y0.2806  
G01 X-0.3612 Y0.2820  
G01 X-0.3610 Y0.2821  
G01 X-0.3609 Y0.2822  
G01 X-0.3590 Y0.2842  
G01 X-0.3570 Y0.2862  
G01 X-0.3569 Y0.2864  
G01 X-0.3568 Y0.2865  
G01 X-0.3554 Y0.2889  
G01 X-0.3540 Y0.2913  
G01 X-0.3540 Y0.2915  
G01 X-0.3539 Y0.2917  
G01 X-0.3532 Y0.2944  
G01 X-0.3525 Y0.2970  
G01 X-0.3525 Y0.2972  
G01 X-0.3074 Y0.4775  
G01 X-0.2140 Y0.4775  
G01 X-0.1930 Y0.4565  
G01 X-0.1570 Y0.4565  
G00 Z0.0500  
G00 X-0.1570 Y0.5565  
G01 Z-0.0035 F10    
G01 X-0.1315 Y0.5820  F20    
G01 X-0.1315 Y0.6180  
G01 X-0.1570 Y0.6435  
G01 X-0.1930 Y0.6435  
G01 X-0.2185 Y0.6180  
G01 X-0.2185 Y0.5820  
G01 X-0.1930 Y0.5565  
G01 X-0.1570 Y0.5565  
G00 Z0.0500  
G00 X-0.1185 Y0.5820  
G01 Z-0.0035 F10    
G01 X-0.0930 Y0.5565  F20    
G01 X-0.0570 Y0.5565  
G01 X-0.0315 Y0.5820  
G01 X-0.0315 Y0.6180  
G01 X-0.0570 Y0.6435  
G01 X-0.0930 Y0.6435  
G01 X-0.1185 Y0.6180  
G01 X-0.1185 Y0.5820  
G00 Z0.0500  
G00 X-0.1185 Y0.6820  
G01 Z-0.0035 F10    
G01 X-0.0930 Y0.6565  F20    
G01 X-0.0570 Y0.6565  
G01 X-0.0315 Y0.6820  
G01 X-0.0315 Y0.7180  
G01 X-0.0570 Y0.7435  
G01 X-0.0930 Y0.7435  
G01 X-0.1185 Y0.7180  
G01 X-0.1185 Y0.6820  
G00 Z0.0500  
G00 X-0.1315 Y0.6820  
G01 Z-0.0035 F10    
G01 X-0.1315 Y0.7180  F20    
G01 X-0.1570 Y0.7435  
G01 X-0.1930 Y0.7435  
G01 X-0.2185 Y0.7180  
G01 X-0.2185 Y0.6820  
G01 X-0.1930 Y0.6565  
G01 X-0.1570 Y0.6565  
G01 X-0.1315 Y0.6820  
G00 Z0.0500  
G00 X-0.1570 Y0.7565  
G01 Z-0.0035 F10    
G01 X-0.1360 Y0.7775  F20    
G01 X-0.1140 Y0.7775  
G01 X-0.0930 Y0.7565  
G01 X-0.0570 Y0.7565  
G01 X-0.0315 Y0.7820  
G01 X-0.0315 Y0.8180  
G01 X-0.0570 Y0.8435  
G01 X-0.0930 Y0.8435  
G01 X-0.1140 Y0.8225  
G01 X-0.1360 Y0.8225  
G01 X-0.1570 Y0.8435  
G01 X-0.1930 Y0.8435  
G01 X-0.2140 Y0.8225  
G01 X-0.2993 Y0.8225  
G01 X-0.3016 Y0.8226  
G01 X-0.3023 Y0.8225  
G01 X-0.3030 Y0.8225  
G01 X-0.3052 Y0.8219  
G01 X-0.3074 Y0.8214  
G01 X-0.3080 Y0.8211  
G01 X-0.3087 Y0.8210  
G01 X-0.3107 Y0.8198  
G01 X-0.3127 Y0.8188  
G01 X-0.3132 Y0.8183  
G01 X-0.3138 Y0.8180  
G01 X-0.3154 Y0.8164  
G01 X-0.3171 Y0.8149  
G01 X-0.3175 Y0.8143  
G01 X-0.3180 Y0.8138  
G01 X-0.3191 Y0.8118  
G01 X-0.3204 Y0.8099  
G01 X-0.3206 Y0.8093  
G01 X-0.3210 Y0.8087  
G01 X-0.3216 Y0.8065  
G01 X-0.3629 Y0.6825  
G01 X-0.3635 Y0.6825  
G01 X-0.3825 Y0.6635  
G01 X-0.3825 Y0.6365  
G01 X-0.3635 Y0.6175  
G01 X-0.3365 Y0.6175  
G01 X-0.3175 Y0.6365  
G01 X-0.3175 Y0.6635  
G01 X-0.3207 Y0.6667  
G01 X-0.2838 Y0.7775  
G01 X-0.2140 Y0.7775  
G01 X-0.1930 Y0.7565  
G01 X-0.1570 Y0.7565  
G00 Z0.0500  
G00 X-0.6365 Y0.6825  
G01 Z-0.0035 F10    
G01 X-0.6635 Y0.6825  F20    
G01 X-0.6825 Y0.6635  
G01 X-0.6825 Y0.6365  
G01 X-0.6725 Y0.6265  
G01 X-0.6725 Y0.5485  
G01 X-0.6825 Y0.5385  
G01 X-0.6825 Y0.5115  
G01 X-0.6635 Y0.4925  
G01 X-0.6365 Y0.4925  
G01 X-0.6175 Y0.5115  
G01 X-0.6175 Y0.5385  
G01 X-0.6275 Y0.5485  
G01 X-0.6275 Y0.6265  
G01 X-0.6175 Y0.6365  
G01 X-0.6175 Y0.6635  
G01 X-0.6365 Y0.6825  
G00 Z0.0500  
G00 X-0.7365 Y0.6325  
G01 Z-0.0035 F10    
G01 X-0.7635 Y0.6325  F20    
G01 X-0.7825 Y0.6135  
G01 X-0.7825 Y0.5865  
G01 X-0.7635 Y0.5675  
G01 X-0.7629 Y0.5675  
G01 X-0.7293 Y0.4667  
G01 X-0.7325 Y0.4635  
G01 X-0.7325 Y0.4365  
G01 X-0.7225 Y0.4265  
G01 X-0.7225 Y0.4093  
G01 X-0.7993 Y0.3325  
G01 X-0.8135 Y0.3325  
G01 X-0.8325 Y0.3135  
G01 X-0.8325 Y0.2865  
G01 X-0.8135 Y0.2675  
G01 X-0.7865 Y0.2675  
G01 X-0.7675 Y0.2865  
G01 X-0.7675 Y0.3007  
G01 X-0.6862 Y0.3820  
G01 X-0.6820 Y0.3862  
G01 X-0.6790 Y0.3913  
G01 X-0.6775 Y0.3970  
G01 X-0.6775 Y0.4265  
G01 X-0.6675 Y0.4365  
G01 X-0.6675 Y0.4635  
G01 X-0.6865 Y0.4825  
G01 X-0.6871 Y0.4825  
G01 X-0.7207 Y0.5833  
G01 X-0.7175 Y0.5865  
G01 X-0.7175 Y0.6135  
G01 X-0.7365 Y0.6325  
G00 Z0.0500  
G00 X-0.9365 Y0.6325  
G01 Z-0.0035 F10    
G01 X-0.9635 Y0.6325  F20    
G01 X-0.9825 Y0.6135  
G01 X-0.9825 Y0.5865  
G01 X-0.9635 Y0.5675  
G01 X-0.9589 Y0.5675  
G01 X-0.9368 Y0.5233  
G01 X-0.9372 Y0.5228  
G01 X-0.9374 Y0.5225  
G01 X-0.9515 Y0.5225  
G01 X-0.9615 Y0.5325  
G01 X-0.9885 Y0.5325  
G01 X-1.0075 Y0.5135  
G01 X-1.0075 Y0.4865  
G01 X-0.9885 Y0.4675  
G01 X-0.9615 Y0.4675  
G01 X-0.9515 Y0.4775  
G01 X-0.9374 Y0.4775  
G01 X-0.9372 Y0.4772  
G01 X-0.9332 Y0.4717  
G01 X-0.9283 Y0.4668  
G01 X-0.9228 Y0.4628  
G01 X-0.9167 Y0.4597  
G01 X-0.9102 Y0.4576  
G01 X-0.9034 Y0.4565  
G01 X-0.8966 Y0.4565  
G01 X-0.8898 Y0.4576  
G01 X-0.8833 Y0.4597  
G01 X-0.8772 Y0.4628  
G01 X-0.8717 Y0.4668  
G01 X-0.8668 Y0.4717  
G01 X-0.8628 Y0.4772  
G01 X-0.8597 Y0.4833  
G01 X-0.8576 Y0.4898  
G01 X-0.8565 Y0.4966  
G01 X-0.8565 Y0.5034  
G01 X-0.8576 Y0.5102  
G01 X-0.8597 Y0.5167  
G01 X-0.8628 Y0.5228  
G01 X-0.8668 Y0.5283  
G01 X-0.8717 Y0.5332  
G01 X-0.8772 Y0.5372  
G01 X-0.8833 Y0.5403  
G01 X-0.8898 Y0.5424  
G01 X-0.8966 Y0.5435  
G01 X-0.9179 Y0.5861  
G01 X-0.9175 Y0.5865  
G01 X-0.9175 Y0.6135  
G01 X-0.9365 Y0.6325  
G00 Z0.0500  
G00 X-0.9865 Y0.4325  
G01 Z-0.0035 F10    
G01 X-1.0135 Y0.4325  F20    
G01 X-1.0325 Y0.4135  
G01 X-1.0325 Y0.3865  
G01 X-1.0135 Y0.3675  
G01 X-1.0054 Y0.3675  
G01 X-0.9700 Y0.3145  
G01 X-0.9347 Y0.2262  
G01 X-0.9372 Y0.2228  
G01 X-0.9403 Y0.2167  
G01 X-0.9424 Y0.2102  
G01 X-0.9435 Y0.2034  
G01 X-0.9435 Y0.1966  
G01 X-0.9424 Y0.1898  
G01 X-0.9403 Y0.1833  
G01 X-0.9372 Y0.1772  
G01 X-0.9332 Y0.1717  
G01 X-0.9283 Y0.1668  
G01 X-0.9228 Y0.1628  
G01 X-0.9167 Y0.1597  
G01 X-0.9102 Y0.1576  
G01 X-0.9034 Y0.1565  
G01 X-0.8966 Y0.1565  
G01 X-0.8898 Y0.1576  
G01 X-0.8833 Y0.1597  
G01 X-0.8772 Y0.1628  
G01 X-0.8717 Y0.1668  
G01 X-0.8668 Y0.1717  
G01 X-0.8628 Y0.1772  
G01 X-0.8597 Y0.1833  
G01 X-0.8576 Y0.1898  
G01 X-0.8565 Y0.1966  
G01 X-0.8565 Y0.2034  
G01 X-0.8576 Y0.2102  
G01 X-0.8597 Y0.2167  
G01 X-0.8628 Y0.2228  
G01 X-0.8668 Y0.2283  
G01 X-0.8717 Y0.2332  
G01 X-0.8772 Y0.2372  
G01 X-0.8833 Y0.2403  
G01 X-0.8898 Y0.2424  
G01 X-0.8929 Y0.2429  
G01 X-0.9289 Y0.3328  
G01 X-0.9296 Y0.3350  
G01 X-0.9300 Y0.3355  
G01 X-0.9302 Y0.3361  
G01 X-0.9316 Y0.3380  
G01 X-0.9675 Y0.3918  
G01 X-0.9675 Y0.4135  
G01 X-0.9865 Y0.4325  
G00 Z0.0500  
G00 X-1.0865 Y0.4325  
G01 Z-0.0035 F10    
G01 X-1.1135 Y0.4325  F20    
G01 X-1.1325 Y0.4135  
G01 X-1.1325 Y0.3993  
G01 X-1.1372 Y0.3947  
G01 X-1.1833 Y0.3793  
G01 X-1.1865 Y0.3825  
G01 X-1.2135 Y0.3825  
G01 X-1.2235 Y0.3725  
G01 X-1.3015 Y0.3725  
G01 X-1.3115 Y0.3825  
G01 X-1.3385 Y0.3825  
G01 X-1.3575 Y0.3635  
G01 X-1.3575 Y0.3365  
G01 X-1.3385 Y0.3175  
G01 X-1.3115 Y0.3175  
G01 X-1.3015 Y0.3275  
G01 X-1.2235 Y0.3275  
G01 X-1.2135 Y0.3175  
G01 X-1.1865 Y0.3175  
G01 X-1.1675 Y0.3365  
G01 X-1.1675 Y0.3371  
G01 X-1.1185 Y0.3534  
G01 X-1.1163 Y0.3540  
G01 X-1.1157 Y0.3544  
G01 X-1.1151 Y0.3546  
G01 X-1.1132 Y0.3559  
G01 X-1.1112 Y0.3570  
G01 X-1.1107 Y0.3575  
G01 X-1.1101 Y0.3579  
G01 X-1.1086 Y0.3596  
G01 X-1.1007 Y0.3675  
G01 X-1.0865 Y0.3675  
G01 X-1.0675 Y0.3865  
G01 X-1.0675 Y0.4135  
G01 X-1.0865 Y0.4325  
G00 Z0.0500  
G00 X-1.0865 Y0.1325  
G01 Z-0.0035 F10    
G01 X-1.1135 Y0.1325  F20    
G01 X-1.1325 Y0.1135  
G01 X-1.1325 Y0.0865  
G01 X-1.1135 Y0.0675  
G01 X-1.0865 Y0.0675  
G01 X-1.0765 Y0.0775  
G01 X-1.0235 Y0.0775  
G01 X-1.0135 Y0.0675  
G01 X-0.9865 Y0.0675  
G01 X-0.9765 Y0.0775  
G01 X-0.8220 Y0.0775  
G01 X-0.8163 Y0.0790  
G01 X-0.8112 Y0.0820  
G01 X-0.8070 Y0.0862  
G01 X-0.7820 Y0.1112  
G01 X-0.7790 Y0.1163  
G01 X-0.7775 Y0.1220  
G01 X-0.7775 Y0.1765  
G01 X-0.7675 Y0.1865  
G01 X-0.7675 Y0.2135  
G01 X-0.7865 Y0.2325  
G01 X-0.8135 Y0.2325  
G01 X-0.8325 Y0.2135  
G01 X-0.8325 Y0.1865  
G01 X-0.8225 Y0.1765  
G01 X-0.8225 Y0.1343  
G01 X-0.8343 Y0.1225  
G01 X-0.9765 Y0.1225  
G01 X-0.9865 Y0.1325  
G01 X-1.0135 Y0.1325  
G01 X-1.0235 Y0.1225  
G01 X-1.0765 Y0.1225  
G01 X-1.0865 Y0.1325  
G00 Z0.0500  
G00 X-1.1675 Y0.1365  
G01 Z-0.0035 F10    
G01 X-1.1675 Y0.1635  F20    
G01 X-1.1865 Y0.1825  
G01 X-1.1871 Y0.1825  
G01 X-1.2034 Y0.2315  
G01 X-1.2040 Y0.2337  
G01 X-1.2044 Y0.2343  
G01 X-1.2046 Y0.2349  
G01 X-1.2059 Y0.2368  
G01 X-1.2070 Y0.2388  
G01 X-1.2075 Y0.2393  
G01 X-1.2079 Y0.2399  
G01 X-1.2096 Y0.2414  
G01 X-1.2112 Y0.2430  
G01 X-1.2118 Y0.2433  
G01 X-1.2123 Y0.2438  
G01 X-1.2143 Y0.2448  
G01 X-1.2163 Y0.2460  
G01 X-1.2170 Y0.2461  
G01 X-1.2176 Y0.2464  
G01 X-1.2198 Y0.2469  
G01 X-1.2220 Y0.2475  
G01 X-1.2227 Y0.2475  
G01 X-1.2234 Y0.2476  
G01 X-1.2257 Y0.2475  
G01 X-1.3977 Y0.2475  
G01 X-1.3984 Y0.2476  
G01 X-1.4007 Y0.2475  
G01 X-1.4030 Y0.2475  
G01 X-1.4036 Y0.2473  
G01 X-1.4043 Y0.2473  
G01 X-1.4065 Y0.2466  
G01 X-1.4087 Y0.2460  
G01 X-1.4093 Y0.2456  
G01 X-1.4487 Y0.2325  
G01 X-1.5042 Y0.2325  
G01 X-1.5105 Y0.2313  
G01 X-1.5164 Y0.2288  
G01 X-1.5217 Y0.2252  
G01 X-1.5262 Y0.2207  
G01 X-1.5298 Y0.2154  
G01 X-1.5306 Y0.2135  
G01 X-1.6052 Y0.2011  
G01 X-1.6115 Y0.2075  
G01 X-1.6385 Y0.2075  
G01 X-1.6575 Y0.1885  
G01 X-1.6575 Y0.1615  
G01 X-1.6385 Y0.1425  
G01 X-1.6115 Y0.1425  
G01 X-1.5972 Y0.1568  
G01 X-1.5148 Y0.1706  
G01 X-1.5105 Y0.1687  
G01 X-1.5042 Y0.1675  
G01 X-1.4458 Y0.1675  
G01 X-1.4395 Y0.1687  
G01 X-1.4336 Y0.1712  
G01 X-1.4283 Y0.1748  
G01 X-1.4238 Y0.1793  
G01 X-1.4202 Y0.1846  
G01 X-1.4177 Y0.1905  
G01 X-1.4167 Y0.1957  
G01 X-1.3963 Y0.2025  
G01 X-1.2412 Y0.2025  
G01 X-1.2293 Y0.1667  
G01 X-1.2325 Y0.1635  
G01 X-1.2325 Y0.1365  
G01 X-1.2135 Y0.1175  
G01 X-1.1865 Y0.1175  
G01 X-1.1675 Y0.1365  
G00 Z0.0500  
G00 X-1.2925 Y0.1365  
G01 Z-0.0035 F10    
G01 X-1.2925 Y0.1635  F20    
G01 X-1.3115 Y0.1825  
G01 X-1.3385 Y0.1825  
G01 X-1.3575 Y0.1635  
G01 X-1.3575 Y0.1589  
G01 X-1.4803 Y0.0975  
G01 X-2.0861 Y0.0975  
G01 X-2.1025 Y0.1303  
G01 X-2.1025 Y0.2984  
G01 X-2.1023 Y0.2998  
G01 X-2.1025 Y0.3014  
G01 X-2.1025 Y0.3030  
G01 X-2.1029 Y0.3043  
G01 X-2.1030 Y0.3056  
G01 X-2.1036 Y0.3071  
G01 X-2.1040 Y0.3087  
G01 X-2.1047 Y0.3099  
G01 X-2.1052 Y0.3111  
G01 X-2.1062 Y0.3124  
G01 X-2.1070 Y0.3138  
G01 X-2.1080 Y0.3148  
G01 X-2.1675 Y0.3942  
G01 X-2.1675 Y0.4007  
G01 X-2.1367 Y0.4315  
G01 X-2.1139 Y0.4429  
G01 X-2.1135 Y0.4425  
G01 X-2.0865 Y0.4425  
G01 X-2.0675 Y0.4615  
G01 X-2.0675 Y0.4885  
G01 X-2.0865 Y0.5075  
G01 X-2.1135 Y0.5075  
G01 X-2.1325 Y0.4885  
G01 X-2.1325 Y0.4839  
G01 X-2.1580 Y0.4711  
G01 X-2.1587 Y0.4710  
G01 X-2.1607 Y0.4698  
G01 X-2.1627 Y0.4688  
G01 X-2.1632 Y0.4683  
G01 X-2.1638 Y0.4680  
G01 X-2.1654 Y0.4664  
G01 X-2.1671 Y0.4649  
G01 X-2.1675 Y0.4643  
G01 X-2.1965 Y0.4353  
G01 X-2.2309 Y0.4869  
G01 X-2.2320 Y0.4888  
G01 X-2.2325 Y0.4893  
G01 X-2.2329 Y0.4899  
G01 X-2.2346 Y0.4914  
G01 X-2.2425 Y0.4993  
G01 X-2.2425 Y0.5007  
G01 X-2.2350 Y0.5081  
G01 X-2.2338 Y0.5091  
G01 X-2.2330 Y0.5102  
G01 X-2.2320 Y0.5112  
G01 X-2.2312 Y0.5126  
G01 X-2.1713 Y0.5925  
G01 X-2.1615 Y0.5925  
G01 X-2.1425 Y0.6115  
G01 X-2.1425 Y0.6385  
G01 X-2.1615 Y0.6575  
G01 X-2.1885 Y0.6575  
G01 X-2.2075 Y0.6385  
G01 X-2.2075 Y0.6192  
G01 X-2.2670 Y0.5398  
G01 X-2.2743 Y0.5325  
G01 X-2.2885 Y0.5325  
G01 X-2.3075 Y0.5135  
G01 X-2.3075 Y0.4865  
G01 X-2.2885 Y0.4675  
G01 X-2.2743 Y0.4675  
G01 X-2.2675 Y0.4607  
G01 X-2.2325 Y0.4082  
G01 X-2.2325 Y0.3865  
G01 X-2.2135 Y0.3675  
G01 X-2.2037 Y0.3675  
G01 X-2.1475 Y0.2925  
G01 X-2.1475 Y0.1257  
G01 X-2.1476 Y0.1234  
G01 X-2.1475 Y0.1227  
G01 X-2.1475 Y0.1220  
G01 X-2.1469 Y0.1198  
G01 X-2.1464 Y0.1176  
G01 X-2.1461 Y0.1170  
G01 X-2.1460 Y0.1163  
G01 X-2.1448 Y0.1143  
G01 X-2.1211 Y0.0670  
G01 X-2.1210 Y0.0663  
G01 X-2.1198 Y0.0643  
G01 X-2.1188 Y0.0623  
G01 X-2.1183 Y0.0618  
G01 X-2.1180 Y0.0612  
G01 X-2.1164 Y0.0596  
G01 X-2.1149 Y0.0579  
G01 X-2.1143 Y0.0575  
G01 X-2.1138 Y0.0570  
G01 X-2.1118 Y0.0559  
G01 X-2.1099 Y0.0546  
G01 X-2.1093 Y0.0544  
G01 X-2.1087 Y0.0540  
G01 X-2.1065 Y0.0534  
G01 X-2.1043 Y0.0527  
G01 X-2.1036 Y0.0527  
G01 X-2.1030 Y0.0525  
G01 X-2.1007 Y0.0525  
G01 X-2.0984 Y0.0524  
G01 X-2.0977 Y0.0525  
G01 X-1.4757 Y0.0525  
G01 X-1.4734 Y0.0524  
G01 X-1.4727 Y0.0525  
G01 X-1.4720 Y0.0525  
G01 X-1.4698 Y0.0531  
G01 X-1.4676 Y0.0536  
G01 X-1.4670 Y0.0539  
G01 X-1.4663 Y0.0540  
G01 X-1.4643 Y0.0552  
G01 X-1.3389 Y0.1179  
G01 X-1.3385 Y0.1175  
G01 X-1.3115 Y0.1175  
G01 X-1.2925 Y0.1365  
G00 Z0.0500  
G00 X-1.4238 Y0.2793  
G01 Z-0.0035 F10    
G01 X-1.4202 Y0.2846  F20    
G01 X-1.4177 Y0.2905  
G01 X-1.4165 Y0.2968  
G01 X-1.4165 Y0.3032  
G01 X-1.4177 Y0.3095  
G01 X-1.4202 Y0.3154  
G01 X-1.4238 Y0.3207  
G01 X-1.4283 Y0.3252  
G01 X-1.4336 Y0.3288  
G01 X-1.4395 Y0.3313  
G01 X-1.4458 Y0.3325  
G01 X-1.4525 Y0.3325  
G01 X-1.4525 Y0.3675  
G01 X-1.4458 Y0.3675  
G01 X-1.4395 Y0.3687  
G01 X-1.4336 Y0.3712  
G01 X-1.4283 Y0.3748  
G01 X-1.4238 Y0.3793  
G01 X-1.4202 Y0.3846  
G01 X-1.4177 Y0.3905  
G01 X-1.4165 Y0.3968  
G01 X-1.4165 Y0.4032  
G01 X-1.4177 Y0.4095  
G01 X-1.4202 Y0.4154  
G01 X-1.4238 Y0.4207  
G01 X-1.4283 Y0.4252  
G01 X-1.4336 Y0.4288  
G01 X-1.4351 Y0.4294  
G01 X-1.4052 Y0.4893  
G01 X-1.4040 Y0.4913  
G01 X-1.4039 Y0.4920  
G01 X-1.4036 Y0.4926  
G01 X-1.4031 Y0.4948  
G01 X-1.4025 Y0.4970  
G01 X-1.4025 Y0.4977  
G01 X-1.4024 Y0.4984  
G01 X-1.4025 Y0.5007  
G01 X-1.4025 Y0.5765  
G01 X-1.3925 Y0.5865  
G01 X-1.3925 Y0.6135  
G01 X-1.4115 Y0.6325  
G01 X-1.4385 Y0.6325  
G01 X-1.4575 Y0.6135  
G01 X-1.4575 Y0.5865  
G01 X-1.4475 Y0.5765  
G01 X-1.4475 Y0.5053  
G01 X-1.4839 Y0.4325  
G01 X-1.5042 Y0.4325  
G01 X-1.5105 Y0.4313  
G01 X-1.5164 Y0.4288  
G01 X-1.5217 Y0.4252  
G01 X-1.5262 Y0.4207  
G01 X-1.5298 Y0.4154  
G01 X-1.5323 Y0.4095  
G01 X-1.5335 Y0.4032  
G01 X-1.5335 Y0.3968  
G01 X-1.5323 Y0.3905  
G01 X-1.5298 Y0.3846  
G01 X-1.5262 Y0.3793  
G01 X-1.5217 Y0.3748  
G01 X-1.5164 Y0.3712  
G01 X-1.5105 Y0.3687  
G01 X-1.5042 Y0.3675  
G01 X-1.4975 Y0.3675  
G01 X-1.4975 Y0.3325  
G01 X-1.5042 Y0.3325  
G01 X-1.5105 Y0.3313  
G01 X-1.5164 Y0.3288  
G01 X-1.5217 Y0.3252  
G01 X-1.5262 Y0.3207  
G01 X-1.5298 Y0.3154  
G01 X-1.5323 Y0.3095  
G01 X-1.5335 Y0.3032  
G01 X-1.5335 Y0.2968  
G01 X-1.5323 Y0.2905  
G01 X-1.5298 Y0.2846  
G01 X-1.5262 Y0.2793  
G01 X-1.5217 Y0.2748  
G01 X-1.5164 Y0.2712  
G01 X-1.5105 Y0.2687  
G01 X-1.5042 Y0.2675  
G01 X-1.4458 Y0.2675  
G01 X-1.4395 Y0.2687  
G01 X-1.4336 Y0.2712  
G01 X-1.4283 Y0.2748  
G01 X-1.4238 Y0.2793  
G00 Z0.0500  
G00 X-1.5925 Y0.3615  
G01 Z-0.0035 F10    
G01 X-1.5925 Y0.3885  F20    
G01 X-1.5929 Y0.3889  
G01 X-1.5161 Y0.5425  
G01 X-1.5115 Y0.5425  
G01 X-1.4925 Y0.5615  
G01 X-1.4925 Y0.5885  
G01 X-1.5115 Y0.6075  
G01 X-1.5385 Y0.6075  
G01 X-1.5575 Y0.5885  
G01 X-1.5575 Y0.5615  
G01 X-1.5571 Y0.5611  
G01 X-1.6339 Y0.4075  
G01 X-1.6385 Y0.4075  
G01 X-1.6575 Y0.3885  
G01 X-1.6575 Y0.3839  
G01 X-1.6842 Y0.3705  
G01 X-1.6861 Y0.3698  
G01 X-1.6869 Y0.3692  
G01 X-1.6877 Y0.3688  
G01 X-1.6892 Y0.3675  
G01 X-1.6909 Y0.3662  
G01 X-1.6914 Y0.3655  
G01 X-1.6921 Y0.3649  
G01 X-1.6933 Y0.3632  
G01 X-1.6945 Y0.3616  
G01 X-1.6949 Y0.3607  
G01 X-1.6954 Y0.3599  
G01 X-1.6960 Y0.3580  
G01 X-1.7606 Y0.2075  
G01 X-1.7635 Y0.2075  
G01 X-1.7825 Y0.1885  
G01 X-1.7825 Y0.1615  
G01 X-1.7635 Y0.1425  
G01 X-1.7365 Y0.1425  
G01 X-1.7175 Y0.1615  
G01 X-1.7175 Y0.1885  
G01 X-1.7191 Y0.1900  
G01 X-1.6576 Y0.3336  
G01 X-1.6389 Y0.3429  
G01 X-1.6385 Y0.3425  
G01 X-1.6115 Y0.3425  
G01 X-1.5925 Y0.3615  
G00 Z0.0500  
G00 X-1.6925 Y0.5615  
G01 Z-0.0035 F10    
G01 X-1.6925 Y0.5885  F20    
G01 X-1.7115 Y0.6075  
G01 X-1.7385 Y0.6075  
G01 X-1.7485 Y0.5975  
G01 X-1.7932 Y0.5975  
G01 X-1.8425 Y0.6304  
G01 X-1.8425 Y0.6385  
G01 X-1.8615 Y0.6575  
G01 X-1.8885 Y0.6575  
G01 X-1.9075 Y0.6385  
G01 X-1.9075 Y0.6379  
G01 X-2.0315 Y0.5966  
G01 X-2.0337 Y0.5960  
G01 X-2.0343 Y0.5956  
G01 X-2.0349 Y0.5954  
G01 X-2.0368 Y0.5941  
G01 X-2.0388 Y0.5930  
G01 X-2.0393 Y0.5925  
G01 X-2.0399 Y0.5921  
G01 X-2.0414 Y0.5904  
G01 X-2.0493 Y0.5825  
G01 X-2.0635 Y0.5825  
G01 X-2.0825 Y0.5635  
G01 X-2.0825 Y0.5365  
G01 X-2.0635 Y0.5175  
G01 X-2.0365 Y0.5175  
G01 X-2.0175 Y0.5365  
G01 X-2.0175 Y0.5507  
G01 X-2.0128 Y0.5553  
G01 X-1.8917 Y0.5957  
G01 X-1.8885 Y0.5925  
G01 X-1.8668 Y0.5925  
G01 X-1.8143 Y0.5575  
G01 X-1.8138 Y0.5570  
G01 X-1.8119 Y0.5559  
G01 X-1.8100 Y0.5546  
G01 X-1.8093 Y0.5544  
G01 X-1.8087 Y0.5540  
G01 X-1.8065 Y0.5535  
G01 X-1.8044 Y0.5527  
G01 X-1.8037 Y0.5527  
G01 X-1.8030 Y0.5525  
G01 X-1.8007 Y0.5525  
G01 X-1.7985 Y0.5524  
G01 X-1.7978 Y0.5525  
G01 X-1.7485 Y0.5525  
G01 X-1.7385 Y0.5425  
G01 X-1.7115 Y0.5425  
G01 X-1.6925 Y0.5615  
G00 Z0.0500  
G00 X-1.7925 Y0.6865  
G01 Z-0.0035 F10    
G01 X-1.7925 Y0.7135  F20    
G01 X-1.8115 Y0.7325  
G01 X-1.8385 Y0.7325  
G01 X-1.8485 Y0.7225  
G01 X-2.2978 Y0.7225  
G01 X-2.2985 Y0.7226  
G01 X-2.3007 Y0.7225  
G01 X-2.3030 Y0.7225  
G01 X-2.3037 Y0.7223  
G01 X-2.3044 Y0.7223  
G01 X-2.3065 Y0.7215  
G01 X-2.3087 Y0.7210  
G01 X-2.3093 Y0.7206  
G01 X-2.3100 Y0.7204  
G01 X-2.3119 Y0.7191  
G01 X-2.3138 Y0.7180  
G01 X-2.3143 Y0.7175  
G01 X-2.3668 Y0.6825  
G01 X-2.3885 Y0.6825  
G01 X-2.4075 Y0.6635  
G01 X-2.4075 Y0.6365  
G01 X-2.4018 Y0.6308  
G01 X-2.4172 Y0.5538  
G01 X-2.4325 Y0.5385  
G01 X-2.4325 Y0.5115  
G01 X-2.4277 Y0.5068  
G01 X-2.4462 Y0.4328  
G01 X-2.4465 Y0.4323  
G01 X-2.4468 Y0.4308  
G01 X-2.4473 Y0.4293  
G01 X-2.4473 Y0.4284  
G01 X-2.4475 Y0.4276  
G01 X-2.4475 Y0.4270  
G01 X-2.4672 Y0.3288  
G01 X-2.4825 Y0.3135  
G01 X-2.4825 Y0.2865  
G01 X-2.4635 Y0.2675  
G01 X-2.4365 Y0.2675  
G01 X-2.4175 Y0.2865  
G01 X-2.4175 Y0.3135  
G01 X-2.4232 Y0.3192  
G01 X-2.4079 Y0.3956  
G01 X-2.3825 Y0.3871  
G01 X-2.3825 Y0.3865  
G01 X-2.3635 Y0.3675  
G01 X-2.3365 Y0.3675  
G01 X-2.3175 Y0.3865  
G01 X-2.3175 Y0.4135  
G01 X-2.3365 Y0.4325  
G01 X-2.3635 Y0.4325  
G01 X-2.3667 Y0.4293  
G01 X-2.3981 Y0.4398  
G01 X-2.3844 Y0.4946  
G01 X-2.3675 Y0.5115  
G01 X-2.3675 Y0.5385  
G01 X-2.3732 Y0.5442  
G01 X-2.3578 Y0.6212  
G01 X-2.3425 Y0.6365  
G01 X-2.3425 Y0.6446  
G01 X-2.2932 Y0.6775  
G01 X-1.8485 Y0.6775  
G01 X-1.8385 Y0.6675  
G01 X-1.8115 Y0.6675  
G01 X-1.7925 Y0.6865  
G00 Z0.0500  
G00 X-1.9865 Y0.5075  
G01 Z-0.0035 F10    
G01 X-2.0135 Y0.5075  F20    
G01 X-2.0325 Y0.4885  
G01 X-2.0325 Y0.4615  
G01 X-2.0268 Y0.4558  
G01 X-2.0414 Y0.3825  
G01 X-2.0542 Y0.3825  
G01 X-2.0605 Y0.3813  
G01 X-2.0664 Y0.3788  
G01 X-2.0717 Y0.3752  
G01 X-2.0762 Y0.3707  
G01 X-2.0798 Y0.3654  
G01 X-2.0823 Y0.3595  
G01 X-2.0835 Y0.3532  
G01 X-2.0835 Y0.3468  
G01 X-2.0823 Y0.3405  
G01 X-2.0798 Y0.3346  
G01 X-2.0762 Y0.3293  
G01 X-2.0717 Y0.3248  
G01 X-2.0664 Y0.3212  
G01 X-2.0605 Y0.3187  
G01 X-2.0542 Y0.3175  
G01 X-1.9958 Y0.3175  
G01 X-1.9895 Y0.3187  
G01 X-1.9836 Y0.3212  
G01 X-1.9783 Y0.3248  
G01 X-1.9738 Y0.3293  
G01 X-1.9702 Y0.3346  
G01 X-1.9677 Y0.3405  
G01 X-1.9665 Y0.3468  
G01 X-1.9665 Y0.3532  
G01 X-1.9677 Y0.3595  
G01 X-1.9702 Y0.3654  
G01 X-1.9738 Y0.3707  
G01 X-1.9783 Y0.3752  
G01 X-1.9836 Y0.3788  
G01 X-1.9895 Y0.3813  
G01 X-1.9956 Y0.3825  
G01 X-1.9828 Y0.4462  
G01 X-1.9675 Y0.4615  
G01 X-1.9675 Y0.4885  
G01 X-1.9865 Y0.5075  
G00 Z0.0500  
G00 X-1.9895 Y0.2813  
G01 Z-0.0035 F10    
G01 X-1.9958 Y0.2825  F20    
G01 X-2.0542 Y0.2825  
G01 X-2.0605 Y0.2813  
G01 X-2.0664 Y0.2788  
G01 X-2.0717 Y0.2752  
G01 X-2.0762 Y0.2707  
G01 X-2.0798 Y0.2654  
G01 X-2.0823 Y0.2595  
G01 X-2.0835 Y0.2532  
G01 X-2.0835 Y0.2468  
G01 X-2.0823 Y0.2405  
G01 X-2.0798 Y0.2346  
G01 X-2.0762 Y0.2293  
G01 X-2.0717 Y0.2248  
G01 X-2.0664 Y0.2212  
G01 X-2.0605 Y0.2187  
G01 X-2.0542 Y0.2175  
G01 X-2.0475 Y0.2175  
G01 X-2.0475 Y0.1825  
G01 X-2.0542 Y0.1825  
G01 X-2.0605 Y0.1813  
G01 X-2.0664 Y0.1788  
G01 X-2.0717 Y0.1752  
G01 X-2.0762 Y0.1707  
G01 X-2.0798 Y0.1654  
G01 X-2.0823 Y0.1595  
G01 X-2.0835 Y0.1532  
G01 X-2.0835 Y0.1468  
G01 X-2.0823 Y0.1405  
G01 X-2.0798 Y0.1346  
G01 X-2.0762 Y0.1293  
G01 X-2.0717 Y0.1248  
G01 X-2.0664 Y0.1212  
G01 X-2.0605 Y0.1187  
G01 X-2.0542 Y0.1175  
G01 X-1.9958 Y0.1175  
G01 X-1.9895 Y0.1187  
G01 X-1.9836 Y0.1212  
G01 X-1.9783 Y0.1248  
G01 X-1.9738 Y0.1293  
G01 X-1.9702 Y0.1346  
G01 X-1.9700 Y0.1351  
G01 X-1.8703 Y0.1494  
G01 X-1.8635 Y0.1425  
G01 X-1.8365 Y0.1425  
G01 X-1.8175 Y0.1615  
G01 X-1.8175 Y0.1885  
G01 X-1.8365 Y0.2075  
G01 X-1.8635 Y0.2075  
G01 X-1.8771 Y0.1939  
G01 X-1.9834 Y0.1787  
G01 X-1.9836 Y0.1788  
G01 X-1.9895 Y0.1813  
G01 X-1.9958 Y0.1825  
G01 X-2.0025 Y0.1825  
G01 X-2.0025 Y0.2175  
G01 X-1.9958 Y0.2175  
G01 X-1.9895 Y0.2187  
G01 X-1.9836 Y0.2212  
G01 X-1.9783 Y0.2248  
G01 X-1.9738 Y0.2293  
G01 X-1.9702 Y0.2346  
G01 X-1.9677 Y0.2405  
G01 X-1.9665 Y0.2468  
G01 X-1.9665 Y0.2532  
G01 X-1.9677 Y0.2595  
G01 X-1.9702 Y0.2654  
G01 X-1.9738 Y0.2707  
G01 X-1.9783 Y0.2752  
G01 X-1.9836 Y0.2788  
G01 X-1.9895 Y0.2813  
G00 Z0.0500  
G00 X-2.1865 Y0.2325  
G01 Z-0.0035 F10    
G01 X-2.2135 Y0.2325  F20    
G01 X-2.2325 Y0.2135  
G01 X-2.2325 Y0.1865  
G01 X-2.2225 Y0.1765  
G01 X-2.2225 Y0.1235  
G01 X-2.2325 Y0.1135  
G01 X-2.2325 Y0.0865  
G01 X-2.2135 Y0.0675  
G01 X-2.1865 Y0.0675  
G01 X-2.1675 Y0.0865  
G01 X-2.1675 Y0.1135  
G01 X-2.1775 Y0.1235  
G01 X-2.1775 Y0.1765  
G01 X-2.1675 Y0.1865  
G01 X-2.1675 Y0.2135  
G01 X-2.1865 Y0.2325  
G00 Z0.0500  
G00 X-2.3365 Y0.2325  
G01 Z-0.0035 F10    
G01 X-2.3635 Y0.2325  F20    
G01 X-2.3825 Y0.2135  
G01 X-2.3825 Y0.2054  
G01 X-2.4918 Y0.1325  
G01 X-2.5135 Y0.1325  
G01 X-2.5325 Y0.1135  
G01 X-2.5325 Y0.0865  
G01 X-2.5135 Y0.0675  
G01 X-2.4865 Y0.0675  
G01 X-2.4675 Y0.0865  
G01 X-2.4675 Y0.0946  
G01 X-2.3582 Y0.1675  
G01 X-2.3365 Y0.1675  
G01 X-2.3175 Y0.1865  
G01 X-2.3175 Y0.2135  
G01 X-2.3365 Y0.2325  
G00 Z0.0500  
G00 X-2.4925 Y0.2365  
G01 Z-0.0035 F10    
G01 X-2.4925 Y0.2635  F20    
G01 X-2.5115 Y0.2825  
G01 X-2.5385 Y0.2825  
G01 X-2.5485 Y0.2725  
G01 X-2.5638 Y0.2725  
G01 X-2.6175 Y0.3442  
G01 X-2.6175 Y0.3635  
G01 X-2.6365 Y0.3825  
G01 X-2.6635 Y0.3825  
G01 X-2.6825 Y0.3635  
G01 X-2.6825 Y0.3365  
G01 X-2.6635 Y0.3175  
G01 X-2.6537 Y0.3175  
G01 X-2.5938 Y0.2376  
G01 X-2.5930 Y0.2362  
G01 X-2.5920 Y0.2352  
G01 X-2.5912 Y0.2341  
G01 X-2.5900 Y0.2331  
G01 X-2.5888 Y0.2320  
G01 X-2.5876 Y0.2313  
G01 X-2.5866 Y0.2305  
G01 X-2.5851 Y0.2298  
G01 X-2.5837 Y0.2290  
G01 X-2.5824 Y0.2287  
G01 X-2.5811 Y0.2281  
G01 X-2.5795 Y0.2279  
G01 X-2.5780 Y0.2275  
G01 X-2.5766 Y0.2275  
G01 X-2.5752 Y0.2273  
G01 X-2.5736 Y0.2275  
G01 X-2.5485 Y0.2275  
G01 X-2.5385 Y0.2175  
G01 X-2.5115 Y0.2175  
G01 X-2.4925 Y0.2365  
G00 Z0.0500  
G00 X-2.4925 Y0.3365  
G01 Z-0.0035 F10    
G01 X-2.4925 Y0.3635  F20    
G01 X-2.5115 Y0.3825  
G01 X-2.5257 Y0.3825  
G01 X-2.5775 Y0.4343  
G01 X-2.5775 Y0.5015  
G01 X-2.5675 Y0.5115  
G01 X-2.5675 Y0.5385  
G01 X-2.5865 Y0.5575  
G01 X-2.5933 Y0.5575  
G01 X-2.6425 Y0.6396  
G01 X-2.6425 Y0.6635  
G01 X-2.6525 Y0.6735  
G01 X-2.6525 Y0.7515  
G01 X-2.6425 Y0.7615  
G01 X-2.6425 Y0.7885  
G01 X-2.6615 Y0.8075  
G01 X-2.6885 Y0.8075  
G01 X-2.6985 Y0.7975  
G01 X-2.7443 Y0.7975  
G01 X-2.7455 Y0.7992  
G01 X-2.7508 Y0.8045  
G01 X-2.7570 Y0.8087  
G01 X-2.7639 Y0.8115  
G01 X-2.7713 Y0.8130  
G01 X-2.7787 Y0.8130  
G01 X-2.7861 Y0.8115  
G01 X-2.7930 Y0.8087  
G01 X-2.7992 Y0.8045  
G01 X-2.8045 Y0.7992  
G01 X-2.8087 Y0.7930  
G01 X-2.8115 Y0.7861  
G01 X-2.8130 Y0.7787  
G01 X-2.8130 Y0.7713  
G01 X-2.8115 Y0.7639  
G01 X-2.8087 Y0.7570  
G01 X-2.8045 Y0.7508  
G01 X-2.7992 Y0.7455  
G01 X-2.7930 Y0.7413  
G01 X-2.7861 Y0.7385  
G01 X-2.7787 Y0.7370  
G01 X-2.7713 Y0.7370  
G01 X-2.7639 Y0.7385  
G01 X-2.7570 Y0.7413  
G01 X-2.7508 Y0.7455  
G01 X-2.7455 Y0.7508  
G01 X-2.7443 Y0.7525  
G01 X-2.6985 Y0.7525  
G01 X-2.6975 Y0.7515  
G01 X-2.6975 Y0.6735  
G01 X-2.7075 Y0.6635  
G01 X-2.7075 Y0.6365  
G01 X-2.6885 Y0.6175  
G01 X-2.6817 Y0.6175  
G01 X-2.6325 Y0.5354  
G01 X-2.6325 Y0.5115  
G01 X-2.6225 Y0.5015  
G01 X-2.6225 Y0.4220  
G01 X-2.6210 Y0.4163  
G01 X-2.6180 Y0.4112  
G01 X-2.5575 Y0.3507  
G01 X-2.5575 Y0.3365  
G01 X-2.5385 Y0.3175  
G01 X-2.5115 Y0.3175  
G01 X-2.4925 Y0.3365  
G00 Z0.0500  
G00 X-2.8351 Y0.5813  
G01 Z-0.0035 F10    
G01 X-2.8298 Y0.5885  F20    
G01 X-2.8258 Y0.5964  
G01 X-2.8230 Y0.6049  
G01 X-2.8216 Y0.6137  
G01 X-2.8216 Y0.6226  
G01 X-2.8230 Y0.6313  
G01 X-2.8258 Y0.6398  
G01 X-2.8298 Y0.6477  
G01 X-2.8351 Y0.6549  
G01 X-2.8413 Y0.6612  
G01 X-2.8485 Y0.6664  
G01 X-2.8565 Y0.6705  
G01 X-2.8649 Y0.6732  
G01 X-2.8737 Y0.6746  
G01 X-2.9149 Y0.6746  
G01 X-2.9217 Y0.7147  
G01 X-2.8900 Y0.7370  
G01 X-2.8593 Y0.7370  
G01 X-2.8370 Y0.7593  
G01 X-2.8370 Y0.7907  
G01 X-2.8593 Y0.8130  
G01 X-2.8907 Y0.8130  
G01 X-2.9130 Y0.7907  
G01 X-2.9130 Y0.7758  
G01 X-2.9575 Y0.7446  
G01 X-2.9583 Y0.7442  
G01 X-2.9599 Y0.7429  
G01 X-2.9616 Y0.7417  
G01 X-2.9622 Y0.7410  
G01 X-2.9629 Y0.7404  
G01 X-2.9641 Y0.7388  
G01 X-2.9654 Y0.7372  
G01 X-2.9658 Y0.7364  
G01 X-2.9663 Y0.7356  
G01 X-2.9670 Y0.7337  
G01 X-2.9679 Y0.7318  
G01 X-2.9681 Y0.7309  
G01 X-2.9684 Y0.7301  
G01 X-2.9686 Y0.7280  
G01 X-2.9689 Y0.7260  
G01 X-2.9689 Y0.7251  
G01 X-2.9689 Y0.7242  
G01 X-2.9686 Y0.7221  
G01 X-2.9684 Y0.7201  
G01 X-2.9681 Y0.7192  
G01 X-2.9605 Y0.6746  
G01 X-2.9826 Y0.6746  
G01 X-2.9914 Y0.6732  
G01 X-2.9998 Y0.6705  
G01 X-3.0078 Y0.6664  
G01 X-3.0150 Y0.6612  
G01 X-3.0212 Y0.6549  
G01 X-3.0265 Y0.6477  
G01 X-3.0305 Y0.6398  
G01 X-3.0333 Y0.6313  
G01 X-3.0346 Y0.6226  
G01 X-3.0346 Y0.6137  
G01 X-3.0333 Y0.6049  
G01 X-3.0305 Y0.5964  
G01 X-3.0265 Y0.5885  
G01 X-3.0212 Y0.5813  
G01 X-3.0150 Y0.5750  
G01 X-3.0078 Y0.5698  
G01 X-2.9998 Y0.5657  
G01 X-2.9914 Y0.5630  
G01 X-2.9826 Y0.5616  
G01 X-2.8737 Y0.5616  
G01 X-2.8649 Y0.5630  
G01 X-2.8565 Y0.5657  
G01 X-2.8485 Y0.5698  
G01 X-2.8413 Y0.5750  
G01 X-2.8351 Y0.5813  
G00 Z0.0500  
G00 X-3.0764 Y0.5859  
G01 Z-0.0035 F10    
G01 X-3.0778 Y0.5947  F20    
G01 X-3.0805 Y0.6032  
G01 X-3.0846 Y0.6111  
G01 X-3.0898 Y0.6183  
G01 X-3.0961 Y0.6246  
G01 X-3.1033 Y0.6298  
G01 X-3.1061 Y0.6312  
G01 X-3.1036 Y0.6888  
G01 X-3.0668 Y0.6888  
G01 X-3.0598 Y0.6902  
G01 X-3.0532 Y0.6929  
G01 X-3.0472 Y0.6969  
G01 X-3.0422 Y0.7019  
G01 X-3.0382 Y0.7079  
G01 X-3.0355 Y0.7144  
G01 X-3.0341 Y0.7214  
G01 X-3.0341 Y0.7286  
G01 X-3.0355 Y0.7356  
G01 X-3.0382 Y0.7421  
G01 X-3.0422 Y0.7481  
G01 X-3.0472 Y0.7531  
G01 X-3.0532 Y0.7571  
G01 X-3.0598 Y0.7598  
G01 X-3.0668 Y0.7612  
G01 X-3.1332 Y0.7612  
G01 X-3.1402 Y0.7598  
G01 X-3.1468 Y0.7571  
G01 X-3.1528 Y0.7531  
G01 X-3.1578 Y0.7481  
G01 X-3.1618 Y0.7421  
G01 X-3.1645 Y0.7356  
G01 X-3.1659 Y0.7286  
G01 X-3.1659 Y0.7214  
G01 X-3.1645 Y0.7144  
G01 X-3.1618 Y0.7079  
G01 X-3.1578 Y0.7019  
G01 X-3.1528 Y0.6969  
G01 X-3.1484 Y0.6940  
G01 X-3.1509 Y0.6350  
G01 X-3.1546 Y0.6339  
G01 X-3.1625 Y0.6298  
G01 X-3.1697 Y0.6246  
G01 X-3.1760 Y0.6183  
G01 X-3.1812 Y0.6111  
G01 X-3.1852 Y0.6032  
G01 X-3.1880 Y0.5947  
G01 X-3.1894 Y0.5859  
G01 X-3.1894 Y0.4770  
G01 X-3.1880 Y0.4683  
G01 X-3.1852 Y0.4598  
G01 X-3.1812 Y0.4519  
G01 X-3.1760 Y0.4447  
G01 X-3.1697 Y0.4384  
G01 X-3.1625 Y0.4332  
G01 X-3.1546 Y0.4291  
G01 X-3.1461 Y0.4264  
G01 X-3.1373 Y0.4250  
G01 X-3.1284 Y0.4250  
G01 X-3.1196 Y0.4264  
G01 X-3.1112 Y0.4291  
G01 X-3.1033 Y0.4332  
G01 X-3.0961 Y0.4384  
G01 X-3.0898 Y0.4447  
G01 X-3.0846 Y0.4519  
G01 X-3.0805 Y0.4598  
G01 X-3.0778 Y0.4683  
G01 X-3.0764 Y0.4770  
G01 X-3.0764 Y0.5859  
G00 Z0.0500  
G00 X-0.0305 Y0.0816  
G01 Z-0.0035 F10    
G01 X-0.0305 Y0.1184  F20    
G01 X-0.0566 Y0.1445  
G01 X-0.0934 Y0.1445  
G01 X-0.1195 Y0.1184  
G01 X-0.1195 Y0.0816  
G01 X-0.0934 Y0.0555  
G01 X-0.0566 Y0.0555  
G01 X-0.0305 Y0.0816  
G00 Z0.0500  
G00 X-0.0305 Y0.1816  
G01 Z-0.0035 F10    
G01 X-0.0305 Y0.2184  F20    
G01 X-0.0425 Y0.2304  
G01 X-0.0425 Y0.2696  
G01 X-0.0305 Y0.2816  
G01 X-0.0305 Y0.3184  
G01 X-0.0425 Y0.3304  
G01 X-0.0425 Y0.3696  
G01 X-0.0305 Y0.3816  
G01 X-0.0305 Y0.4184  
G01 X-0.0566 Y0.4445  
G01 X-0.0934 Y0.4445  
G01 X-0.1144 Y0.4235  
G01 X-0.1356 Y0.4235  
G01 X-0.1566 Y0.4445  
G01 X-0.1934 Y0.4445  
G01 X-0.2195 Y0.4184  
G01 X-0.2195 Y0.3816  
G01 X-0.2075 Y0.3696  
G01 X-0.2075 Y0.3304  
G01 X-0.2195 Y0.3184  
G01 X-0.2195 Y0.2816  
G01 X-0.2075 Y0.2696  
G01 X-0.2075 Y0.2304  
G01 X-0.2144 Y0.2235  
G01 X-0.4761 Y0.2235  
G01 X-0.4861 Y0.2335  
G01 X-0.5139 Y0.2335  
G01 X-0.5141 Y0.2333  
G01 X-0.5765 Y0.2645  
G01 X-0.5765 Y0.4261  
G01 X-0.5665 Y0.4361  
G01 X-0.5665 Y0.4639  
G01 X-0.5667 Y0.4641  
G01 X-0.5546 Y0.4882  
G01 X-0.5542 Y0.4889  
G01 X-0.5536 Y0.4902  
G01 X-0.5529 Y0.4916  
G01 X-0.5527 Y0.4924  
G01 X-0.5524 Y0.4931  
G01 X-0.5521 Y0.4946  
G01 X-0.5517 Y0.4960  
G01 X-0.5517 Y0.4969  
G01 X-0.5515 Y0.4977  
G01 X-0.5515 Y0.4992  
G01 X-0.5514 Y0.5006  
G01 X-0.5515 Y0.5015  
G01 X-0.5515 Y0.7273  
G01 X-0.5524 Y0.7319  
G01 X-0.5542 Y0.7361  
G01 X-0.5567 Y0.7400  
G01 X-0.5600 Y0.7433  
G01 X-0.5639 Y0.7458  
G01 X-0.5681 Y0.7476  
G01 X-0.5727 Y0.7485  
G01 X-1.0523 Y0.7485  
G01 X-1.0569 Y0.7476  
G01 X-1.0611 Y0.7458  
G01 X-1.0650 Y0.7433  
G01 X-1.0910 Y0.7172  
G01 X-1.0921 Y0.7162  
G01 X-1.0927 Y0.7156  
G01 X-1.0933 Y0.7150  
G01 X-1.0941 Y0.7137  
G01 X-1.0950 Y0.7126  
G01 X-1.0954 Y0.7118  
G01 X-1.0958 Y0.7111  
G01 X-1.0964 Y0.7098  
G01 X-1.1345 Y0.6335  
G01 X-1.1389 Y0.6335  
G01 X-1.1585 Y0.6139  
G01 X-1.1585 Y0.6059  
G01 X-1.2515 Y0.5439  
G01 X-1.2515 Y0.6023  
G01 X-1.2524 Y0.6069  
G01 X-1.2542 Y0.6111  
G01 X-1.2567 Y0.6150  
G01 X-1.3567 Y0.7150  
G01 X-1.3600 Y0.7183  
G01 X-1.3639 Y0.7208  
G01 X-1.3681 Y0.7226  
G01 X-1.3727 Y0.7235  
G01 X-1.5011 Y0.7235  
G01 X-1.5111 Y0.7335  
G01 X-1.5389 Y0.7335  
G01 X-1.5585 Y0.7139  
G01 X-1.5585 Y0.7059  
G01 X-1.6111 Y0.6708  
G01 X-1.6148 Y0.6684  
G01 X-1.6150 Y0.6683  
G01 X-1.6182 Y0.6650  
G01 X-1.6208 Y0.6612  
G01 X-1.6226 Y0.6569  
G01 X-1.6235 Y0.6523  
G01 X-1.6461 Y0.5392  
G01 X-1.7071 Y0.4985  
G01 X-1.7261 Y0.4985  
G01 X-1.7361 Y0.5085  
G01 X-1.7639 Y0.5085  
G01 X-1.7739 Y0.4985  
G01 X-1.8261 Y0.4985  
G01 X-1.8361 Y0.5085  
G01 X-1.8639 Y0.5085  
G01 X-1.8835 Y0.4889  
G01 X-1.8835 Y0.4611  
G01 X-1.8639 Y0.4415  
G01 X-1.8361 Y0.4415  
G01 X-1.8261 Y0.4515  
G01 X-1.7739 Y0.4515  
G01 X-1.7639 Y0.4415  
G01 X-1.7361 Y0.4415  
G01 X-1.7261 Y0.4515  
G01 X-1.7000 Y0.4515  
G01 X-1.6977 Y0.4515  
G01 X-1.6954 Y0.4519  
G01 X-1.6932 Y0.4524  
G01 X-1.6910 Y0.4533  
G01 X-1.6889 Y0.4542  
G01 X-1.6870 Y0.4554  
G01 X-1.6139 Y0.5042  
G01 X-1.6100 Y0.5067  
G01 X-1.6068 Y0.5100  
G01 X-1.6042 Y0.5138  
G01 X-1.6024 Y0.5181  
G01 X-1.5789 Y0.6358  
G01 X-1.5329 Y0.6665  
G01 X-1.5111 Y0.6665  
G01 X-1.5011 Y0.6765  
G01 X-1.3847 Y0.6765  
G01 X-1.2985 Y0.5903  
G01 X-1.2985 Y0.5239  
G01 X-1.3085 Y0.5139  
G01 X-1.3085 Y0.4861  
G01 X-1.2889 Y0.4665  
G01 X-1.2611 Y0.4665  
G01 X-1.2415 Y0.4861  
G01 X-1.2415 Y0.4941  
G01 X-1.1329 Y0.5665  
G01 X-1.1111 Y0.5665  
G01 X-1.0915 Y0.5861  
G01 X-1.0915 Y0.6139  
G01 X-1.0917 Y0.6141  
G01 X-1.0557 Y0.6861  
G01 X-1.0403 Y0.7015  
G01 X-0.5985 Y0.7015  
G01 X-0.5985 Y0.5055  
G01 X-0.6095 Y0.4835  
G01 X-0.6139 Y0.4835  
G01 X-0.6335 Y0.4639  
G01 X-0.6335 Y0.4361  
G01 X-0.6235 Y0.4261  
G01 X-0.6235 Y0.2508  
G01 X-0.6236 Y0.2494  
G01 X-0.6235 Y0.2485  
G01 X-0.6235 Y0.2477  
G01 X-0.6232 Y0.2462  
G01 X-0.6230 Y0.2448  
G01 X-0.6228 Y0.2440  
G01 X-0.6226 Y0.2431  
G01 X-0.6220 Y0.2418  
G01 X-0.6216 Y0.2404  
G01 X-0.6211 Y0.2396  
G01 X-0.6208 Y0.2389  
G01 X-0.6200 Y0.2376  
G01 X-0.6193 Y0.2364  
G01 X-0.6187 Y0.2357  
G01 X-0.6183 Y0.2350  
G01 X-0.6172 Y0.2340  
G01 X-0.6162 Y0.2329  
G01 X-0.6156 Y0.2323  
G01 X-0.6150 Y0.2317  
G01 X-0.6137 Y0.2309  
G01 X-0.6126 Y0.2300  
G01 X-0.6118 Y0.2296  
G01 X-0.6111 Y0.2292  
G01 X-0.6098 Y0.2286  
G01 X-0.5335 Y0.1905  
G01 X-0.5335 Y0.1861  
G01 X-0.5235 Y0.1761  
G01 X-0.5235 Y0.0485  
G01 X-2.5945 Y0.0485  
G01 X-2.6165 Y0.0595  
G01 X-2.6165 Y0.0639  
G01 X-2.6361 Y0.0835  
G01 X-2.6639 Y0.0835  
G01 X-2.6699 Y0.0775  
G01 X-2.8210 Y0.1050  
G01 X-2.8221 Y0.1119  
G01 X-2.8249 Y0.1205  
G01 X-2.8290 Y0.1286  
G01 X-2.8343 Y0.1359  
G01 X-2.8407 Y0.1423  
G01 X-2.8480 Y0.1476  
G01 X-2.8561 Y0.1517  
G01 X-2.8647 Y0.1545  
G01 X-2.8736 Y0.1559  
G01 X-2.9665 Y0.1559  
G01 X-3.2015 Y0.3126  
G01 X-3.2015 Y0.7591  
G01 X-3.1297 Y0.7878  
G01 X-3.0667 Y0.7878  
G01 X-3.0595 Y0.7892  
G01 X-3.0527 Y0.7920  
G01 X-3.0466 Y0.7961  
G01 X-3.0414 Y0.8013  
G01 X-3.0374 Y0.8074  
G01 X-3.0346 Y0.8142  
G01 X-3.0331 Y0.8213  
G01 X-3.0331 Y0.8287  
G01 X-3.0346 Y0.8358  
G01 X-3.0374 Y0.8426  
G01 X-3.0414 Y0.8487  
G01 X-3.0466 Y0.8539  
G01 X-3.0527 Y0.8580  
G01 X-3.0595 Y0.8608  
G01 X-3.0667 Y0.8622  
G01 X-3.1333 Y0.8622  
G01 X-3.1405 Y0.8608  
G01 X-3.1473 Y0.8580  
G01 X-3.1534 Y0.8539  
G01 X-3.1586 Y0.8487  
G01 X-3.1626 Y0.8426  
G01 X-3.1654 Y0.8358  
G01 X-3.1669 Y0.8287  
G01 X-3.1669 Y0.8236  
G01 X-3.2317 Y0.7976  
G01 X-3.2319 Y0.7976  
G01 X-3.2339 Y0.7968  
G01 X-3.2359 Y0.7960  
G01 X-3.2360 Y0.7959  
G01 X-3.2361 Y0.7958  
G01 X-3.2379 Y0.7946  
G01 X-3.2398 Y0.7934  
G01 X-3.2399 Y0.7933  
G01 X-3.2400 Y0.7933  
G01 X-3.2415 Y0.7917  
G01 X-3.2431 Y0.7902  
G01 X-3.2432 Y0.7901  
G01 X-3.2433 Y0.7900  
G01 X-3.2445 Y0.7882  
G01 X-3.2457 Y0.7864  
G01 X-3.2457 Y0.7863  
G01 X-3.2458 Y0.7861  
G01 X-3.2467 Y0.7841  
G01 X-3.2475 Y0.7821  
G01 X-3.2475 Y0.7820  
G01 X-3.2476 Y0.7819  
G01 X-3.2480 Y0.7797  
G01 X-3.2485 Y0.7776  
G01 X-3.2485 Y0.7775  
G01 X-3.2485 Y0.7773  
G01 X-3.2485 Y0.7751  
G01 X-3.2485 Y0.7730  
G01 X-3.2485 Y0.7728  
G01 X-3.2485 Y0.3023  
G01 X-3.2485 Y0.3000  
G01 X-3.2485 Y0.2977  
G01 X-3.2481 Y0.2955  
G01 X-3.2476 Y0.2931  
G01 X-3.2467 Y0.2910  
G01 X-3.2458 Y0.2889  
G01 X-3.2446 Y0.2870  
G01 X-3.2433 Y0.2850  
G01 X-3.2416 Y0.2834  
G01 X-3.2400 Y0.2817  
G01 X-3.2380 Y0.2805  
G01 X-3.2361 Y0.2792  
G01 X-3.0217 Y0.1362  
G01 X-3.0220 Y0.1359  
G01 X-3.0273 Y0.1286  
G01 X-3.0314 Y0.1205  
G01 X-3.0342 Y0.1119  
G01 X-3.0356 Y0.1030  
G01 X-3.0356 Y0.0939  
G01 X-3.0342 Y0.0850  
G01 X-3.0314 Y0.0764  
G01 X-3.0273 Y0.0683  
G01 X-3.0220 Y0.0610  
G01 X-3.0156 Y0.0546  
G01 X-3.0083 Y0.0492  
G01 X-3.0002 Y0.0451  
G01 X-2.9916 Y0.0423  
G01 X-2.9827 Y0.0409  
G01 X-2.8736 Y0.0409  
G01 X-2.8647 Y0.0423  
G01 X-2.8561 Y0.0451  
G01 X-2.8480 Y0.0492  
G01 X-2.8407 Y0.0546  
G01 X-2.8354 Y0.0598  
G01 X-2.6787 Y0.0313  
G01 X-2.6639 Y0.0165  
G01 X-2.6361 Y0.0165  
G01 X-2.6359 Y0.0167  
G01 X-2.6118 Y0.0046  
G01 X-2.6111 Y0.0042  
G01 X-2.6098 Y0.0036  
G01 X-2.6084 Y0.0029  
G01 X-2.6076 Y0.0027  
G01 X-2.6069 Y0.0024  
G01 X-2.6054 Y0.0021  
G01 X-2.6040 Y0.0017  
G01 X-2.6031 Y0.0017  
G01 X-2.6023 Y0.0015  
G01 X-2.6008 Y0.0015  
G01 X-2.5994 Y0.0014  
G01 X-2.5985 Y0.0015  
G01 X-0.4977 Y0.0015  
G01 X-0.4931 Y0.0024  
G01 X-0.4889 Y0.0042  
G01 X-0.4850 Y0.0067  
G01 X-0.4817 Y0.0100  
G01 X-0.4792 Y0.0139  
G01 X-0.4774 Y0.0181  
G01 X-0.4765 Y0.0227  
G01 X-0.4765 Y0.1761  
G01 X-0.4761 Y0.1765  
G01 X-0.2144 Y0.1765  
G01 X-0.1934 Y0.1555  
G01 X-0.1566 Y0.1555  
G01 X-0.1356 Y0.1765  
G01 X-0.1144 Y0.1765  
G01 X-0.0934 Y0.1555  
G01 X-0.0566 Y0.1555  
G01 X-0.0305 Y0.1816  
G00 Z0.0500  
G00 X-0.1566 Y0.1445  
G01 Z-0.0035 F10    
G01 X-0.1934 Y0.1445  F20    
G01 X-0.2195 Y0.1184  
G01 X-0.2195 Y0.0816  
G01 X-0.1934 Y0.0555  
G01 X-0.1566 Y0.0555  
G01 X-0.1305 Y0.0816  
G01 X-0.1305 Y0.1184  
G01 X-0.1566 Y0.1445  
G00 Z0.0500  
G00 X-0.1566 Y0.4555  
G01 Z-0.0035 F10    
G01 X-0.1356 Y0.4765  F20    
G01 X-0.1144 Y0.4765  
G01 X-0.0934 Y0.4555  
G01 X-0.0566 Y0.4555  
G01 X-0.0305 Y0.4816  
G01 X-0.0305 Y0.5184  
G01 X-0.0566 Y0.5445  
G01 X-0.0934 Y0.5445  
G01 X-0.1144 Y0.5235  
G01 X-0.1356 Y0.5235  
G01 X-0.1566 Y0.5445  
G01 X-0.1934 Y0.5445  
G01 X-0.2144 Y0.5235  
G01 X-0.3244 Y0.5235  
G01 X-0.3262 Y0.5236  
G01 X-0.3267 Y0.5235  
G01 X-0.3273 Y0.5235  
G01 X-0.3290 Y0.5232  
G01 X-0.3307 Y0.5229  
G01 X-0.3313 Y0.5227  
G01 X-0.3319 Y0.5226  
G01 X-0.3335 Y0.5219  
G01 X-0.3351 Y0.5213  
G01 X-0.3356 Y0.5210  
G01 X-0.3361 Y0.5208  
G01 X-0.3376 Y0.5199  
G01 X-0.3391 Y0.5190  
G01 X-0.3395 Y0.5186  
G01 X-0.3400 Y0.5183  
G01 X-0.3412 Y0.5170  
G01 X-0.3425 Y0.5158  
G01 X-0.3428 Y0.5154  
G01 X-0.3433 Y0.5150  
G01 X-0.3442 Y0.5135  
G01 X-0.3453 Y0.5121  
G01 X-0.3455 Y0.5116  
G01 X-0.3458 Y0.5111  
G01 X-0.3465 Y0.5095  
G01 X-0.3472 Y0.5079  
G01 X-0.3474 Y0.5074  
G01 X-0.3476 Y0.5069  
G01 X-0.3479 Y0.5051  
G01 X-0.3933 Y0.3235  
G01 X-0.4761 Y0.3235  
G01 X-0.4765 Y0.3239  
G01 X-0.4765 Y0.8023  
G01 X-0.4774 Y0.8069  
G01 X-0.4792 Y0.8111  
G01 X-0.4817 Y0.8150  
G01 X-0.4850 Y0.8183  
G01 X-0.4889 Y0.8208  
G01 X-0.4931 Y0.8226  
G01 X-0.4977 Y0.8235  
G01 X-2.2511 Y0.8235  
G01 X-2.2611 Y0.8335  
G01 X-2.2889 Y0.8335  
G01 X-2.2989 Y0.8235  
G01 X-2.3523 Y0.8235  
G01 X-2.3569 Y0.8226  
G01 X-2.3611 Y0.8208  
G01 X-2.3650 Y0.8183  
G01 X-2.3747 Y0.8085  
G01 X-2.3889 Y0.8085  
G01 X-2.4085 Y0.7889  
G01 X-2.4085 Y0.7611  
G01 X-2.3889 Y0.7415  
G01 X-2.3611 Y0.7415  
G01 X-2.3415 Y0.7611  
G01 X-2.3415 Y0.7753  
G01 X-2.3403 Y0.7765  
G01 X-2.2989 Y0.7765  
G01 X-2.2889 Y0.7665  
G01 X-2.2611 Y0.7665  
G01 X-2.2511 Y0.7765  
G01 X-0.5235 Y0.7765  
G01 X-0.5235 Y0.3239  
G01 X-0.5335 Y0.3139  
G01 X-0.5335 Y0.2861  
G01 X-0.5139 Y0.2665  
G01 X-0.4861 Y0.2665  
G01 X-0.4761 Y0.2765  
G01 X-0.3756 Y0.2765  
G01 X-0.3738 Y0.2764  
G01 X-0.3733 Y0.2765  
G01 X-0.3727 Y0.2765  
G01 X-0.3710 Y0.2768  
G01 X-0.3693 Y0.2771  
G01 X-0.3687 Y0.2773  
G01 X-0.3681 Y0.2774  
G01 X-0.3665 Y0.2781  
G01 X-0.3649 Y0.2787  
G01 X-0.3644 Y0.2790  
G01 X-0.3639 Y0.2792  
G01 X-0.3624 Y0.2801  
G01 X-0.3609 Y0.2810  
G01 X-0.3605 Y0.2814  
G01 X-0.3600 Y0.2817  
G01 X-0.3588 Y0.2830  
G01 X-0.3575 Y0.2841  
G01 X-0.3572 Y0.2846  
G01 X-0.3567 Y0.2850  
G01 X-0.3558 Y0.2865  
G01 X-0.3547 Y0.2879  
G01 X-0.3545 Y0.2884  
G01 X-0.3542 Y0.2889  
G01 X-0.3535 Y0.2905  
G01 X-0.3528 Y0.2921  
G01 X-0.3526 Y0.2926  
G01 X-0.3524 Y0.2931  
G01 X-0.3521 Y0.2949  
G01 X-0.3067 Y0.4765  
G01 X-0.2144 Y0.4765  
G01 X-0.1934 Y0.4555  
G01 X-0.1566 Y0.4555  
G00 Z0.0500  
G00 X-0.1566 Y0.5555  
G01 Z-0.0035 F10    
G01 X-0.1305 Y0.5816  F20    
G01 X-0.1305 Y0.6184  
G01 X-0.1566 Y0.6445  
G01 X-0.1934 Y0.6445  
G01 X-0.2195 Y0.6184  
G01 X-0.2195 Y0.5816  
G01 X-0.1934 Y0.5555  
G01 X-0.1566 Y0.5555  
G00 Z0.0500  
G00 X-0.1195 Y0.5816  
G01 Z-0.0035 F10    
G01 X-0.0934 Y0.5555  F20    
G01 X-0.0566 Y0.5555  
G01 X-0.0305 Y0.5816  
G01 X-0.0305 Y0.6184  
G01 X-0.0566 Y0.6445  
G01 X-0.0934 Y0.6445  
G01 X-0.1195 Y0.6184  
G01 X-0.1195 Y0.5816  
G00 Z0.0500  
G00 X-0.1195 Y0.6816  
G01 Z-0.0035 F10    
G01 X-0.0934 Y0.6555  F20    
G01 X-0.0566 Y0.6555  
G01 X-0.0305 Y0.6816  
G01 X-0.0305 Y0.7184  
G01 X-0.0566 Y0.7445  
G01 X-0.0934 Y0.7445  
G01 X-0.1195 Y0.7184  
G01 X-0.1195 Y0.6816  
G00 Z0.0500  
G00 X-0.1305 Y0.6816  
G01 Z-0.0035 F10    
G01 X-0.1305 Y0.7184  F20    
G01 X-0.1566 Y0.7445  
G01 X-0.1934 Y0.7445  
G01 X-0.2195 Y0.7184  
G01 X-0.2195 Y0.6816  
G01 X-0.1934 Y0.6555  
G01 X-0.1566 Y0.6555  
G01 X-0.1305 Y0.6816  
G00 Z0.0500  
G00 X-0.1566 Y0.7555  
G01 Z-0.0035 F10    
G01 X-0.1356 Y0.7765  F20    
G01 X-0.1144 Y0.7765  
G01 X-0.0934 Y0.7555  
G01 X-0.0566 Y0.7555  
G01 X-0.0305 Y0.7816  
G01 X-0.0305 Y0.8184  
G01 X-0.0566 Y0.8445  
G01 X-0.0934 Y0.8445  
G01 X-0.1144 Y0.8235  
G01 X-0.1356 Y0.8235  
G01 X-0.1566 Y0.8445  
G01 X-0.1934 Y0.8445  
G01 X-0.2144 Y0.8235  
G01 X-0.2985 Y0.8235  
G01 X-0.2994 Y0.8236  
G01 X-0.3008 Y0.8235  
G01 X-0.3023 Y0.8235  
G01 X-0.3031 Y0.8233  
G01 X-0.3040 Y0.8233  
G01 X-0.3054 Y0.8229  
G01 X-0.3069 Y0.8226  
G01 X-0.3076 Y0.8223  
G01 X-0.3084 Y0.8221  
G01 X-0.3098 Y0.8214  
G01 X-0.3111 Y0.8208  
G01 X-0.3118 Y0.8204  
G01 X-0.3126 Y0.8200  
G01 X-0.3137 Y0.8191  
G01 X-0.3150 Y0.8183  
G01 X-0.3156 Y0.8177  
G01 X-0.3162 Y0.8171  
G01 X-0.3172 Y0.8160  
G01 X-0.3183 Y0.8150  
G01 X-0.3187 Y0.8143  
G01 X-0.3193 Y0.8136  
G01 X-0.3200 Y0.8124  
G01 X-0.3208 Y0.8111  
G01 X-0.3211 Y0.8104  
G01 X-0.3216 Y0.8096  
G01 X-0.3220 Y0.8082  
G01 X-0.3226 Y0.8069  
G01 X-0.3228 Y0.8060  
G01 X-0.3636 Y0.6835  
G01 X-0.3639 Y0.6835  
G01 X-0.3835 Y0.6639  
G01 X-0.3835 Y0.6361  
G01 X-0.3639 Y0.6165  
G01 X-0.3361 Y0.6165  
G01 X-0.3165 Y0.6361  
G01 X-0.3165 Y0.6639  
G01 X-0.3196 Y0.6670  
G01 X-0.2831 Y0.7765  
G01 X-0.2144 Y0.7765  
G01 X-0.1934 Y0.7555  
G01 X-0.1566 Y0.7555  
G00 Z0.0500  
G00 X-0.6361 Y0.6835  
G01 Z-0.0035 F10    
G01 X-0.6639 Y0.6835  F20    
G01 X-0.6835 Y0.6639  
G01 X-0.6835 Y0.6361  
G01 X-0.6735 Y0.6261  
G01 X-0.6735 Y0.5489  
G01 X-0.6835 Y0.5389  
G01 X-0.6835 Y0.5111  
G01 X-0.6639 Y0.4915  
G01 X-0.6361 Y0.4915  
G01 X-0.6165 Y0.5111  
G01 X-0.6165 Y0.5389  
G01 X-0.6265 Y0.5489  
G01 X-0.6265 Y0.6261  
G01 X-0.6165 Y0.6361  
G01 X-0.6165 Y0.6639  
G01 X-0.6361 Y0.6835  
G00 Z0.0500  
G00 X-0.7361 Y0.6335  
G01 Z-0.0035 F10    
G01 X-0.7639 Y0.6335  F20    
G01 X-0.7835 Y0.6139  
G01 X-0.7835 Y0.5861  
G01 X-0.7639 Y0.5665  
G01 X-0.7636 Y0.5665  
G01 X-0.7304 Y0.4670  
G01 X-0.7335 Y0.4639  
G01 X-0.7335 Y0.4361  
G01 X-0.7235 Y0.4261  
G01 X-0.7235 Y0.4097  
G01 X-0.7997 Y0.3335  
G01 X-0.8139 Y0.3335  
G01 X-0.8335 Y0.3139  
G01 X-0.8335 Y0.2861  
G01 X-0.8139 Y0.2665  
G01 X-0.7861 Y0.2665  
G01 X-0.7665 Y0.2861  
G01 X-0.7665 Y0.3003  
G01 X-0.6850 Y0.3817  
G01 X-0.6817 Y0.3850  
G01 X-0.6792 Y0.3889  
G01 X-0.6774 Y0.3931  
G01 X-0.6765 Y0.3977  
G01 X-0.6765 Y0.4261  
G01 X-0.6665 Y0.4361  
G01 X-0.6665 Y0.4639  
G01 X-0.6861 Y0.4835  
G01 X-0.6864 Y0.4835  
G01 X-0.7196 Y0.5830  
G01 X-0.7165 Y0.5861  
G01 X-0.7165 Y0.6139  
G01 X-0.7361 Y0.6335  
G00 Z0.0500  
G00 X-0.9361 Y0.6335  
G01 Z-0.0035 F10    
G01 X-0.9639 Y0.6335  F20    
G01 X-0.9835 Y0.6139  
G01 X-0.9835 Y0.5861  
G01 X-0.9639 Y0.5665  
G01 X-0.9595 Y0.5665  
G01 X-0.9380 Y0.5235  
G01 X-0.9511 Y0.5235  
G01 X-0.9611 Y0.5335  
G01 X-0.9889 Y0.5335  
G01 X-1.0085 Y0.5139  
G01 X-1.0085 Y0.4861  
G01 X-0.9889 Y0.4665  
G01 X-0.9611 Y0.4665  
G01 X-0.9511 Y0.4765  
G01 X-0.9379 Y0.4765  
G01 X-0.9339 Y0.4710  
G01 X-0.9290 Y0.4661  
G01 X-0.9233 Y0.4619  
G01 X-0.9171 Y0.4588  
G01 X-0.9104 Y0.4566  
G01 X-0.9035 Y0.4555  
G01 X-0.8965 Y0.4555  
G01 X-0.8896 Y0.4566  
G01 X-0.8829 Y0.4588  
G01 X-0.8767 Y0.4619  
G01 X-0.8710 Y0.4661  
G01 X-0.8661 Y0.4710  
G01 X-0.8619 Y0.4767  
G01 X-0.8588 Y0.4829  
G01 X-0.8566 Y0.4896  
G01 X-0.8555 Y0.4965  
G01 X-0.8555 Y0.5035  
G01 X-0.8566 Y0.5104  
G01 X-0.8588 Y0.5171  
G01 X-0.8619 Y0.5233  
G01 X-0.8661 Y0.5290  
G01 X-0.8710 Y0.5339  
G01 X-0.8767 Y0.5381  
G01 X-0.8829 Y0.5412  
G01 X-0.8896 Y0.5434  
G01 X-0.8959 Y0.5444  
G01 X-0.9167 Y0.5859  
G01 X-0.9165 Y0.5861  
G01 X-0.9165 Y0.6139  
G01 X-0.9361 Y0.6335  
G00 Z0.0500  
G00 X-0.9861 Y0.4335  
G01 Z-0.0035 F10    
G01 X-1.0139 Y0.4335  F20    
G01 X-1.0335 Y0.4139  
G01 X-1.0335 Y0.3861  
G01 X-1.0139 Y0.3665  
G01 X-1.0059 Y0.3665  
G01 X-0.9709 Y0.3140  
G01 X-0.9359 Y0.2264  
G01 X-0.9381 Y0.2233  
G01 X-0.9412 Y0.2171  
G01 X-0.9434 Y0.2104  
G01 X-0.9445 Y0.2035  
G01 X-0.9445 Y0.1965  
G01 X-0.9434 Y0.1896  
G01 X-0.9412 Y0.1829  
G01 X-0.9381 Y0.1767  
G01 X-0.9339 Y0.1710  
G01 X-0.9290 Y0.1661  
G01 X-0.9233 Y0.1619  
G01 X-0.9171 Y0.1588  
G01 X-0.9104 Y0.1566  
G01 X-0.9035 Y0.1555  
G01 X-0.8965 Y0.1555  
G01 X-0.8896 Y0.1566  
G01 X-0.8829 Y0.1588  
G01 X-0.8767 Y0.1619  
G01 X-0.8710 Y0.1661  
G01 X-0.8661 Y0.1710  
G01 X-0.8619 Y0.1767  
G01 X-0.8588 Y0.1829  
G01 X-0.8566 Y0.1896  
G01 X-0.8555 Y0.1965  
G01 X-0.8555 Y0.2035  
G01 X-0.8566 Y0.2104  
G01 X-0.8588 Y0.2171  
G01 X-0.8619 Y0.2233  
G01 X-0.8661 Y0.2290  
G01 X-0.8710 Y0.2339  
G01 X-0.8767 Y0.2381  
G01 X-0.8829 Y0.2412  
G01 X-0.8896 Y0.2434  
G01 X-0.8922 Y0.2438  
G01 X-0.9274 Y0.3317  
G01 X-0.9274 Y0.3318  
G01 X-0.9282 Y0.3339  
G01 X-0.9290 Y0.3359  
G01 X-0.9291 Y0.3360  
G01 X-0.9292 Y0.3361  
G01 X-0.9304 Y0.3379  
G01 X-0.9316 Y0.3398  
G01 X-0.9665 Y0.3921  
G01 X-0.9665 Y0.4139  
G01 X-0.9861 Y0.4335  
G00 Z0.0500  
G00 X-1.0861 Y0.4335  
G01 Z-0.0035 F10    
G01 X-1.1139 Y0.4335  F20    
G01 X-1.1335 Y0.4139  
G01 X-1.1335 Y0.3997  
G01 X-1.1377 Y0.3955  
G01 X-1.1830 Y0.3804  
G01 X-1.1861 Y0.3835  
G01 X-1.2139 Y0.3835  
G01 X-1.2239 Y0.3735  
G01 X-1.3011 Y0.3735  
G01 X-1.3111 Y0.3835  
G01 X-1.3389 Y0.3835  
G01 X-1.3585 Y0.3639  
G01 X-1.3585 Y0.3361  
G01 X-1.3389 Y0.3165  
G01 X-1.3111 Y0.3165  
G01 X-1.3011 Y0.3265  
G01 X-1.2239 Y0.3265  
G01 X-1.2139 Y0.3165  
G01 X-1.1861 Y0.3165  
G01 X-1.1665 Y0.3361  
G01 X-1.1665 Y0.3364  
G01 X-1.1190 Y0.3522  
G01 X-1.1181 Y0.3524  
G01 X-1.1168 Y0.3530  
G01 X-1.1154 Y0.3534  
G01 X-1.1146 Y0.3539  
G01 X-1.1139 Y0.3542  
G01 X-1.1126 Y0.3550  
G01 X-1.1114 Y0.3557  
G01 X-1.1107 Y0.3563  
G01 X-1.1100 Y0.3567  
G01 X-1.1090 Y0.3578  
G01 X-1.1079 Y0.3588  
G01 X-1.1073 Y0.3594  
G01 X-1.1003 Y0.3665  
G01 X-1.0861 Y0.3665  
G01 X-1.0665 Y0.3861  
G01 X-1.0665 Y0.4139  
G01 X-1.0861 Y0.4335  
G00 Z0.0500  
G00 X-1.0861 Y0.1335  
G01 Z-0.0035 F10    
G01 X-1.1139 Y0.1335  F20    
G01 X-1.1335 Y0.1139  
G01 X-1.1335 Y0.0861  
G01 X-1.1139 Y0.0665  
G01 X-1.0861 Y0.0665  
G01 X-1.0761 Y0.0765  
G01 X-1.0239 Y0.0765  
G01 X-1.0139 Y0.0665  
G01 X-0.9861 Y0.0665  
G01 X-0.9761 Y0.0765  
G01 X-0.8227 Y0.0765  
G01 X-0.8181 Y0.0774  
G01 X-0.8139 Y0.0792  
G01 X-0.8100 Y0.0817  
G01 X-0.8067 Y0.0850  
G01 X-0.7817 Y0.1100  
G01 X-0.7792 Y0.1139  
G01 X-0.7774 Y0.1181  
G01 X-0.7765 Y0.1227  
G01 X-0.7765 Y0.1761  
G01 X-0.7665 Y0.1861  
G01 X-0.7665 Y0.2139  
G01 X-0.7861 Y0.2335  
G01 X-0.8139 Y0.2335  
G01 X-0.8335 Y0.2139  
G01 X-0.8335 Y0.1861  
G01 X-0.8235 Y0.1761  
G01 X-0.8235 Y0.1347  
G01 X-0.8347 Y0.1235  
G01 X-0.9761 Y0.1235  
G01 X-0.9861 Y0.1335  
G01 X-1.0139 Y0.1335  
G01 X-1.0239 Y0.1235  
G01 X-1.0761 Y0.1235  
G01 X-1.0861 Y0.1335  
G00 Z0.0500  
G00 X-1.1665 Y0.1361  
G01 Z-0.0035 F10    
G01 X-1.1665 Y0.1639  F20    
G01 X-1.1861 Y0.1835  
G01 X-1.1864 Y0.1835  
G01 X-1.2022 Y0.2310  
G01 X-1.2024 Y0.2319  
G01 X-1.2030 Y0.2332  
G01 X-1.2034 Y0.2346  
G01 X-1.2039 Y0.2354  
G01 X-1.2042 Y0.2361  
G01 X-1.2050 Y0.2374  
G01 X-1.2057 Y0.2386  
G01 X-1.2063 Y0.2393  
G01 X-1.2067 Y0.2400  
G01 X-1.2078 Y0.2410  
G01 X-1.2088 Y0.2421  
G01 X-1.2094 Y0.2427  
G01 X-1.2100 Y0.2433  
G01 X-1.2113 Y0.2441  
G01 X-1.2124 Y0.2450  
G01 X-1.2132 Y0.2454  
G01 X-1.2139 Y0.2458  
G01 X-1.2152 Y0.2464  
G01 X-1.2166 Y0.2471  
G01 X-1.2174 Y0.2473  
G01 X-1.2181 Y0.2476  
G01 X-1.2196 Y0.2479  
G01 X-1.2210 Y0.2483  
G01 X-1.2219 Y0.2483  
G01 X-1.2227 Y0.2485  
G01 X-1.2242 Y0.2485  
G01 X-1.2256 Y0.2486  
G01 X-1.2265 Y0.2485  
G01 X-1.3992 Y0.2485  
G01 X-1.4006 Y0.2486  
G01 X-1.4015 Y0.2485  
G01 X-1.4023 Y0.2485  
G01 X-1.4038 Y0.2482  
G01 X-1.4052 Y0.2480  
G01 X-1.4060 Y0.2478  
G01 X-1.4069 Y0.2476  
G01 X-1.4082 Y0.2470  
G01 X-1.4488 Y0.2335  
G01 X-1.5043 Y0.2335  
G01 X-1.5108 Y0.2322  
G01 X-1.5169 Y0.2297  
G01 X-1.5224 Y0.2260  
G01 X-1.5270 Y0.2214  
G01 X-1.5307 Y0.2159  
G01 X-1.5313 Y0.2144  
G01 X-1.6048 Y0.2022  
G01 X-1.6111 Y0.2085  
G01 X-1.6389 Y0.2085  
G01 X-1.6585 Y0.1889  
G01 X-1.6585 Y0.1611  
G01 X-1.6389 Y0.1415  
G01 X-1.6111 Y0.1415  
G01 X-1.5967 Y0.1559  
G01 X-1.5149 Y0.1695  
G01 X-1.5108 Y0.1678  
G01 X-1.5043 Y0.1665  
G01 X-1.4457 Y0.1665  
G01 X-1.4392 Y0.1678  
G01 X-1.4331 Y0.1703  
G01 X-1.4276 Y0.1740  
G01 X-1.4230 Y0.1786  
G01 X-1.4193 Y0.1841  
G01 X-1.4168 Y0.1902  
G01 X-1.4158 Y0.1949  
G01 X-1.3962 Y0.2015  
G01 X-1.2419 Y0.2015  
G01 X-1.2304 Y0.1670  
G01 X-1.2335 Y0.1639  
G01 X-1.2335 Y0.1361  
G01 X-1.2139 Y0.1165  
G01 X-1.1861 Y0.1165  
G01 X-1.1665 Y0.1361  
G00 Z0.0500  
G00 X-1.2915 Y0.1361  
G01 Z-0.0035 F10    
G01 X-1.2915 Y0.1639  F20    
G01 X-1.3111 Y0.1835  
G01 X-1.3389 Y0.1835  
G01 X-1.3585 Y0.1639  
G01 X-1.3585 Y0.1595  
G01 X-1.4805 Y0.0985  
G01 X-2.0855 Y0.0985  
G01 X-2.1015 Y0.1305  
G01 X-2.1015 Y0.2983  
G01 X-2.1014 Y0.2990  
G01 X-2.1015 Y0.3006  
G01 X-2.1015 Y0.3023  
G01 X-2.1016 Y0.3029  
G01 X-2.1017 Y0.3036  
G01 X-2.1021 Y0.3052  
G01 X-2.1024 Y0.3069  
G01 X-2.1026 Y0.3075  
G01 X-2.1028 Y0.3081  
G01 X-2.1035 Y0.3096  
G01 X-2.1042 Y0.3111  
G01 X-2.1045 Y0.3117  
G01 X-2.1048 Y0.3122  
G01 X-2.1058 Y0.3136  
G01 X-2.1067 Y0.3150  
G01 X-2.1072 Y0.3154  
G01 X-2.1665 Y0.3945  
G01 X-2.1665 Y0.4003  
G01 X-2.1361 Y0.4307  
G01 X-2.1141 Y0.4417  
G01 X-2.1139 Y0.4415  
G01 X-2.0861 Y0.4415  
G01 X-2.0665 Y0.4611  
G01 X-2.0665 Y0.4889  
G01 X-2.0861 Y0.5085  
G01 X-2.1139 Y0.5085  
G01 X-2.1335 Y0.4889  
G01 X-2.1335 Y0.4845  
G01 X-2.1598 Y0.4714  
G01 X-2.1611 Y0.4708  
G01 X-2.1618 Y0.4704  
G01 X-2.1626 Y0.4700  
G01 X-2.1637 Y0.4691  
G01 X-2.1650 Y0.4683  
G01 X-2.1656 Y0.4677  
G01 X-2.1662 Y0.4671  
G01 X-2.1672 Y0.4660  
G01 X-2.1963 Y0.4369  
G01 X-2.2292 Y0.4861  
G01 X-2.2305 Y0.4880  
G01 X-2.2317 Y0.4900  
G01 X-2.2334 Y0.4916  
G01 X-2.2350 Y0.4932  
G01 X-2.2415 Y0.4997  
G01 X-2.2415 Y0.5003  
G01 X-2.2338 Y0.5079  
G01 X-2.2326 Y0.5090  
G01 X-2.2322 Y0.5096  
G01 X-2.2317 Y0.5100  
G01 X-2.2308 Y0.5114  
G01 X-2.1707 Y0.5915  
G01 X-2.1611 Y0.5915  
G01 X-2.1415 Y0.6111  
G01 X-2.1415 Y0.6389  
G01 X-2.1611 Y0.6585  
G01 X-2.1889 Y0.6585  
G01 X-2.2085 Y0.6389  
G01 X-2.2085 Y0.6195  
G01 X-2.2678 Y0.5404  
G01 X-2.2747 Y0.5335  
G01 X-2.2889 Y0.5335  
G01 X-2.3085 Y0.5139  
G01 X-2.3085 Y0.4861  
G01 X-2.2889 Y0.4665  
G01 X-2.2747 Y0.4665  
G01 X-2.2683 Y0.4600  
G01 X-2.2335 Y0.4079  
G01 X-2.2335 Y0.3861  
G01 X-2.2139 Y0.3665  
G01 X-2.2042 Y0.3665  
G01 X-2.1485 Y0.2922  
G01 X-2.1485 Y0.1265  
G01 X-2.1486 Y0.1256  
G01 X-2.1485 Y0.1242  
G01 X-2.1485 Y0.1227  
G01 X-2.1483 Y0.1219  
G01 X-2.1483 Y0.1210  
G01 X-2.1479 Y0.1196  
G01 X-2.1476 Y0.1181  
G01 X-2.1473 Y0.1174  
G01 X-2.1471 Y0.1166  
G01 X-2.1464 Y0.1152  
G01 X-2.1458 Y0.1139  
G01 X-2.1454 Y0.1132  
G01 X-2.1214 Y0.0652  
G01 X-2.1208 Y0.0639  
G01 X-2.1204 Y0.0632  
G01 X-2.1200 Y0.0624  
G01 X-2.1191 Y0.0613  
G01 X-2.1183 Y0.0600  
G01 X-2.1177 Y0.0594  
G01 X-2.1171 Y0.0588  
G01 X-2.1160 Y0.0578  
G01 X-2.1150 Y0.0567  
G01 X-2.1143 Y0.0563  
G01 X-2.1136 Y0.0557  
G01 X-2.1124 Y0.0550  
G01 X-2.1111 Y0.0542  
G01 X-2.1104 Y0.0539  
G01 X-2.1096 Y0.0534  
G01 X-2.1082 Y0.0530  
G01 X-2.1069 Y0.0524  
G01 X-2.1060 Y0.0522  
G01 X-2.1052 Y0.0520  
G01 X-2.1038 Y0.0518  
G01 X-2.1023 Y0.0515  
G01 X-2.1015 Y0.0515  
G01 X-2.1006 Y0.0514  
G01 X-2.0992 Y0.0515  
G01 X-1.4765 Y0.0515  
G01 X-1.4756 Y0.0514  
G01 X-1.4742 Y0.0515  
G01 X-1.4727 Y0.0515  
G01 X-1.4719 Y0.0517  
G01 X-1.4710 Y0.0517  
G01 X-1.4696 Y0.0521  
G01 X-1.4681 Y0.0524  
G01 X-1.4674 Y0.0527  
G01 X-1.4666 Y0.0529  
G01 X-1.4652 Y0.0536  
G01 X-1.4639 Y0.0542  
G01 X-1.4632 Y0.0546  
G01 X-1.3391 Y0.1167  
G01 X-1.3389 Y0.1165  
G01 X-1.3111 Y0.1165  
G01 X-1.2915 Y0.1361  
G00 Z0.0500  
G00 X-1.4230 Y0.2786  
G01 Z-0.0035 F10    
G01 X-1.4193 Y0.2841  F20    
G01 X-1.4168 Y0.2902  
G01 X-1.4155 Y0.2967  
G01 X-1.4155 Y0.3033  
G01 X-1.4168 Y0.3098  
G01 X-1.4193 Y0.3159  
G01 X-1.4230 Y0.3214  
G01 X-1.4276 Y0.3260  
G01 X-1.4331 Y0.3297  
G01 X-1.4392 Y0.3322  
G01 X-1.4457 Y0.3335  
G01 X-1.4515 Y0.3335  
G01 X-1.4515 Y0.3665  
G01 X-1.4457 Y0.3665  
G01 X-1.4392 Y0.3678  
G01 X-1.4331 Y0.3703  
G01 X-1.4276 Y0.3740  
G01 X-1.4230 Y0.3786  
G01 X-1.4193 Y0.3841  
G01 X-1.4168 Y0.3902  
G01 X-1.4155 Y0.3967  
G01 X-1.4155 Y0.4033  
G01 X-1.4168 Y0.4098  
G01 X-1.4193 Y0.4159  
G01 X-1.4230 Y0.4214  
G01 X-1.4276 Y0.4260  
G01 X-1.4331 Y0.4297  
G01 X-1.4338 Y0.4299  
G01 X-1.4046 Y0.4882  
G01 X-1.4042 Y0.4889  
G01 X-1.4036 Y0.4902  
G01 X-1.4029 Y0.4916  
G01 X-1.4027 Y0.4924  
G01 X-1.4024 Y0.4931  
G01 X-1.4021 Y0.4946  
G01 X-1.4017 Y0.4960  
G01 X-1.4017 Y0.4969  
G01 X-1.4015 Y0.4977  
G01 X-1.4015 Y0.4992  
G01 X-1.4014 Y0.5006  
G01 X-1.4015 Y0.5015  
G01 X-1.4015 Y0.5761  
G01 X-1.3915 Y0.5861  
G01 X-1.3915 Y0.6139  
G01 X-1.4111 Y0.6335  
G01 X-1.4389 Y0.6335  
G01 X-1.4585 Y0.6139  
G01 X-1.4585 Y0.5861  
G01 X-1.4485 Y0.5761  
G01 X-1.4485 Y0.5055  
G01 X-1.4845 Y0.4335  
G01 X-1.5043 Y0.4335  
G01 X-1.5108 Y0.4322  
G01 X-1.5169 Y0.4297  
G01 X-1.5224 Y0.4260  
G01 X-1.5270 Y0.4214  
G01 X-1.5307 Y0.4159  
G01 X-1.5332 Y0.4098  
G01 X-1.5345 Y0.4033  
G01 X-1.5345 Y0.3967  
G01 X-1.5332 Y0.3902  
G01 X-1.5307 Y0.3841  
G01 X-1.5270 Y0.3786  
G01 X-1.5224 Y0.3740  
G01 X-1.5169 Y0.3703  
G01 X-1.5108 Y0.3678  
G01 X-1.5043 Y0.3665  
G01 X-1.4985 Y0.3665  
G01 X-1.4985 Y0.3335  
G01 X-1.5043 Y0.3335  
G01 X-1.5108 Y0.3322  
G01 X-1.5169 Y0.3297  
G01 X-1.5224 Y0.3260  
G01 X-1.5270 Y0.3214  
G01 X-1.5307 Y0.3159  
G01 X-1.5332 Y0.3098  
G01 X-1.5345 Y0.3033  
G01 X-1.5345 Y0.2967  
G01 X-1.5332 Y0.2902  
G01 X-1.5307 Y0.2841  
G01 X-1.5270 Y0.2786  
G01 X-1.5224 Y0.2740  
G01 X-1.5169 Y0.2703  
G01 X-1.5108 Y0.2678  
G01 X-1.5043 Y0.2665  
G01 X-1.4457 Y0.2665  
G01 X-1.4392 Y0.2678  
G01 X-1.4331 Y0.2703  
G01 X-1.4276 Y0.2740  
G01 X-1.4230 Y0.2786  
G00 Z0.0500  
G00 X-1.5915 Y0.3611  
G01 Z-0.0035 F10    
G01 X-1.5915 Y0.3889  F20    
G01 X-1.5917 Y0.3891  
G01 X-1.5155 Y0.5415  
G01 X-1.5111 Y0.5415  
G01 X-1.4915 Y0.5611  
G01 X-1.4915 Y0.5889  
G01 X-1.5111 Y0.6085  
G01 X-1.5389 Y0.6085  
G01 X-1.5585 Y0.5889  
G01 X-1.5585 Y0.5611  
G01 X-1.5583 Y0.5609  
G01 X-1.6345 Y0.4085  
G01 X-1.6389 Y0.4085  
G01 X-1.6585 Y0.3889  
G01 X-1.6585 Y0.3845  
G01 X-1.6846 Y0.3715  
G01 X-1.6859 Y0.3710  
G01 X-1.6867 Y0.3704  
G01 X-1.6876 Y0.3700  
G01 X-1.6886 Y0.3692  
G01 X-1.6898 Y0.3684  
G01 X-1.6905 Y0.3677  
G01 X-1.6912 Y0.3671  
G01 X-1.6921 Y0.3661  
G01 X-1.6931 Y0.3652  
G01 X-1.6936 Y0.3644  
G01 X-1.6943 Y0.3636  
G01 X-1.6949 Y0.3625  
G01 X-1.6957 Y0.3614  
G01 X-1.6961 Y0.3605  
G01 X-1.6966 Y0.3596  
G01 X-1.6970 Y0.3584  
G01 X-1.7612 Y0.2085  
G01 X-1.7639 Y0.2085  
G01 X-1.7835 Y0.1889  
G01 X-1.7835 Y0.1611  
G01 X-1.7639 Y0.1415  
G01 X-1.7361 Y0.1415  
G01 X-1.7165 Y0.1611  
G01 X-1.7165 Y0.1889  
G01 X-1.7179 Y0.1903  
G01 X-1.6568 Y0.3328  
G01 X-1.6391 Y0.3417  
G01 X-1.6389 Y0.3415  
G01 X-1.6111 Y0.3415  
G01 X-1.5915 Y0.3611  
G00 Z0.0500  
G00 X-1.6915 Y0.5611  
G01 Z-0.0035 F10    
G01 X-1.6915 Y0.5889  F20    
G01 X-1.7111 Y0.6085  
G01 X-1.7389 Y0.6085  
G01 X-1.7489 Y0.5985  
G01 X-1.7929 Y0.5985  
G01 X-1.8415 Y0.6309  
G01 X-1.8415 Y0.6389  
G01 X-1.8611 Y0.6585  
G01 X-1.8889 Y0.6585  
G01 X-1.9085 Y0.6389  
G01 X-1.9085 Y0.6386  
G01 X-2.0310 Y0.5978  
G01 X-2.0319 Y0.5976  
G01 X-2.0332 Y0.5970  
G01 X-2.0346 Y0.5966  
G01 X-2.0354 Y0.5961  
G01 X-2.0361 Y0.5958  
G01 X-2.0374 Y0.5950  
G01 X-2.0386 Y0.5943  
G01 X-2.0393 Y0.5937  
G01 X-2.0400 Y0.5933  
G01 X-2.0410 Y0.5922  
G01 X-2.0421 Y0.5912  
G01 X-2.0427 Y0.5906  
G01 X-2.0497 Y0.5835  
G01 X-2.0639 Y0.5835  
G01 X-2.0835 Y0.5639  
G01 X-2.0835 Y0.5361  
G01 X-2.0639 Y0.5165  
G01 X-2.0361 Y0.5165  
G01 X-2.0165 Y0.5361  
G01 X-2.0165 Y0.5503  
G01 X-2.0123 Y0.5545  
G01 X-1.8920 Y0.5946  
G01 X-1.8889 Y0.5915  
G01 X-1.8671 Y0.5915  
G01 X-1.8130 Y0.5554  
G01 X-1.8111 Y0.5542  
G01 X-1.8090 Y0.5533  
G01 X-1.8069 Y0.5524  
G01 X-1.8046 Y0.5519  
G01 X-1.8023 Y0.5515  
G01 X-1.8000 Y0.5515  
G01 X-1.7489 Y0.5515  
G01 X-1.7389 Y0.5415  
G01 X-1.7111 Y0.5415  
G01 X-1.6915 Y0.5611  
G00 Z0.0500  
G00 X-1.7915 Y0.6861  
G01 Z-0.0035 F10    
G01 X-1.7915 Y0.7139  F20    
G01 X-1.8111 Y0.7335  
G01 X-1.8389 Y0.7335  
G01 X-1.8489 Y0.7235  
G01 X-2.3000 Y0.7235  
G01 X-2.3023 Y0.7235  
G01 X-2.3046 Y0.7231  
G01 X-2.3068 Y0.7226  
G01 X-2.3090 Y0.7217  
G01 X-2.3111 Y0.7208  
G01 X-2.3130 Y0.7196  
G01 X-2.3671 Y0.6835  
G01 X-2.3889 Y0.6835  
G01 X-2.4085 Y0.6639  
G01 X-2.4085 Y0.6361  
G01 X-2.4029 Y0.6305  
G01 X-2.4181 Y0.5543  
G01 X-2.4335 Y0.5389  
G01 X-2.4335 Y0.5111  
G01 X-2.4289 Y0.5065  
G01 X-2.4474 Y0.4324  
G01 X-2.4476 Y0.4319  
G01 X-2.4478 Y0.4310  
G01 X-2.4480 Y0.4302  
G01 X-2.4481 Y0.4293  
G01 X-2.4484 Y0.4285  
G01 X-2.4484 Y0.4279  
G01 X-2.4681 Y0.3293  
G01 X-2.4835 Y0.3139  
G01 X-2.4835 Y0.2861  
G01 X-2.4639 Y0.2665  
G01 X-2.4361 Y0.2665  
G01 X-2.4165 Y0.2861  
G01 X-2.4165 Y0.3139  
G01 X-2.4221 Y0.3195  
G01 X-2.4072 Y0.3943  
G01 X-2.3835 Y0.3864  
G01 X-2.3835 Y0.3861  
G01 X-2.3639 Y0.3665  
G01 X-2.3361 Y0.3665  
G01 X-2.3165 Y0.3861  
G01 X-2.3165 Y0.4139  
G01 X-2.3361 Y0.4335  
G01 X-2.3639 Y0.4335  
G01 X-2.3670 Y0.4304  
G01 X-2.3969 Y0.4404  
G01 X-2.3835 Y0.4941  
G01 X-2.3665 Y0.5111  
G01 X-2.3665 Y0.5389  
G01 X-2.3721 Y0.5445  
G01 X-2.3569 Y0.6207  
G01 X-2.3415 Y0.6361  
G01 X-2.3415 Y0.6441  
G01 X-2.2929 Y0.6765  
G01 X-1.8489 Y0.6765  
G01 X-1.8389 Y0.6665  
G01 X-1.8111 Y0.6665  
G01 X-1.7915 Y0.6861  
G00 Z0.0500  
G00 X-1.9861 Y0.5085  
G01 Z-0.0035 F10    
G01 X-2.0139 Y0.5085  F20    
G01 X-2.0335 Y0.4889  
G01 X-2.0335 Y0.4611  
G01 X-2.0279 Y0.4555  
G01 X-2.0423 Y0.3835  
G01 X-2.0543 Y0.3835  
G01 X-2.0608 Y0.3822  
G01 X-2.0669 Y0.3797  
G01 X-2.0724 Y0.3760  
G01 X-2.0770 Y0.3714  
G01 X-2.0807 Y0.3659  
G01 X-2.0832 Y0.3598  
G01 X-2.0845 Y0.3533  
G01 X-2.0845 Y0.3467  
G01 X-2.0832 Y0.3402  
G01 X-2.0807 Y0.3341  
G01 X-2.0770 Y0.3286  
G01 X-2.0724 Y0.3240  
G01 X-2.0669 Y0.3203  
G01 X-2.0608 Y0.3178  
G01 X-2.0543 Y0.3165  
G01 X-1.9957 Y0.3165  
G01 X-1.9892 Y0.3178  
G01 X-1.9831 Y0.3203  
G01 X-1.9776 Y0.3240  
G01 X-1.9730 Y0.3286  
G01 X-1.9693 Y0.3341  
G01 X-1.9668 Y0.3402  
G01 X-1.9655 Y0.3467  
G01 X-1.9655 Y0.3533  
G01 X-1.9668 Y0.3598  
G01 X-1.9693 Y0.3659  
G01 X-1.9730 Y0.3714  
G01 X-1.9776 Y0.3760  
G01 X-1.9831 Y0.3797  
G01 X-1.9892 Y0.3822  
G01 X-1.9944 Y0.3832  
G01 X-1.9819 Y0.4457  
G01 X-1.9665 Y0.4611  
G01 X-1.9665 Y0.4889  
G01 X-1.9861 Y0.5085  
G00 Z0.0500  
G00 X-1.9892 Y0.2822  
G01 Z-0.0035 F10    
G01 X-1.9957 Y0.2835  F20    
G01 X-2.0543 Y0.2835  
G01 X-2.0608 Y0.2822  
G01 X-2.0669 Y0.2797  
G01 X-2.0724 Y0.2760  
G01 X-2.0770 Y0.2714  
G01 X-2.0807 Y0.2659  
G01 X-2.0832 Y0.2598  
G01 X-2.0845 Y0.2533  
G01 X-2.0845 Y0.2467  
G01 X-2.0832 Y0.2402  
G01 X-2.0807 Y0.2341  
G01 X-2.0770 Y0.2286  
G01 X-2.0724 Y0.2240  
G01 X-2.0669 Y0.2203  
G01 X-2.0608 Y0.2178  
G01 X-2.0543 Y0.2165  
G01 X-2.0485 Y0.2165  
G01 X-2.0485 Y0.1835  
G01 X-2.0543 Y0.1835  
G01 X-2.0608 Y0.1822  
G01 X-2.0669 Y0.1797  
G01 X-2.0724 Y0.1760  
G01 X-2.0770 Y0.1714  
G01 X-2.0807 Y0.1659  
G01 X-2.0832 Y0.1598  
G01 X-2.0845 Y0.1533  
G01 X-2.0845 Y0.1467  
G01 X-2.0832 Y0.1402  
G01 X-2.0807 Y0.1341  
G01 X-2.0770 Y0.1286  
G01 X-2.0724 Y0.1240  
G01 X-2.0669 Y0.1203  
G01 X-2.0608 Y0.1178  
G01 X-2.0543 Y0.1165  
G01 X-1.9957 Y0.1165  
G01 X-1.9892 Y0.1178  
G01 X-1.9831 Y0.1203  
G01 X-1.9776 Y0.1240  
G01 X-1.9730 Y0.1286  
G01 X-1.9693 Y0.1341  
G01 X-1.8707 Y0.1483  
G01 X-1.8639 Y0.1415  
G01 X-1.8361 Y0.1415  
G01 X-1.8165 Y0.1611  
G01 X-1.8165 Y0.1889  
G01 X-1.8361 Y0.2085  
G01 X-1.8639 Y0.2085  
G01 X-1.8776 Y0.1948  
G01 X-1.9832 Y0.1797  
G01 X-1.9892 Y0.1822  
G01 X-1.9957 Y0.1835  
G01 X-2.0015 Y0.1835  
G01 X-2.0015 Y0.2165  
G01 X-1.9957 Y0.2165  
G01 X-1.9892 Y0.2178  
G01 X-1.9831 Y0.2203  
G01 X-1.9776 Y0.2240  
G01 X-1.9730 Y0.2286  
G01 X-1.9693 Y0.2341  
G01 X-1.9668 Y0.2402  
G01 X-1.9655 Y0.2467  
G01 X-1.9655 Y0.2533  
G01 X-1.9668 Y0.2598  
G01 X-1.9693 Y0.2659  
G01 X-1.9730 Y0.2714  
G01 X-1.9776 Y0.2760  
G01 X-1.9831 Y0.2797  
G01 X-1.9892 Y0.2822  
G00 Z0.0500  
G00 X-2.1861 Y0.2335  
G01 Z-0.0035 F10    
G01 X-2.2139 Y0.2335  F20    
G01 X-2.2335 Y0.2139  
G01 X-2.2335 Y0.1861  
G01 X-2.2235 Y0.1761  
G01 X-2.2235 Y0.1239  
G01 X-2.2335 Y0.1139  
G01 X-2.2335 Y0.0861  
G01 X-2.2139 Y0.0665  
G01 X-2.1861 Y0.0665  
G01 X-2.1665 Y0.0861  
G01 X-2.1665 Y0.1139  
G01 X-2.1765 Y0.1239  
G01 X-2.1765 Y0.1761  
G01 X-2.1665 Y0.1861  
G01 X-2.1665 Y0.2139  
G01 X-2.1861 Y0.2335  
G00 Z0.0500  
G00 X-2.3361 Y0.2335  
G01 Z-0.0035 F10    
G01 X-2.3639 Y0.2335  F20    
G01 X-2.3835 Y0.2139  
G01 X-2.3835 Y0.2059  
G01 X-2.4921 Y0.1335  
G01 X-2.5139 Y0.1335  
G01 X-2.5335 Y0.1139  
G01 X-2.5335 Y0.0861  
G01 X-2.5139 Y0.0665  
G01 X-2.4861 Y0.0665  
G01 X-2.4665 Y0.0861  
G01 X-2.4665 Y0.0941  
G01 X-2.3579 Y0.1665  
G01 X-2.3361 Y0.1665  
G01 X-2.3165 Y0.1861  
G01 X-2.3165 Y0.2139  
G01 X-2.3361 Y0.2335  
G00 Z0.0500  
G00 X-2.4915 Y0.2361  
G01 Z-0.0035 F10    
G01 X-2.4915 Y0.2639  F20    
G01 X-2.5111 Y0.2835  
G01 X-2.5389 Y0.2835  
G01 X-2.5489 Y0.2735  
G01 X-2.5633 Y0.2735  
G01 X-2.6165 Y0.3445  
G01 X-2.6165 Y0.3639  
G01 X-2.6361 Y0.3835  
G01 X-2.6639 Y0.3835  
G01 X-2.6835 Y0.3639  
G01 X-2.6835 Y0.3361  
G01 X-2.6639 Y0.3165  
G01 X-2.6542 Y0.3165  
G01 X-2.5942 Y0.2364  
G01 X-2.5933 Y0.2350  
G01 X-2.5928 Y0.2346  
G01 X-2.5924 Y0.2340  
G01 X-2.5912 Y0.2329  
G01 X-2.5900 Y0.2317  
G01 X-2.5894 Y0.2314  
G01 X-2.5890 Y0.2310  
G01 X-2.5875 Y0.2301  
G01 X-2.5861 Y0.2292  
G01 X-2.5855 Y0.2289  
G01 X-2.5850 Y0.2286  
G01 X-2.5834 Y0.2280  
G01 X-2.5819 Y0.2274  
G01 X-2.5812 Y0.2273  
G01 X-2.5806 Y0.2271  
G01 X-2.5790 Y0.2268  
G01 X-2.5773 Y0.2265  
G01 X-2.5767 Y0.2265  
G01 X-2.5760 Y0.2264  
G01 X-2.5744 Y0.2265  
G01 X-2.5489 Y0.2265  
G01 X-2.5389 Y0.2165  
G01 X-2.5111 Y0.2165  
G01 X-2.4915 Y0.2361  
G00 Z0.0500  
G00 X-2.4915 Y0.3361  
G01 Z-0.0035 F10    
G01 X-2.4915 Y0.3639  F20    
G01 X-2.5111 Y0.3835  
G01 X-2.5253 Y0.3835  
G01 X-2.5765 Y0.4347  
G01 X-2.5765 Y0.5011  
G01 X-2.5665 Y0.5111  
G01 X-2.5665 Y0.5389  
G01 X-2.5861 Y0.5585  
G01 X-2.5927 Y0.5585  
G01 X-2.6415 Y0.6398  
G01 X-2.6415 Y0.6639  
G01 X-2.6515 Y0.6739  
G01 X-2.6515 Y0.7511  
G01 X-2.6415 Y0.7611  
G01 X-2.6415 Y0.7889  
G01 X-2.6611 Y0.8085  
G01 X-2.6889 Y0.8085  
G01 X-2.6989 Y0.7985  
G01 X-2.7438 Y0.7985  
G01 X-2.7447 Y0.7999  
G01 X-2.7501 Y0.8053  
G01 X-2.7565 Y0.8096  
G01 X-2.7636 Y0.8125  
G01 X-2.7712 Y0.8140  
G01 X-2.7788 Y0.8140  
G01 X-2.7864 Y0.8125  
G01 X-2.7935 Y0.8096  
G01 X-2.7999 Y0.8053  
G01 X-2.8053 Y0.7999  
G01 X-2.8096 Y0.7935  
G01 X-2.8125 Y0.7864  
G01 X-2.8140 Y0.7788  
G01 X-2.8140 Y0.7712  
G01 X-2.8125 Y0.7636  
G01 X-2.8096 Y0.7565  
G01 X-2.8053 Y0.7501  
G01 X-2.7999 Y0.7447  
G01 X-2.7935 Y0.7404  
G01 X-2.7864 Y0.7375  
G01 X-2.7788 Y0.7360  
G01 X-2.7712 Y0.7360  
G01 X-2.7636 Y0.7375  
G01 X-2.7565 Y0.7404  
G01 X-2.7501 Y0.7447  
G01 X-2.7447 Y0.7501  
G01 X-2.7438 Y0.7515  
G01 X-2.6989 Y0.7515  
G01 X-2.6985 Y0.7511  
G01 X-2.6985 Y0.6739  
G01 X-2.7085 Y0.6639  
G01 X-2.7085 Y0.6361  
G01 X-2.6889 Y0.6165  
G01 X-2.6823 Y0.6165  
G01 X-2.6335 Y0.5352  
G01 X-2.6335 Y0.5111  
G01 X-2.6235 Y0.5011  
G01 X-2.6235 Y0.4227  
G01 X-2.6226 Y0.4181  
G01 X-2.6208 Y0.4139  
G01 X-2.6183 Y0.4100  
G01 X-2.5585 Y0.3503  
G01 X-2.5585 Y0.3361  
G01 X-2.5389 Y0.3165  
G01 X-2.5111 Y0.3165  
G01 X-2.4915 Y0.3361  
G00 Z0.0500  
G00 X-2.8343 Y0.5807  
G01 Z-0.0035 F10    
G01 X-2.8290 Y0.5880  F20    
G01 X-2.8249 Y0.5960  
G01 X-2.8221 Y0.6046  
G01 X-2.8206 Y0.6136  
G01 X-2.8206 Y0.6226  
G01 X-2.8221 Y0.6316  
G01 X-2.8249 Y0.6402  
G01 X-2.8290 Y0.6482  
G01 X-2.8343 Y0.6556  
G01 X-2.8407 Y0.6620  
G01 X-2.8480 Y0.6673  
G01 X-2.8561 Y0.6714  
G01 X-2.8647 Y0.6742  
G01 X-2.8736 Y0.6756  
G01 X-2.9141 Y0.6756  
G01 X-2.9206 Y0.7143  
G01 X-2.8897 Y0.7360  
G01 X-2.8588 Y0.7360  
G01 X-2.8360 Y0.7588  
G01 X-2.8360 Y0.7912  
G01 X-2.8588 Y0.8140  
G01 X-2.8912 Y0.8140  
G01 X-2.9140 Y0.7912  
G01 X-2.9140 Y0.7763  
G01 X-2.9593 Y0.7446  
G01 X-2.9607 Y0.7437  
G01 X-2.9612 Y0.7433  
G01 X-2.9617 Y0.7429  
G01 X-2.9628 Y0.7417  
G01 X-2.9641 Y0.7405  
G01 X-2.9644 Y0.7400  
G01 X-2.9649 Y0.7396  
G01 X-2.9658 Y0.7381  
G01 X-2.9668 Y0.7367  
G01 X-2.9670 Y0.7362  
G01 X-2.9673 Y0.7357  
G01 X-2.9680 Y0.7341  
G01 X-2.9687 Y0.7325  
G01 X-2.9688 Y0.7319  
G01 X-2.9690 Y0.7313  
G01 X-2.9693 Y0.7297  
G01 X-2.9697 Y0.7280  
G01 X-2.9697 Y0.7274  
G01 X-2.9698 Y0.7268  
G01 X-2.9698 Y0.7251  
G01 X-2.9698 Y0.7234  
G01 X-2.9697 Y0.7228  
G01 X-2.9697 Y0.7222  
G01 X-2.9693 Y0.7205  
G01 X-2.9617 Y0.6756  
G01 X-2.9827 Y0.6756  
G01 X-2.9916 Y0.6742  
G01 X-3.0002 Y0.6714  
G01 X-3.0083 Y0.6673  
G01 X-3.0156 Y0.6620  
G01 X-3.0220 Y0.6556  
G01 X-3.0273 Y0.6482  
G01 X-3.0314 Y0.6402  
G01 X-3.0342 Y0.6316  
G01 X-3.0356 Y0.6226  
G01 X-3.0356 Y0.6136  
G01 X-3.0342 Y0.6046  
G01 X-3.0314 Y0.5960  
G01 X-3.0273 Y0.5880  
G01 X-3.0220 Y0.5807  
G01 X-3.0156 Y0.5743  
G01 X-3.0083 Y0.5689  
G01 X-3.0002 Y0.5648  
G01 X-2.9916 Y0.5620  
G01 X-2.9827 Y0.5606  
G01 X-2.8736 Y0.5606  
G01 X-2.8647 Y0.5620  
G01 X-2.8561 Y0.5648  
G01 X-2.8480 Y0.5689  
G01 X-2.8407 Y0.5743  
G01 X-2.8343 Y0.5807  
G00 Z0.0500  
G00 X-3.0754 Y0.5860  
G01 Z-0.0035 F10    
G01 X-3.0768 Y0.5950  F20    
G01 X-3.0796 Y0.6036  
G01 X-3.0837 Y0.6116  
G01 X-3.0890 Y0.6190  
G01 X-3.0954 Y0.6254  
G01 X-3.1027 Y0.6307  
G01 X-3.1050 Y0.6318  
G01 X-3.1026 Y0.6878  
G01 X-3.0667 Y0.6878  
G01 X-3.0595 Y0.6892  
G01 X-3.0527 Y0.6920  
G01 X-3.0466 Y0.6961  
G01 X-3.0414 Y0.7013  
G01 X-3.0374 Y0.7074  
G01 X-3.0346 Y0.7142  
G01 X-3.0331 Y0.7213  
G01 X-3.0331 Y0.7287  
G01 X-3.0346 Y0.7358  
G01 X-3.0374 Y0.7426  
G01 X-3.0414 Y0.7487  
G01 X-3.0466 Y0.7539  
G01 X-3.0527 Y0.7580  
G01 X-3.0595 Y0.7608  
G01 X-3.0667 Y0.7622  
G01 X-3.1333 Y0.7622  
G01 X-3.1405 Y0.7608  
G01 X-3.1473 Y0.7580  
G01 X-3.1534 Y0.7539  
G01 X-3.1586 Y0.7487  
G01 X-3.1626 Y0.7426  
G01 X-3.1654 Y0.7358  
G01 X-3.1669 Y0.7287  
G01 X-3.1669 Y0.7213  
G01 X-3.1654 Y0.7142  
G01 X-3.1626 Y0.7074  
G01 X-3.1586 Y0.7013  
G01 X-3.1534 Y0.6961  
G01 X-3.1494 Y0.6935  
G01 X-3.1519 Y0.6358  
G01 X-3.1549 Y0.6348  
G01 X-3.1630 Y0.6307  
G01 X-3.1703 Y0.6254  
G01 X-3.1767 Y0.6190  
G01 X-3.1821 Y0.6116  
G01 X-3.1862 Y0.6036  
G01 X-3.1890 Y0.5950  
G01 X-3.1904 Y0.5860  
G01 X-3.1904 Y0.4770  
G01 X-3.1890 Y0.4680  
G01 X-3.1862 Y0.4594  
G01 X-3.1821 Y0.4514  
G01 X-3.1767 Y0.4440  
G01 X-3.1703 Y0.4376  
G01 X-3.1630 Y0.4323  
G01 X-3.1549 Y0.4282  
G01 X-3.1463 Y0.4254  
G01 X-3.1374 Y0.4240  
G01 X-3.1283 Y0.4240  
G01 X-3.1194 Y0.4254  
G01 X-3.1108 Y0.4282  
G01 X-3.1027 Y0.4323  
G01 X-3.0954 Y0.4376  
G01 X-3.0890 Y0.4440  
G01 X-3.0837 Y0.4514  
G01 X-3.0796 Y0.4594  
G01 X-3.0768 Y0.4680  
G01 X-3.0754 Y0.4770  
G01 X-3.0754 Y0.5860  
G00 Z0.0500  
G00 X-0.0295 Y0.0812  
G01 Z-0.0035 F10    
G01 X-0.0295 Y0.1188  F20    
G01 X-0.0562 Y0.1455  
G01 X-0.0938 Y0.1455  
G01 X-0.1205 Y0.1188  
G01 X-0.1205 Y0.0812  
G01 X-0.0938 Y0.0545  
G01 X-0.0562 Y0.0545  
G01 X-0.0295 Y0.0812  
G00 Z0.0500  
G00 X-0.0295 Y0.1812  
G01 Z-0.0035 F10    
G01 X-0.0295 Y0.2188  F20    
G01 X-0.0415 Y0.2308  
G01 X-0.0415 Y0.2692  
G01 X-0.0295 Y0.2812  
G01 X-0.0295 Y0.3188  
G01 X-0.0415 Y0.3308  
G01 X-0.0415 Y0.3692  
G01 X-0.0295 Y0.3812  
G01 X-0.0295 Y0.4188  
G01 X-0.0562 Y0.4455  
G01 X-0.0938 Y0.4455  
G01 X-0.1148 Y0.4245  
G01 X-0.1352 Y0.4245  
G01 X-0.1562 Y0.4455  
G01 X-0.1938 Y0.4455  
G01 X-0.2205 Y0.4188  
G01 X-0.2205 Y0.3812  
G01 X-0.2085 Y0.3692  
G01 X-0.2085 Y0.3308  
G01 X-0.2205 Y0.3188  
G01 X-0.2205 Y0.2812  
G01 X-0.2085 Y0.2692  
G01 X-0.2085 Y0.2308  
G01 X-0.2148 Y0.2245  
G01 X-0.4757 Y0.2245  
G01 X-0.4857 Y0.2345  
G01 X-0.5142 Y0.2345  
G01 X-0.5755 Y0.2651  
G01 X-0.5755 Y0.4257  
G01 X-0.5655 Y0.4357  
G01 X-0.5655 Y0.4642  
G01 X-0.5538 Y0.4877  
G01 X-0.5533 Y0.4884  
G01 X-0.5527 Y0.4898  
G01 X-0.5520 Y0.4912  
G01 X-0.5518 Y0.4920  
G01 X-0.5514 Y0.4929  
G01 X-0.5511 Y0.4944  
G01 X-0.5507 Y0.4959  
G01 X-0.5507 Y0.4967  
G01 X-0.5505 Y0.4976  
G01 X-0.5505 Y0.4991  
G01 X-0.5504 Y0.5007  
G01 X-0.5505 Y0.5015  
G01 X-0.5505 Y0.7274  
G01 X-0.5514 Y0.7321  
G01 X-0.5533 Y0.7366  
G01 X-0.5560 Y0.7406  
G01 X-0.5594 Y0.7440  
G01 X-0.5634 Y0.7467  
G01 X-0.5679 Y0.7486  
G01 X-0.5726 Y0.7495  
G01 X-1.0524 Y0.7495  
G01 X-1.0571 Y0.7486  
G01 X-1.0616 Y0.7467  
G01 X-1.0656 Y0.7440  
G01 X-1.0917 Y0.7179  
G01 X-1.0929 Y0.7169  
G01 X-1.0934 Y0.7162  
G01 X-1.0940 Y0.7156  
G01 X-1.0949 Y0.7143  
G01 X-1.0958 Y0.7131  
G01 X-1.0962 Y0.7123  
G01 X-1.0967 Y0.7116  
G01 X-1.0973 Y0.7102  
G01 X-1.1351 Y0.6345  
G01 X-1.1393 Y0.6345  
G01 X-1.1595 Y0.6143  
G01 X-1.1595 Y0.6064  
G01 X-1.2505 Y0.5458  
G01 X-1.2505 Y0.6024  
G01 X-1.2514 Y0.6071  
G01 X-1.2533 Y0.6116  
G01 X-1.2560 Y0.6156  
G01 X-1.3560 Y0.7156  
G01 X-1.3594 Y0.7190  
G01 X-1.3634 Y0.7217  
G01 X-1.3679 Y0.7236  
G01 X-1.3726 Y0.7245  
G01 X-1.5007 Y0.7245  
G01 X-1.5107 Y0.7345  
G01 X-1.5393 Y0.7345  
G01 X-1.5595 Y0.7143  
G01 X-1.5595 Y0.7064  
G01 X-1.6116 Y0.6717  
G01 X-1.6154 Y0.6692  
G01 X-1.6156 Y0.6690  
G01 X-1.6190 Y0.6656  
G01 X-1.6217 Y0.6616  
G01 X-1.6236 Y0.6572  
G01 X-1.6245 Y0.6524  
G01 X-1.6470 Y0.5398  
G01 X-1.7074 Y0.4995  
G01 X-1.7257 Y0.4995  
G01 X-1.7357 Y0.5095  
G01 X-1.7643 Y0.5095  
G01 X-1.7743 Y0.4995  
G01 X-1.8257 Y0.4995  
G01 X-1.8357 Y0.5095  
G01 X-1.8643 Y0.5095  
G01 X-1.8845 Y0.4893  
G01 X-1.8845 Y0.4607  
G01 X-1.8643 Y0.4405  
G01 X-1.8357 Y0.4405  
G01 X-1.8257 Y0.4505  
G01 X-1.7743 Y0.4505  
G01 X-1.7643 Y0.4405  
G01 X-1.7357 Y0.4405  
G01 X-1.7257 Y0.4505  
G01 X-1.7000 Y0.4505  
G01 X-1.6976 Y0.4505  
G01 X-1.6952 Y0.4510  
G01 X-1.6929 Y0.4514  
G01 X-1.6907 Y0.4524  
G01 X-1.6884 Y0.4533  
G01 X-1.6864 Y0.4546  
G01 X-1.6134 Y0.5033  
G01 X-1.6094 Y0.5060  
G01 X-1.6060 Y0.5094  
G01 X-1.6033 Y0.5134  
G01 X-1.6014 Y0.5178  
G01 X-1.5780 Y0.6352  
G01 X-1.5326 Y0.6655  
G01 X-1.5107 Y0.6655  
G01 X-1.5007 Y0.6755  
G01 X-1.3851 Y0.6755  
G01 X-1.2995 Y0.5899  
G01 X-1.2995 Y0.5243  
G01 X-1.3095 Y0.5143  
G01 X-1.3095 Y0.4857  
G01 X-1.2893 Y0.4655  
G01 X-1.2607 Y0.4655  
G01 X-1.2405 Y0.4857  
G01 X-1.2405 Y0.4936  
G01 X-1.1326 Y0.5655  
G01 X-1.1107 Y0.5655  
G01 X-1.0905 Y0.5857  
G01 X-1.0905 Y0.6142  
G01 X-1.0549 Y0.6855  
G01 X-1.0399 Y0.7005  
G01 X-0.5995 Y0.7005  
G01 X-0.5995 Y0.5058  
G01 X-0.6101 Y0.4845  
G01 X-0.6143 Y0.4845  
G01 X-0.6345 Y0.4643  
G01 X-0.6345 Y0.4357  
G01 X-0.6245 Y0.4257  
G01 X-0.6245 Y0.2509  
G01 X-0.6246 Y0.2493  
G01 X-0.6245 Y0.2485  
G01 X-0.6245 Y0.2476  
G01 X-0.6242 Y0.2461  
G01 X-0.6240 Y0.2445  
G01 X-0.6237 Y0.2437  
G01 X-0.6236 Y0.2429  
G01 X-0.6230 Y0.2414  
G01 X-0.6225 Y0.2400  
G01 X-0.6220 Y0.2392  
G01 X-0.6217 Y0.2384  
G01 X-0.6209 Y0.2371  
G01 X-0.6201 Y0.2358  
G01 X-0.6195 Y0.2351  
G01 X-0.6190 Y0.2344  
G01 X-0.6179 Y0.2333  
G01 X-0.6169 Y0.2321  
G01 X-0.6162 Y0.2316  
G01 X-0.6156 Y0.2310  
G01 X-0.6143 Y0.2301  
G01 X-0.6131 Y0.2292  
G01 X-0.6123 Y0.2288  
G01 X-0.6116 Y0.2283  
G01 X-0.6102 Y0.2277  
G01 X-0.5345 Y0.1899  
G01 X-0.5345 Y0.1857  
G01 X-0.5245 Y0.1757  
G01 X-0.5245 Y0.0495  
G01 X-2.5942 Y0.0495  
G01 X-2.6155 Y0.0601  
G01 X-2.6155 Y0.0643  
G01 X-2.6357 Y0.0845  
G01 X-2.6643 Y0.0845  
G01 X-2.6702 Y0.0786  
G01 X-2.8201 Y0.1058  
G01 X-2.8211 Y0.1121  
G01 X-2.8239 Y0.1209  
G01 X-2.8281 Y0.1291  
G01 X-2.8335 Y0.1365  
G01 X-2.8400 Y0.1430  
G01 X-2.8475 Y0.1485  
G01 X-2.8557 Y0.1526  
G01 X-2.8645 Y0.1555  
G01 X-2.8735 Y0.1569  
G01 X-2.9662 Y0.1569  
G01 X-3.2005 Y0.3131  
G01 X-3.2005 Y0.7584  
G01 X-3.1295 Y0.7868  
G01 X-3.0666 Y0.7868  
G01 X-3.0592 Y0.7883  
G01 X-3.0522 Y0.7912  
G01 X-3.0460 Y0.7953  
G01 X-3.0407 Y0.8007  
G01 X-3.0365 Y0.8069  
G01 X-3.0336 Y0.8139  
G01 X-3.0321 Y0.8212  
G01 X-3.0321 Y0.8288  
G01 X-3.0336 Y0.8361  
G01 X-3.0365 Y0.8431  
G01 X-3.0407 Y0.8493  
G01 X-3.0460 Y0.8547  
G01 X-3.0522 Y0.8588  
G01 X-3.0592 Y0.8617  
G01 X-3.0666 Y0.8632  
G01 X-3.1334 Y0.8632  
G01 X-3.1408 Y0.8617  
G01 X-3.1478 Y0.8588  
G01 X-3.1540 Y0.8547  
G01 X-3.1593 Y0.8493  
G01 X-3.1635 Y0.8431  
G01 X-3.1664 Y0.8361  
G01 X-3.1679 Y0.8288  
G01 X-3.1679 Y0.8242  
G01 X-3.2320 Y0.7986  
G01 X-3.2321 Y0.7986  
G01 X-3.2342 Y0.7977  
G01 X-3.2363 Y0.7969  
G01 X-3.2365 Y0.7968  
G01 X-3.2366 Y0.7967  
G01 X-3.2385 Y0.7955  
G01 X-3.2404 Y0.7942  
G01 X-3.2405 Y0.7941  
G01 X-3.2406 Y0.7940  
G01 X-3.2422 Y0.7924  
G01 X-3.2438 Y0.7908  
G01 X-3.2439 Y0.7907  
G01 X-3.2440 Y0.7906  
G01 X-3.2453 Y0.7887  
G01 X-3.2466 Y0.7869  
G01 X-3.2466 Y0.7867  
G01 X-3.2467 Y0.7866  
G01 X-3.2476 Y0.7845  
G01 X-3.2485 Y0.7824  
G01 X-3.2485 Y0.7823  
G01 X-3.2486 Y0.7821  
G01 X-3.2490 Y0.7799  
G01 X-3.2495 Y0.7777  
G01 X-3.2495 Y0.7776  
G01 X-3.2495 Y0.7774  
G01 X-3.2495 Y0.7751  
G01 X-3.2495 Y0.7729  
G01 X-3.2495 Y0.7727  
G01 X-3.2495 Y0.3024  
G01 X-3.2495 Y0.3000  
G01 X-3.2495 Y0.2976  
G01 X-3.2490 Y0.2952  
G01 X-3.2486 Y0.2929  
G01 X-3.2476 Y0.2906  
G01 X-3.2467 Y0.2884  
G01 X-3.2454 Y0.2864  
G01 X-3.2440 Y0.2844  
G01 X-3.2423 Y0.2827  
G01 X-3.2406 Y0.2810  
G01 X-3.2386 Y0.2796  
G01 X-3.2366 Y0.2783  
G01 X-3.0232 Y0.1360  
G01 X-3.0282 Y0.1291  
G01 X-3.0324 Y0.1209  
G01 X-3.0352 Y0.1121  
G01 X-3.0366 Y0.1030  
G01 X-3.0366 Y0.0938  
G01 X-3.0352 Y0.0847  
G01 X-3.0324 Y0.0760  
G01 X-3.0282 Y0.0678  
G01 X-3.0228 Y0.0603  
G01 X-3.0163 Y0.0538  
G01 X-3.0088 Y0.0484  
G01 X-3.0006 Y0.0442  
G01 X-2.9918 Y0.0414  
G01 X-2.9828 Y0.0399  
G01 X-2.8735 Y0.0399  
G01 X-2.8645 Y0.0414  
G01 X-2.8557 Y0.0442  
G01 X-2.8475 Y0.0484  
G01 X-2.8400 Y0.0538  
G01 X-2.8351 Y0.0588  
G01 X-2.6792 Y0.0304  
G01 X-2.6643 Y0.0155  
G01 X-2.6358 Y0.0155  
G01 X-2.6123 Y0.0038  
G01 X-2.6116 Y0.0033  
G01 X-2.6102 Y0.0027  
G01 X-2.6088 Y0.0020  
G01 X-2.6080 Y0.0018  
G01 X-2.6071 Y0.0014  
G01 X-2.6056 Y0.0011  
G01 X-2.6041 Y0.0007  
G01 X-2.6033 Y0.0007  
G01 X-2.6024 Y0.0005  
G01 X-2.6009 Y0.0005  
G01 X-2.5993 Y0.0004  
G01 X-2.5985 Y0.0005  
G01 X-0.4976 Y0.0005  
G01 X-0.4929 Y0.0014  
G01 X-0.4884 Y0.0033  
G01 X-0.4844 Y0.0060  
G01 X-0.4810 Y0.0094  
G01 X-0.4783 Y0.0134  
G01 X-0.4764 Y0.0179  
G01 X-0.4755 Y0.0226  
G01 X-0.4755 Y0.1755  
G01 X-0.2148 Y0.1755  
G01 X-0.1938 Y0.1545  
G01 X-0.1562 Y0.1545  
G01 X-0.1352 Y0.1755  
G01 X-0.1148 Y0.1755  
G01 X-0.0938 Y0.1545  
G01 X-0.0562 Y0.1545  
G01 X-0.0295 Y0.1812  
G00 Z0.0500  
G00 X-0.1562 Y0.1455  
G01 Z-0.0035 F10    
G01 X-0.1938 Y0.1455  F20    
G01 X-0.2205 Y0.1188  
G01 X-0.2205 Y0.0812  
G01 X-0.1938 Y0.0545  
G01 X-0.1562 Y0.0545  
G01 X-0.1295 Y0.0812  
G01 X-0.1295 Y0.1188  
G01 X-0.1562 Y0.1455  
G00 Z0.0500  
G00 X-0.1562 Y0.4545  
G01 Z-0.0035 F10    
G01 X-0.1352 Y0.4755  F20    
G01 X-0.1148 Y0.4755  
G01 X-0.0938 Y0.4545  
G01 X-0.0562 Y0.4545  
G01 X-0.0295 Y0.4812  
G01 X-0.0295 Y0.5188  
G01 X-0.0562 Y0.5455  
G01 X-0.0938 Y0.5455  
G01 X-0.1148 Y0.5245  
G01 X-0.1352 Y0.5245  
G01 X-0.1562 Y0.5455  
G01 X-0.1938 Y0.5455  
G01 X-0.2148 Y0.5245  
G01 X-0.3244 Y0.5245  
G01 X-0.3262 Y0.5246  
G01 X-0.3268 Y0.5245  
G01 X-0.3274 Y0.5245  
G01 X-0.3292 Y0.5241  
G01 X-0.3310 Y0.5239  
G01 X-0.3316 Y0.5237  
G01 X-0.3321 Y0.5236  
G01 X-0.3338 Y0.5229  
G01 X-0.3355 Y0.5222  
G01 X-0.3361 Y0.5219  
G01 X-0.3366 Y0.5217  
G01 X-0.3381 Y0.5207  
G01 X-0.3397 Y0.5198  
G01 X-0.3401 Y0.5194  
G01 X-0.3406 Y0.5190  
G01 X-0.3419 Y0.5177  
G01 X-0.3432 Y0.5165  
G01 X-0.3436 Y0.5160  
G01 X-0.3440 Y0.5156  
G01 X-0.3450 Y0.5141  
G01 X-0.3461 Y0.5126  
G01 X-0.3464 Y0.5121  
G01 X-0.3467 Y0.5116  
G01 X-0.3474 Y0.5099  
G01 X-0.3482 Y0.5083  
G01 X-0.3483 Y0.5077  
G01 X-0.3486 Y0.5071  
G01 X-0.3489 Y0.5054  
G01 X-0.3941 Y0.3245  
G01 X-0.4755 Y0.3245  
G01 X-0.4755 Y0.8024  
G01 X-0.4764 Y0.8071  
G01 X-0.4783 Y0.8116  
G01 X-0.4810 Y0.8156  
G01 X-0.4844 Y0.8190  
G01 X-0.4884 Y0.8217  
G01 X-0.4929 Y0.8236  
G01 X-0.4976 Y0.8245  
G01 X-2.2507 Y0.8245  
G01 X-2.2607 Y0.8345  
G01 X-2.2893 Y0.8345  
G01 X-2.2993 Y0.8245  
G01 X-2.3524 Y0.8245  
G01 X-2.3571 Y0.8236  
G01 X-2.3616 Y0.8217  
G01 X-2.3656 Y0.8190  
G01 X-2.3751 Y0.8095  
G01 X-2.3893 Y0.8095  
G01 X-2.4095 Y0.7893  
G01 X-2.4095 Y0.7607  
G01 X-2.3893 Y0.7405  
G01 X-2.3607 Y0.7405  
G01 X-2.3405 Y0.7607  
G01 X-2.3405 Y0.7749  
G01 X-2.3399 Y0.7755  
G01 X-2.2993 Y0.7755  
G01 X-2.2893 Y0.7655  
G01 X-2.2607 Y0.7655  
G01 X-2.2507 Y0.7755  
G01 X-0.5245 Y0.7755  
G01 X-0.5245 Y0.3243  
G01 X-0.5345 Y0.3143  
G01 X-0.5345 Y0.2857  
G01 X-0.5143 Y0.2655  
G01 X-0.4857 Y0.2655  
G01 X-0.4757 Y0.2755  
G01 X-0.3756 Y0.2755  
G01 X-0.3738 Y0.2754  
G01 X-0.3732 Y0.2755  
G01 X-0.3726 Y0.2755  
G01 X-0.3708 Y0.2759  
G01 X-0.3690 Y0.2761  
G01 X-0.3684 Y0.2763  
G01 X-0.3679 Y0.2764  
G01 X-0.3662 Y0.2771  
G01 X-0.3645 Y0.2777  
G01 X-0.3639 Y0.2781  
G01 X-0.3634 Y0.2783  
G01 X-0.3619 Y0.2793  
G01 X-0.3603 Y0.2802  
G01 X-0.3599 Y0.2806  
G01 X-0.3594 Y0.2810  
G01 X-0.3581 Y0.2823  
G01 X-0.3568 Y0.2835  
G01 X-0.3564 Y0.2840  
G01 X-0.3560 Y0.2844  
G01 X-0.3550 Y0.2859  
G01 X-0.3539 Y0.2874  
G01 X-0.3536 Y0.2879  
G01 X-0.3533 Y0.2884  
G01 X-0.3526 Y0.2901  
G01 X-0.3518 Y0.2917  
G01 X-0.3517 Y0.2923  
G01 X-0.3514 Y0.2929  
G01 X-0.3511 Y0.2946  
G01 X-0.3059 Y0.4755  
G01 X-0.2148 Y0.4755  
G01 X-0.1938 Y0.4545  
G01 X-0.1562 Y0.4545  
G00 Z0.0500  
G00 X-0.1562 Y0.5545  
G01 Z-0.0035 F10    
G01 X-0.1295 Y0.5812  F20    
G01 X-0.1295 Y0.6188  
G01 X-0.1562 Y0.6455  
G01 X-0.1938 Y0.6455  
G01 X-0.2205 Y0.6188  
G01 X-0.2205 Y0.5812  
G01 X-0.1938 Y0.5545  
G01 X-0.1562 Y0.5545  
G00 Z0.0500  
G00 X-0.1205 Y0.5812  
G01 Z-0.0035 F10    
G01 X-0.0938 Y0.5545  F20    
G01 X-0.0562 Y0.5545  
G01 X-0.0295 Y0.5812  
G01 X-0.0295 Y0.6188  
G01 X-0.0562 Y0.6455  
G01 X-0.0938 Y0.6455  
G01 X-0.1205 Y0.6188  
G01 X-0.1205 Y0.5812  
G00 Z0.0500  
G00 X-0.1205 Y0.6812  
G01 Z-0.0035 F10    
G01 X-0.0938 Y0.6545  F20    
G01 X-0.0562 Y0.6545  
G01 X-0.0295 Y0.6812  
G01 X-0.0295 Y0.7188  
G01 X-0.0562 Y0.7455  
G01 X-0.0938 Y0.7455  
G01 X-0.1205 Y0.7188  
G01 X-0.1205 Y0.6812  
G00 Z0.0500  
G00 X-0.1295 Y0.6812  
G01 Z-0.0035 F10    
G01 X-0.1295 Y0.7188  F20    
G01 X-0.1562 Y0.7455  
G01 X-0.1938 Y0.7455  
G01 X-0.2205 Y0.7188  
G01 X-0.2205 Y0.6812  
G01 X-0.1938 Y0.6545  
G01 X-0.1562 Y0.6545  
G01 X-0.1295 Y0.6812  
G00 Z0.0500  
G00 X-0.1562 Y0.7545  
G01 Z-0.0035 F10    
G01 X-0.1352 Y0.7755  F20    
G01 X-0.1148 Y0.7755  
G01 X-0.0938 Y0.7545  
G01 X-0.0562 Y0.7545  
G01 X-0.0295 Y0.7812  
G01 X-0.0295 Y0.8188  
G01 X-0.0562 Y0.8455  
G01 X-0.0938 Y0.8455  
G01 X-0.1148 Y0.8245  
G01 X-0.1352 Y0.8245  
G01 X-0.1562 Y0.8455  
G01 X-0.1938 Y0.8455  
G01 X-0.2148 Y0.8245  
G01 X-0.2985 Y0.8245  
G01 X-0.2993 Y0.8246  
G01 X-0.3009 Y0.8245  
G01 X-0.3024 Y0.8245  
G01 X-0.3033 Y0.8243  
G01 X-0.3041 Y0.8243  
G01 X-0.3056 Y0.8239  
G01 X-0.3071 Y0.8236  
G01 X-0.3080 Y0.8232  
G01 X-0.3088 Y0.8230  
G01 X-0.3102 Y0.8223  
G01 X-0.3116 Y0.8217  
G01 X-0.3123 Y0.8212  
G01 X-0.3131 Y0.8208  
G01 X-0.3143 Y0.8199  
G01 X-0.3156 Y0.8190  
G01 X-0.3162 Y0.8184  
G01 X-0.3169 Y0.8179  
G01 X-0.3179 Y0.8167  
G01 X-0.3190 Y0.8156  
G01 X-0.3195 Y0.8149  
G01 X-0.3201 Y0.8142  
G01 X-0.3209 Y0.8129  
G01 X-0.3217 Y0.8116  
G01 X-0.3220 Y0.8108  
G01 X-0.3225 Y0.8100  
G01 X-0.3230 Y0.8086  
G01 X-0.3236 Y0.8071  
G01 X-0.3237 Y0.8063  
G01 X-0.3643 Y0.6844  
G01 X-0.3845 Y0.6643  
G01 X-0.3845 Y0.6357  
G01 X-0.3643 Y0.6155  
G01 X-0.3357 Y0.6155  
G01 X-0.3155 Y0.6357  
G01 X-0.3155 Y0.6643  
G01 X-0.3184 Y0.6672  
G01 X-0.2823 Y0.7755  
G01 X-0.2148 Y0.7755  
G01 X-0.1938 Y0.7545  
G01 X-0.1562 Y0.7545  
G00 Z0.0500  
G00 X-0.6357 Y0.6845  
G01 Z-0.0035 F10    
G01 X-0.6643 Y0.6845  F20    
G01 X-0.6845 Y0.6643  
G01 X-0.6845 Y0.6357  
G01 X-0.6745 Y0.6257  
G01 X-0.6745 Y0.5493  
G01 X-0.6845 Y0.5393  
G01 X-0.6845 Y0.5107  
G01 X-0.6643 Y0.4905  
G01 X-0.6357 Y0.4905  
G01 X-0.6155 Y0.5107  
G01 X-0.6155 Y0.5393  
G01 X-0.6255 Y0.5493  
G01 X-0.6255 Y0.6257  
G01 X-0.6155 Y0.6357  
G01 X-0.6155 Y0.6643  
G01 X-0.6357 Y0.6845  
G00 Z0.0500  
G00 X-0.7357 Y0.6345  
G01 Z-0.0035 F10    
G01 X-0.7643 Y0.6345  F20    
G01 X-0.7845 Y0.6143  
G01 X-0.7845 Y0.5857  
G01 X-0.7643 Y0.5656  
G01 X-0.7316 Y0.4672  
G01 X-0.7345 Y0.4643  
G01 X-0.7345 Y0.4357  
G01 X-0.7245 Y0.4257  
G01 X-0.7245 Y0.4101  
G01 X-0.8001 Y0.3345  
G01 X-0.8143 Y0.3345  
G01 X-0.8345 Y0.3143  
G01 X-0.8345 Y0.2857  
G01 X-0.8143 Y0.2655  
G01 X-0.7857 Y0.2655  
G01 X-0.7655 Y0.2857  
G01 X-0.7655 Y0.2999  
G01 X-0.6844 Y0.3810  
G01 X-0.6810 Y0.3844  
G01 X-0.6783 Y0.3884  
G01 X-0.6764 Y0.3929  
G01 X-0.6755 Y0.3976  
G01 X-0.6755 Y0.4257  
G01 X-0.6655 Y0.4357  
G01 X-0.6655 Y0.4643  
G01 X-0.6857 Y0.4844  
G01 X-0.7184 Y0.5828  
G01 X-0.7155 Y0.5857  
G01 X-0.7155 Y0.6143  
G01 X-0.7357 Y0.6345  
G00 Z0.0500  
G00 X-0.9357 Y0.6345  
G01 Z-0.0035 F10    
G01 X-0.9643 Y0.6345  F20    
G01 X-0.9845 Y0.6143  
G01 X-0.9845 Y0.5857  
G01 X-0.9643 Y0.5655  
G01 X-0.9601 Y0.5655  
G01 X-0.9396 Y0.5245  
G01 X-0.9507 Y0.5245  
G01 X-0.9607 Y0.5345  
G01 X-0.9893 Y0.5345  
G01 X-1.0095 Y0.5143  
G01 X-1.0095 Y0.4857  
G01 X-0.9893 Y0.4655  
G01 X-0.9607 Y0.4655  
G01 X-0.9507 Y0.4755  
G01 X-0.9384 Y0.4755  
G01 X-0.9347 Y0.4704  
G01 X-0.9296 Y0.4653  
G01 X-0.9238 Y0.4611  
G01 X-0.9175 Y0.4578  
G01 X-0.9107 Y0.4556  
G01 X-0.9036 Y0.4545  
G01 X-0.8964 Y0.4545  
G01 X-0.8893 Y0.4556  
G01 X-0.8825 Y0.4578  
G01 X-0.8762 Y0.4611  
G01 X-0.8704 Y0.4653  
G01 X-0.8653 Y0.4704  
G01 X-0.8611 Y0.4762  
G01 X-0.8578 Y0.4825  
G01 X-0.8556 Y0.4893  
G01 X-0.8545 Y0.4964  
G01 X-0.8545 Y0.5036  
G01 X-0.8556 Y0.5107  
G01 X-0.8578 Y0.5175  
G01 X-0.8611 Y0.5238  
G01 X-0.8653 Y0.5296  
G01 X-0.8704 Y0.5347  
G01 X-0.8762 Y0.5389  
G01 X-0.8825 Y0.5422  
G01 X-0.8893 Y0.5444  
G01 X-0.8953 Y0.5453  
G01 X-0.9155 Y0.5858  
G01 X-0.9155 Y0.6143  
G01 X-0.9357 Y0.6345  
G00 Z0.0500  
G00 X-0.9857 Y0.4345  
G01 Z-0.0035 F10    
G01 X-1.0143 Y0.4345  F20    
G01 X-1.0345 Y0.4143  
G01 X-1.0345 Y0.3857  
G01 X-1.0143 Y0.3655  
G01 X-1.0064 Y0.3655  
G01 X-0.9718 Y0.3135  
G01 X-0.9370 Y0.2265  
G01 X-0.9389 Y0.2238  
G01 X-0.9422 Y0.2175  
G01 X-0.9444 Y0.2107  
G01 X-0.9455 Y0.2036  
G01 X-0.9455 Y0.1964  
G01 X-0.9444 Y0.1893  
G01 X-0.9422 Y0.1825  
G01 X-0.9389 Y0.1762  
G01 X-0.9347 Y0.1704  
G01 X-0.9296 Y0.1653  
G01 X-0.9238 Y0.1611  
G01 X-0.9175 Y0.1578  
G01 X-0.9107 Y0.1556  
G01 X-0.9036 Y0.1545  
G01 X-0.8964 Y0.1545  
G01 X-0.8893 Y0.1556  
G01 X-0.8825 Y0.1578  
G01 X-0.8762 Y0.1611  
G01 X-0.8704 Y0.1653  
G01 X-0.8653 Y0.1704  
G01 X-0.8611 Y0.1762  
G01 X-0.8578 Y0.1825  
G01 X-0.8556 Y0.1893  
G01 X-0.8545 Y0.1964  
G01 X-0.8545 Y0.2036  
G01 X-0.8556 Y0.2107  
G01 X-0.8578 Y0.2175  
G01 X-0.8611 Y0.2238  
G01 X-0.8653 Y0.2296  
G01 X-0.8704 Y0.2347  
G01 X-0.8762 Y0.2389  
G01 X-0.8825 Y0.2422  
G01 X-0.8893 Y0.2444  
G01 X-0.8915 Y0.2447  
G01 X-0.9264 Y0.3320  
G01 X-0.9264 Y0.3321  
G01 X-0.9273 Y0.3342  
G01 X-0.9281 Y0.3363  
G01 X-0.9282 Y0.3365  
G01 X-0.9283 Y0.3366  
G01 X-0.9295 Y0.3385  
G01 X-0.9308 Y0.3404  
G01 X-0.9655 Y0.3924  
G01 X-0.9655 Y0.4143  
G01 X-0.9857 Y0.4345  
G00 Z0.0500  
G00 X-1.0857 Y0.4345  
G01 Z-0.0035 F10    
G01 X-1.1143 Y0.4345  F20    
G01 X-1.1345 Y0.4143  
G01 X-1.1345 Y0.4001  
G01 X-1.1382 Y0.3964  
G01 X-1.1828 Y0.3816  
G01 X-1.1857 Y0.3845  
G01 X-1.2143 Y0.3845  
G01 X-1.2243 Y0.3745  
G01 X-1.3007 Y0.3745  
G01 X-1.3107 Y0.3845  
G01 X-1.3393 Y0.3845  
G01 X-1.3595 Y0.3643  
G01 X-1.3595 Y0.3357  
G01 X-1.3393 Y0.3155  
G01 X-1.3107 Y0.3155  
G01 X-1.3007 Y0.3255  
G01 X-1.2243 Y0.3255  
G01 X-1.2143 Y0.3155  
G01 X-1.1857 Y0.3155  
G01 X-1.1656 Y0.3357  
G01 X-1.1187 Y0.3513  
G01 X-1.1179 Y0.3514  
G01 X-1.1164 Y0.3520  
G01 X-1.1150 Y0.3525  
G01 X-1.1142 Y0.3530  
G01 X-1.1134 Y0.3533  
G01 X-1.1121 Y0.3541  
G01 X-1.1108 Y0.3549  
G01 X-1.1101 Y0.3555  
G01 X-1.1094 Y0.3560  
G01 X-1.1083 Y0.3571  
G01 X-1.1071 Y0.3581  
G01 X-1.1066 Y0.3588  
G01 X-1.0999 Y0.3655  
G01 X-1.0857 Y0.3655  
G01 X-1.0655 Y0.3857  
G01 X-1.0655 Y0.4143  
G01 X-1.0857 Y0.4345  
G00 Z0.0500  
G00 X-1.0857 Y0.1345  
G01 Z-0.0035 F10    
G01 X-1.1143 Y0.1345  F20    
G01 X-1.1345 Y0.1143  
G01 X-1.1345 Y0.0857  
G01 X-1.1143 Y0.0655  
G01 X-1.0857 Y0.0655  
G01 X-1.0757 Y0.0755  
G01 X-1.0243 Y0.0755  
G01 X-1.0143 Y0.0655  
G01 X-0.9857 Y0.0655  
G01 X-0.9757 Y0.0755  
G01 X-0.8226 Y0.0755  
G01 X-0.8179 Y0.0764  
G01 X-0.8134 Y0.0783  
G01 X-0.8094 Y0.0810  
G01 X-0.8060 Y0.0844  
G01 X-0.7810 Y0.1094  
G01 X-0.7783 Y0.1134  
G01 X-0.7764 Y0.1179  
G01 X-0.7755 Y0.1226  
G01 X-0.7755 Y0.1757  
G01 X-0.7655 Y0.1857  
G01 X-0.7655 Y0.2143  
G01 X-0.7857 Y0.2345  
G01 X-0.8143 Y0.2345  
G01 X-0.8345 Y0.2143  
G01 X-0.8345 Y0.1857  
G01 X-0.8245 Y0.1757  
G01 X-0.8245 Y0.1351  
G01 X-0.8351 Y0.1245  
G01 X-0.9757 Y0.1245  
G01 X-0.9857 Y0.1345  
G01 X-1.0143 Y0.1345  
G01 X-1.0243 Y0.1245  
G01 X-1.0757 Y0.1245  
G01 X-1.0857 Y0.1345  
G00 Z0.0500  
G00 X-1.1655 Y0.1357  
G01 Z-0.0035 F10    
G01 X-1.1655 Y0.1643  F20    
G01 X-1.1857 Y0.1844  
G01 X-1.2013 Y0.2313  
G01 X-1.2014 Y0.2321  
G01 X-1.2020 Y0.2336  
G01 X-1.2025 Y0.2350  
G01 X-1.2030 Y0.2358  
G01 X-1.2033 Y0.2366  
G01 X-1.2041 Y0.2379  
G01 X-1.2049 Y0.2392  
G01 X-1.2055 Y0.2399  
G01 X-1.2060 Y0.2406  
G01 X-1.2071 Y0.2417  
G01 X-1.2081 Y0.2429  
G01 X-1.2088 Y0.2434  
G01 X-1.2094 Y0.2440  
G01 X-1.2107 Y0.2449  
G01 X-1.2119 Y0.2458  
G01 X-1.2127 Y0.2462  
G01 X-1.2134 Y0.2467  
G01 X-1.2148 Y0.2473  
G01 X-1.2162 Y0.2480  
G01 X-1.2170 Y0.2482  
G01 X-1.2179 Y0.2486  
G01 X-1.2194 Y0.2489  
G01 X-1.2209 Y0.2493  
G01 X-1.2217 Y0.2493  
G01 X-1.2226 Y0.2495  
G01 X-1.2241 Y0.2495  
G01 X-1.2257 Y0.2496  
G01 X-1.2265 Y0.2495  
G01 X-1.3991 Y0.2495  
G01 X-1.4007 Y0.2496  
G01 X-1.4015 Y0.2495  
G01 X-1.4024 Y0.2495  
G01 X-1.4039 Y0.2492  
G01 X-1.4055 Y0.2490  
G01 X-1.4063 Y0.2487  
G01 X-1.4071 Y0.2486  
G01 X-1.4086 Y0.2480  
G01 X-1.4490 Y0.2345  
G01 X-1.5044 Y0.2345  
G01 X-1.5111 Y0.2332  
G01 X-1.5173 Y0.2306  
G01 X-1.5230 Y0.2268  
G01 X-1.5278 Y0.2220  
G01 X-1.5316 Y0.2163  
G01 X-1.5320 Y0.2153  
G01 X-1.6045 Y0.2033  
G01 X-1.6107 Y0.2095  
G01 X-1.6393 Y0.2095  
G01 X-1.6595 Y0.1893  
G01 X-1.6595 Y0.1607  
G01 X-1.6393 Y0.1405  
G01 X-1.6107 Y0.1405  
G01 X-1.5963 Y0.1550  
G01 X-1.5151 Y0.1685  
G01 X-1.5111 Y0.1668  
G01 X-1.5044 Y0.1655  
G01 X-1.4456 Y0.1655  
G01 X-1.4389 Y0.1668  
G01 X-1.4327 Y0.1694  
G01 X-1.4270 Y0.1732  
G01 X-1.4222 Y0.1780  
G01 X-1.4184 Y0.1837  
G01 X-1.4158 Y0.1899  
G01 X-1.4150 Y0.1942  
G01 X-1.3960 Y0.2005  
G01 X-1.2427 Y0.2005  
G01 X-1.2316 Y0.1672  
G01 X-1.2345 Y0.1643  
G01 X-1.2345 Y0.1357  
G01 X-1.2143 Y0.1155  
G01 X-1.1857 Y0.1155  
G01 X-1.1655 Y0.1357  
G00 Z0.0500  
G00 X-1.2905 Y0.1357  
G01 Z-0.0035 F10    
G01 X-1.2905 Y0.1643  F20    
G01 X-1.3107 Y0.1845  
G01 X-1.3393 Y0.1845  
G01 X-1.3595 Y0.1643  
G01 X-1.3595 Y0.1601  
G01 X-1.4808 Y0.0995  
G01 X-2.0849 Y0.0995  
G01 X-2.1005 Y0.1308  
G01 X-2.1005 Y0.2983  
G01 X-2.1004 Y0.2989  
G01 X-2.1005 Y0.3007  
G01 X-2.1005 Y0.3024  
G01 X-2.1006 Y0.3031  
G01 X-2.1007 Y0.3037  
G01 X-2.1011 Y0.3054  
G01 X-2.1014 Y0.3071  
G01 X-2.1017 Y0.3078  
G01 X-2.1019 Y0.3084  
G01 X-2.1026 Y0.3100  
G01 X-2.1033 Y0.3116  
G01 X-2.1037 Y0.3122  
G01 X-2.1040 Y0.3128  
G01 X-2.1050 Y0.3142  
G01 X-2.1060 Y0.3156  
G01 X-2.1064 Y0.3161  
G01 X-2.1655 Y0.3948  
G01 X-2.1655 Y0.3999  
G01 X-2.1355 Y0.4299  
G01 X-2.1142 Y0.4405  
G01 X-2.0857 Y0.4405  
G01 X-2.0655 Y0.4607  
G01 X-2.0655 Y0.4893  
G01 X-2.0857 Y0.5095  
G01 X-2.1143 Y0.5095  
G01 X-2.1345 Y0.4893  
G01 X-2.1345 Y0.4851  
G01 X-2.1602 Y0.4723  
G01 X-2.1616 Y0.4717  
G01 X-2.1623 Y0.4712  
G01 X-2.1631 Y0.4708  
G01 X-2.1643 Y0.4699  
G01 X-2.1656 Y0.4690  
G01 X-2.1662 Y0.4684  
G01 X-2.1669 Y0.4679  
G01 X-2.1679 Y0.4667  
G01 X-2.1962 Y0.4385  
G01 X-2.2283 Y0.4866  
G01 X-2.2296 Y0.4886  
G01 X-2.2310 Y0.4906  
G01 X-2.2327 Y0.4923  
G01 X-2.2344 Y0.4940  
G01 X-2.2404 Y0.5000  
G01 X-2.2331 Y0.5072  
G01 X-2.2318 Y0.5084  
G01 X-2.2314 Y0.5089  
G01 X-2.2310 Y0.5094  
G01 X-2.2300 Y0.5108  
G01 X-2.1702 Y0.5905  
G01 X-2.1607 Y0.5905  
G01 X-2.1405 Y0.6107  
G01 X-2.1405 Y0.6393  
G01 X-2.1607 Y0.6595  
G01 X-2.1893 Y0.6595  
G01 X-2.2095 Y0.6393  
G01 X-2.2095 Y0.6198  
G01 X-2.2686 Y0.5411  
G01 X-2.2751 Y0.5345  
G01 X-2.2893 Y0.5345  
G01 X-2.3095 Y0.5143  
G01 X-2.3095 Y0.4857  
G01 X-2.2893 Y0.4655  
G01 X-2.2751 Y0.4655  
G01 X-2.2690 Y0.4594  
G01 X-2.2345 Y0.4076  
G01 X-2.2345 Y0.3857  
G01 X-2.2143 Y0.3655  
G01 X-2.2047 Y0.3655  
G01 X-2.1495 Y0.2918  
G01 X-2.1495 Y0.1265  
G01 X-2.1496 Y0.1257  
G01 X-2.1495 Y0.1241  
G01 X-2.1495 Y0.1226  
G01 X-2.1493 Y0.1217  
G01 X-2.1493 Y0.1209  
G01 X-2.1489 Y0.1194  
G01 X-2.1486 Y0.1179  
G01 X-2.1482 Y0.1170  
G01 X-2.1480 Y0.1162  
G01 X-2.1473 Y0.1148  
G01 X-2.1467 Y0.1134  
G01 X-2.1462 Y0.1127  
G01 X-2.1223 Y0.0648  
G01 X-2.1217 Y0.0634  
G01 X-2.1212 Y0.0627  
G01 X-2.1208 Y0.0619  
G01 X-2.1199 Y0.0607  
G01 X-2.1190 Y0.0594  
G01 X-2.1184 Y0.0588  
G01 X-2.1179 Y0.0581  
G01 X-2.1167 Y0.0571  
G01 X-2.1156 Y0.0560  
G01 X-2.1149 Y0.0555  
G01 X-2.1142 Y0.0549  
G01 X-2.1129 Y0.0541  
G01 X-2.1116 Y0.0533  
G01 X-2.1108 Y0.0530  
G01 X-2.1100 Y0.0525  
G01 X-2.1086 Y0.0520  
G01 X-2.1071 Y0.0514  
G01 X-2.1063 Y0.0513  
G01 X-2.1055 Y0.0510  
G01 X-2.1039 Y0.0508  
G01 X-2.1024 Y0.0505  
G01 X-2.1015 Y0.0505  
G01 X-2.1007 Y0.0504  
G01 X-2.0991 Y0.0505  
G01 X-1.4765 Y0.0505  
G01 X-1.4757 Y0.0504  
G01 X-1.4741 Y0.0505  
G01 X-1.4726 Y0.0505  
G01 X-1.4717 Y0.0507  
G01 X-1.4709 Y0.0507  
G01 X-1.4694 Y0.0511  
G01 X-1.4679 Y0.0514  
G01 X-1.4670 Y0.0518  
G01 X-1.4662 Y0.0520  
G01 X-1.4648 Y0.0527  
G01 X-1.4634 Y0.0533  
G01 X-1.4627 Y0.0538  
G01 X-1.3392 Y0.1155  
G01 X-1.3107 Y0.1155  
G01 X-1.2905 Y0.1357  
G00 Z0.0500  
G00 X-1.4222 Y0.2780  
G01 Z-0.0035 F10    
G01 X-1.4184 Y0.2837  F20    
G01 X-1.4158 Y0.2899  
G01 X-1.4145 Y0.2966  
G01 X-1.4145 Y0.3034  
G01 X-1.4158 Y0.3101  
G01 X-1.4184 Y0.3163  
G01 X-1.4222 Y0.3220  
G01 X-1.4270 Y0.3268  
G01 X-1.4327 Y0.3306  
G01 X-1.4389 Y0.3332  
G01 X-1.4456 Y0.3345  
G01 X-1.4505 Y0.3345  
G01 X-1.4505 Y0.3655  
G01 X-1.4456 Y0.3655  
G01 X-1.4389 Y0.3668  
G01 X-1.4327 Y0.3694  
G01 X-1.4270 Y0.3732  
