(/Applications/pcbgcode.repo/pcb-gcode.ulp)
(Copyright 2005 - 2012 by John Johnson)
(See readme.txt for licensing terms.)
(This file generated from the board:)
(.../eurorack/CR78-HB/eagle/CR78-HB.brd)
(Current profile is .../pcbgcode.repo/profiles/mach.pp  )
(This file generated 6/10/16 9:05 PM)
(Settings from pcb-machine.h)
(spindle on time = 0.0000)
(  Tool Size)
(0.0030  )
(spindle speed = 30000.0000)
(tool change at 0.0000  0.0000  1.5000  )
(feed rate xy = F20    )
(feed rate z  = F10    )
(Z Axis Settings)
(  High     Up        Down     Drill)
(0.2500  	0.0500  	-0.0035 	-0.0750 )
(Settings from pcb-defaults.h)
(isolate min = 0.0050)
(isolate max = 0.0200)
(isolate step = 0.0010)
(Generated bottom outlines, bottom drill, )
(Unit of measure: inch)
(Inch Mode)
G20
(Absolute Coordinates)
G90
S30000
G00 Z0.2500  
G00 X0.0000  Y0.0000  
M03
G04 P0.000000
G00 Z0.0500  
G00 X-0.2829 Y0.0851  
G01 Z-0.0035 F10    
G01 X-0.2825 Y0.0857  F20    
G01 X-0.2820 Y0.0862  
G01 X-0.2809 Y0.0881  
G01 X-0.2025 Y0.2057  
G01 X-0.2020 Y0.2062  
G01 X-0.2009 Y0.2081  
G01 X-0.1996 Y0.2100  
G01 X-0.1994 Y0.2107  
G01 X-0.1990 Y0.2113  
G01 X-0.1985 Y0.2135  
G01 X-0.1977 Y0.2156  
G01 X-0.1977 Y0.2163  
G01 X-0.1975 Y0.2170  
G01 X-0.1975 Y0.2193  
G01 X-0.1974 Y0.2215  
G01 X-0.1975 Y0.2222  
G01 X-0.1975 Y0.8798  
G01 X-0.1974 Y0.8825  
G01 X-0.1975 Y0.8827  
G01 X-0.1975 Y0.8830  
G01 X-0.1982 Y0.8856  
G01 X-0.1989 Y0.8883  
G01 X-0.1990 Y0.8885  
G01 X-0.1990 Y0.8887  
G01 X-0.2004 Y0.8911  
G01 X-0.2017 Y0.8935  
G01 X-0.2019 Y0.8936  
G01 X-0.2020 Y0.8938  
G01 X-0.2039 Y0.8958  
G01 X-0.4519 Y1.1536  
G01 X-0.4520 Y1.1538  
G01 X-0.4539 Y1.1558  
G01 X-0.4558 Y1.1577  
G01 X-0.4560 Y1.1578  
G01 X-0.4562 Y1.1580  
G01 X-0.4586 Y1.1594  
G01 X-0.4609 Y1.1608  
G01 X-0.4611 Y1.1609  
G01 X-0.4613 Y1.1610  
G01 X-0.4640 Y1.1617  
G01 X-0.4666 Y1.1624  
G01 X-0.4668 Y1.1624  
G01 X-0.4670 Y1.1625  
G01 X-0.4698 Y1.1625  
G01 X-0.4725 Y1.1626  
G01 X-0.4727 Y1.1625  
G01 X-2.8190 Y1.1625  
G01 X-2.8210 Y1.1627  
G01 X-2.8220 Y1.1625  
G01 X-2.8230 Y1.1625  
G01 X-2.8249 Y1.1620  
G01 X-2.8268 Y1.1616  
G01 X-2.8277 Y1.1612  
G01 X-2.8287 Y1.1610  
G01 X-2.8304 Y1.1600  
G01 X-2.8322 Y1.1591  
G01 X-2.8330 Y1.1585  
G01 X-2.8338 Y1.1580  
G01 X-2.8352 Y1.1566  
G01 X-2.8367 Y1.1553  
G01 X-2.8373 Y1.1545  
G01 X-2.8380 Y1.1538  
G01 X-2.8390 Y1.1521  
G01 X-2.9780 Y0.9535  
G01 X-3.1774 Y0.7042  
G01 X-3.1792 Y0.7021  
G01 X-3.1793 Y0.7019  
G01 X-3.1794 Y0.7017  
G01 X-3.1805 Y0.6992  
G01 X-3.2107 Y0.6336  
G01 X-3.2112 Y0.6339  
G01 X-3.2196 Y0.6366  
G01 X-3.2284 Y0.6380  
G01 X-3.2373 Y0.6380  
G01 X-3.2461 Y0.6366  
G01 X-3.2546 Y0.6339  
G01 X-3.2625 Y0.6298  
G01 X-3.2697 Y0.6246  
G01 X-3.2760 Y0.6183  
G01 X-3.2812 Y0.6111  
G01 X-3.2852 Y0.6032  
G01 X-3.2880 Y0.5947  
G01 X-3.2894 Y0.5859  
G01 X-3.2894 Y0.4770  
G01 X-3.2880 Y0.4683  
G01 X-3.2852 Y0.4598  
G01 X-3.2812 Y0.4519  
G01 X-3.2760 Y0.4447  
G01 X-3.2697 Y0.4384  
G01 X-3.2625 Y0.4332  
G01 X-3.2546 Y0.4291  
G01 X-3.2461 Y0.4264  
G01 X-3.2373 Y0.4250  
G01 X-3.2284 Y0.4250  
G01 X-3.2196 Y0.4264  
G01 X-3.2112 Y0.4291  
G01 X-3.2033 Y0.4332  
G01 X-3.1961 Y0.4384  
G01 X-3.1898 Y0.4447  
G01 X-3.1846 Y0.4519  
G01 X-3.1805 Y0.4598  
G01 X-3.1778 Y0.4683  
G01 X-3.1764 Y0.4770  
G01 X-3.1764 Y0.5859  
G01 X-3.1778 Y0.5947  
G01 X-3.1783 Y0.5963  
G01 X-3.1407 Y0.6781  
G01 X-2.9438 Y0.9242  
G01 X-2.9433 Y0.9247  
G01 X-2.9420 Y0.9265  
G01 X-2.9406 Y0.9283  
G01 X-2.9403 Y0.9289  
G01 X-2.8083 Y1.1175  
G01 X-0.4796 Y1.1175  
G01 X-0.2425 Y0.8709  
G01 X-0.2425 Y0.2268  
G01 X-0.3120 Y0.1225  
G01 X-0.5861 Y0.1225  
G01 X-0.6138 Y0.1779  
G01 X-0.6138 Y0.2332  
G01 X-0.6152 Y0.2402  
G01 X-0.6179 Y0.2468  
G01 X-0.6219 Y0.2528  
G01 X-0.6269 Y0.2578  
G01 X-0.6329 Y0.2618  
G01 X-0.6394 Y0.2645  
G01 X-0.6464 Y0.2659  
G01 X-0.6536 Y0.2659  
G01 X-0.6606 Y0.2645  
G01 X-0.6671 Y0.2618  
G01 X-0.6731 Y0.2578  
G01 X-0.6781 Y0.2528  
G01 X-0.6821 Y0.2468  
G01 X-0.6848 Y0.2402  
G01 X-0.6862 Y0.2332  
G01 X-0.6862 Y0.1668  
G01 X-0.6848 Y0.1598  
G01 X-0.6821 Y0.1532  
G01 X-0.6781 Y0.1472  
G01 X-0.6731 Y0.1422  
G01 X-0.6671 Y0.1382  
G01 X-0.6606 Y0.1355  
G01 X-0.6536 Y0.1341  
G01 X-0.6464 Y0.1341  
G01 X-0.6426 Y0.1349  
G01 X-0.6211 Y0.0920  
G01 X-0.6210 Y0.0913  
G01 X-0.6198 Y0.0893  
G01 X-0.6188 Y0.0873  
G01 X-0.6183 Y0.0868  
G01 X-0.6180 Y0.0862  
G01 X-0.6164 Y0.0846  
G01 X-0.6149 Y0.0829  
G01 X-0.6143 Y0.0825  
G01 X-0.6138 Y0.0820  
G01 X-0.6118 Y0.0809  
G01 X-0.6099 Y0.0796  
G01 X-0.6093 Y0.0794  
G01 X-0.6087 Y0.0790  
G01 X-0.6065 Y0.0784  
G01 X-0.6043 Y0.0777  
G01 X-0.6036 Y0.0777  
G01 X-0.6030 Y0.0775  
G01 X-0.6007 Y0.0775  
G01 X-0.5984 Y0.0774  
G01 X-0.5977 Y0.0775  
G01 X-0.3007 Y0.0775  
G01 X-0.2985 Y0.0774  
G01 X-0.2978 Y0.0775  
G01 X-0.2970 Y0.0775  
G01 X-0.2949 Y0.0781  
G01 X-0.2927 Y0.0785  
G01 X-0.2920 Y0.0788  
G01 X-0.2913 Y0.0790  
G01 X-0.2894 Y0.0802  
G01 X-0.2874 Y0.0811  
G01 X-0.2868 Y0.0816  
G01 X-0.2862 Y0.0820  
G01 X-0.2846 Y0.0836  
G01 X-0.2829 Y0.0851  
G00 Z0.0500  
G00 X-0.3219 Y0.1472  
G01 Z-0.0035 F10    
G01 X-0.3179 Y0.1532  F20    
G01 X-0.3152 Y0.1598  
G01 X-0.3138 Y0.1668  
G01 X-0.3138 Y0.2332  
G01 X-0.3152 Y0.2402  
G01 X-0.3179 Y0.2468  
G01 X-0.3219 Y0.2528  
G01 X-0.3269 Y0.2578  
G01 X-0.3275 Y0.2582  
G01 X-0.3275 Y0.3628  
G01 X-0.3274 Y0.3635  
G01 X-0.3275 Y0.3657  
G01 X-0.3275 Y0.3680  
G01 X-0.3277 Y0.3687  
G01 X-0.3277 Y0.3694  
G01 X-0.3285 Y0.3715  
G01 X-0.3290 Y0.3737  
G01 X-0.3294 Y0.3743  
G01 X-0.3296 Y0.3750  
G01 X-0.3309 Y0.3769  
G01 X-0.3320 Y0.3788  
G01 X-0.3325 Y0.3793  
G01 X-0.4075 Y0.4918  
G01 X-0.4075 Y0.5135  
G01 X-0.4265 Y0.5325  
G01 X-0.4535 Y0.5325  
G01 X-0.4725 Y0.5135  
G01 X-0.4725 Y0.4865  
G01 X-0.4535 Y0.4675  
G01 X-0.4454 Y0.4675  
G01 X-0.3725 Y0.3582  
G01 X-0.3725 Y0.2582  
G01 X-0.3731 Y0.2578  
G01 X-0.3781 Y0.2528  
G01 X-0.3821 Y0.2468  
G01 X-0.3848 Y0.2402  
G01 X-0.3862 Y0.2332  
G01 X-0.3862 Y0.1668  
G01 X-0.3848 Y0.1598  
G01 X-0.3821 Y0.1532  
G01 X-0.3781 Y0.1472  
G01 X-0.3731 Y0.1422  
G01 X-0.3671 Y0.1382  
G01 X-0.3606 Y0.1355  
G01 X-0.3536 Y0.1341  
G01 X-0.3464 Y0.1341  
G01 X-0.3394 Y0.1355  
G01 X-0.3329 Y0.1382  
G01 X-0.3269 Y0.1422  
G01 X-0.3219 Y0.1472  
G00 Z0.0500  
G00 X-0.4219 Y0.1472  
G01 Z-0.0035 F10    
G01 X-0.4179 Y0.1532  F20    
G01 X-0.4152 Y0.1598  
G01 X-0.4138 Y0.1668  
G01 X-0.4138 Y0.2332  
G01 X-0.4152 Y0.2402  
G01 X-0.4179 Y0.2468  
G01 X-0.4219 Y0.2528  
G01 X-0.4269 Y0.2578  
G01 X-0.4275 Y0.2582  
G01 X-0.4275 Y0.3580  
G01 X-0.4273 Y0.3589  
G01 X-0.4275 Y0.3609  
G01 X-0.4275 Y0.3630  
G01 X-0.4277 Y0.3639  
G01 X-0.4278 Y0.3648  
G01 X-0.4285 Y0.3667  
G01 X-0.4290 Y0.3687  
G01 X-0.4295 Y0.3695  
G01 X-0.4298 Y0.3704  
G01 X-0.4310 Y0.3720  
G01 X-0.4320 Y0.3738  
G01 X-0.4327 Y0.3745  
G01 X-0.5181 Y0.4979  
G01 X-0.5254 Y0.5775  
G01 X-0.4220 Y0.5775  
G01 X-0.4163 Y0.5790  
G01 X-0.4112 Y0.5820  
G01 X-0.4070 Y0.5862  
G01 X-0.2570 Y0.7362  
G01 X-0.2540 Y0.7413  
G01 X-0.2525 Y0.7470  
G01 X-0.2525 Y0.8496  
G01 X-0.2524 Y0.8522  
G01 X-0.2525 Y0.8526  
G01 X-0.2525 Y0.8530  
G01 X-0.2532 Y0.8555  
G01 X-0.2538 Y0.8580  
G01 X-0.2539 Y0.8583  
G01 X-0.2540 Y0.8587  
G01 X-0.2553 Y0.8609  
G01 X-0.2566 Y0.8632  
G01 X-0.2568 Y0.8635  
G01 X-0.2570 Y0.8638  
G01 X-0.2588 Y0.8657  
G01 X-0.4818 Y1.1035  
G01 X-0.4820 Y1.1038  
G01 X-0.4838 Y1.1057  
G01 X-0.4856 Y1.1075  
G01 X-0.4859 Y1.1077  
G01 X-0.4862 Y1.1080  
G01 X-0.4884 Y1.1093  
G01 X-0.4906 Y1.1107  
G01 X-0.4910 Y1.1108  
G01 X-0.4913 Y1.1110  
G01 X-0.4938 Y1.1116  
G01 X-0.4963 Y1.1124  
G01 X-0.4967 Y1.1124  
G01 X-0.4970 Y1.1125  
G01 X-0.4996 Y1.1125  
G01 X-0.5022 Y1.1126  
G01 X-0.5026 Y1.1125  
G01 X-2.2478 Y1.1125  
G01 X-2.2486 Y1.1127  
G01 X-2.2508 Y1.1125  
G01 X-2.2530 Y1.1125  
G01 X-2.2537 Y1.1123  
G01 X-2.3731 Y1.1041  
G01 X-2.3815 Y1.1125  
G01 X-2.4085 Y1.1125  
G01 X-2.4185 Y1.1025  
G01 X-2.4481 Y1.1025  
G01 X-2.4492 Y1.1027  
G01 X-2.4511 Y1.1025  
G01 X-2.4530 Y1.1025  
G01 X-2.4540 Y1.1022  
G01 X-2.4551 Y1.1021  
G01 X-2.4569 Y1.1015  
G01 X-2.4587 Y1.1010  
G01 X-2.4596 Y1.1004  
G01 X-2.4607 Y1.1000  
G01 X-2.4622 Y1.0989  
G01 X-2.4638 Y1.0980  
G01 X-2.4646 Y1.0972  
G01 X-2.4782 Y1.0875  
G01 X-2.4985 Y1.0875  
G01 X-2.5175 Y1.0685  
G01 X-2.5175 Y1.0415  
G01 X-2.4985 Y1.0225  
G01 X-2.4715 Y1.0225  
G01 X-2.4525 Y1.0415  
G01 X-2.4525 Y1.0506  
G01 X-2.4428 Y1.0575  
G01 X-2.4185 Y1.0575  
G01 X-2.4085 Y1.0475  
G01 X-2.3815 Y1.0475  
G01 X-2.3699 Y1.0592  
G01 X-2.2492 Y1.0675  
G01 X-0.5097 Y1.0675  
G01 X-0.2975 Y0.8411  
G01 X-0.2975 Y0.7593  
G01 X-0.4343 Y0.6225  
G01 X-0.5265 Y0.6225  
G01 X-0.5365 Y0.6325  
G01 X-0.5635 Y0.6325  
G01 X-0.5825 Y0.6135  
G01 X-0.5825 Y0.5865  
G01 X-0.5703 Y0.5743  
G01 X-0.5624 Y0.4881  
G01 X-0.5622 Y0.4852  
G01 X-0.5621 Y0.4850  
G01 X-0.5612 Y0.4823  
G01 X-0.5602 Y0.4796  
G01 X-0.5601 Y0.4795  
G01 X-0.5584 Y0.4771  
G01 X-0.4725 Y0.3530  
G01 X-0.4725 Y0.2582  
G01 X-0.4731 Y0.2578  
G01 X-0.4781 Y0.2528  
G01 X-0.4821 Y0.2468  
G01 X-0.4848 Y0.2402  
G01 X-0.4862 Y0.2332  
G01 X-0.4862 Y0.1668  
G01 X-0.4848 Y0.1598  
G01 X-0.4821 Y0.1532  
G01 X-0.4781 Y0.1472  
G01 X-0.4731 Y0.1422  
G01 X-0.4671 Y0.1382  
G01 X-0.4606 Y0.1355  
G01 X-0.4536 Y0.1341  
G01 X-0.4464 Y0.1341  
G01 X-0.4394 Y0.1355  
G01 X-0.4329 Y0.1382  
G01 X-0.4269 Y0.1422  
G01 X-0.4219 Y0.1472  
G00 Z0.0500  
G00 X-0.5219 Y0.1472  
G01 Z-0.0035 F10    
G01 X-0.5179 Y0.1532  F20    
G01 X-0.5152 Y0.1598  
G01 X-0.5138 Y0.1668  
G01 X-0.5138 Y0.2332  
G01 X-0.5152 Y0.2402  
G01 X-0.5179 Y0.2468  
G01 X-0.5219 Y0.2528  
G01 X-0.5269 Y0.2578  
G01 X-0.5329 Y0.2618  
G01 X-0.5394 Y0.2645  
G01 X-0.5424 Y0.2651  
G01 X-0.5725 Y0.3916  
G01 X-0.5675 Y0.3965  
G01 X-0.5675 Y0.4235  
G01 X-0.5865 Y0.4425  
G01 X-0.5880 Y0.4425  
G01 X-0.6484 Y0.6065  
G01 X-0.6715 Y0.7025  
G01 X-0.3720 Y0.7025  
G01 X-0.3663 Y0.7040  
G01 X-0.3612 Y0.7070  
G01 X-0.3570 Y0.7112  
G01 X-0.3070 Y0.7612  
G01 X-0.3040 Y0.7663  
G01 X-0.3025 Y0.7720  
G01 X-0.3025 Y0.8280  
G01 X-0.3040 Y0.8337  
G01 X-0.3070 Y0.8388  
G01 X-0.3112 Y0.8430  
G01 X-0.4612 Y0.9930  
G01 X-0.4663 Y0.9960  
G01 X-0.4720 Y0.9975  
G01 X-1.1984 Y0.9975  
G01 X-1.3479 Y1.0189  
G01 X-1.3615 Y1.0325  
G01 X-1.3885 Y1.0325  
G01 X-1.3985 Y1.0225  
G01 X-1.4227 Y1.0225  
G01 X-1.4234 Y1.0226  
G01 X-1.4257 Y1.0225  
G01 X-1.4280 Y1.0225  
G01 X-1.4286 Y1.0223  
G01 X-1.4293 Y1.0223  
G01 X-1.4315 Y1.0216  
G01 X-1.4337 Y1.0210  
G01 X-1.4343 Y1.0206  
G01 X-1.4349 Y1.0204  
G01 X-1.4368 Y1.0191  
G01 X-1.4388 Y1.0180  
G01 X-1.4393 Y1.0175  
G01 X-1.4399 Y1.0171  
G01 X-1.4414 Y1.0154  
G01 X-1.4430 Y1.0138  
G01 X-1.4433 Y1.0132  
G01 X-1.4438 Y1.0127  
G01 X-1.4448 Y1.0107  
G01 X-1.4460 Y1.0087  
G01 X-1.4461 Y1.0080  
G01 X-1.4839 Y0.9325  
G01 X-1.4885 Y0.9325  
G01 X-1.5075 Y0.9135  
G01 X-1.5075 Y0.8865  
G01 X-1.4885 Y0.8675  
G01 X-1.4875 Y0.8675  
G01 X-1.5812 Y0.7656  
G01 X-1.5830 Y0.7638  
G01 X-1.5832 Y0.7634  
G01 X-1.5836 Y0.7631  
G01 X-1.5847 Y0.7608  
G01 X-1.5860 Y0.7587  
G01 X-1.5861 Y0.7582  
G01 X-1.5863 Y0.7578  
G01 X-1.5869 Y0.7554  
G01 X-1.5875 Y0.7530  
G01 X-1.5875 Y0.7525  
G01 X-1.5876 Y0.7520  
G01 X-1.5875 Y0.7495  
G01 X-1.5875 Y0.4042  
G01 X-1.7154 Y0.0725  
G01 X-2.4407 Y0.0725  
G01 X-2.5182 Y0.1500  
G01 X-2.3657 Y0.3025  
G01 X-2.3257 Y0.3025  
G01 X-2.3234 Y0.3024  
G01 X-2.3227 Y0.3025  
G01 X-2.3220 Y0.3025  
G01 X-2.3198 Y0.3031  
G01 X-2.3176 Y0.3036  
G01 X-2.3170 Y0.3039  
G01 X-2.3163 Y0.3040  
G01 X-2.3143 Y0.3052  
G01 X-2.1389 Y0.3929  
G01 X-2.1385 Y0.3925  
G01 X-2.1115 Y0.3925  
G01 X-2.0925 Y0.4115  
G01 X-2.0925 Y0.4296  
G01 X-2.0088 Y0.5342  
G01 X-2.0083 Y0.5347  
G01 X-2.0070 Y0.5365  
G01 X-2.0056 Y0.5383  
G01 X-2.0053 Y0.5389  
G01 X-2.0049 Y0.5395  
G01 X-2.0041 Y0.5416  
G01 X-2.0032 Y0.5437  
G01 X-2.0031 Y0.5444  
G01 X-1.9635 Y0.6532  
G01 X-1.9058 Y0.5152  
G01 X-1.9075 Y0.5135  
G01 X-1.9075 Y0.4865  
G01 X-1.8885 Y0.4675  
G01 X-1.8615 Y0.4675  
G01 X-1.8425 Y0.4865  
G01 X-1.8425 Y0.5135  
G01 X-1.8615 Y0.5325  
G01 X-1.8642 Y0.5325  
G01 X-1.9342 Y0.6998  
G01 X-1.9325 Y0.7015  
G01 X-1.9325 Y0.7285  
G01 X-1.9515 Y0.7475  
G01 X-1.9785 Y0.7475  
G01 X-1.9975 Y0.7285  
G01 X-1.9975 Y0.7015  
G01 X-1.9948 Y0.6989  
G01 X-2.0449 Y0.5612  
G01 X-2.1278 Y0.4575  
G01 X-2.1385 Y0.4575  
G01 X-2.1575 Y0.4385  
G01 X-2.1575 Y0.4339  
G01 X-2.3303 Y0.3475  
G01 X-2.3780 Y0.3475  
G01 X-2.3837 Y0.3460  
G01 X-2.3888 Y0.3430  
G01 X-2.3930 Y0.3388  
G01 X-2.5638 Y0.1680  
G01 X-2.6093 Y0.1225  
G01 X-2.6765 Y0.1225  
G01 X-2.6865 Y0.1325  
G01 X-2.7135 Y0.1325  
G01 X-2.7236 Y0.1224  
G01 X-2.9265 Y0.1214  
G01 X-2.9298 Y0.1280  
G01 X-2.9351 Y0.1352  
G01 X-2.9413 Y0.1415  
G01 X-2.9485 Y0.1467  
G01 X-2.9565 Y0.1508  
G01 X-2.9649 Y0.1535  
G01 X-2.9737 Y0.1549  
G01 X-3.0826 Y0.1549  
G01 X-3.0914 Y0.1535  
G01 X-3.0998 Y0.1508  
G01 X-3.1078 Y0.1467  
G01 X-3.1150 Y0.1415  
G01 X-3.1212 Y0.1352  
G01 X-3.1265 Y0.1280  
G01 X-3.1305 Y0.1201  
G01 X-3.1333 Y0.1117  
G01 X-3.1346 Y0.1029  
G01 X-3.1346 Y0.0940  
G01 X-3.1333 Y0.0852  
G01 X-3.1305 Y0.0767  
G01 X-3.1265 Y0.0688  
G01 X-3.1212 Y0.0616  
G01 X-3.1150 Y0.0553  
G01 X-3.1078 Y0.0501  
G01 X-3.0998 Y0.0461  
G01 X-3.0914 Y0.0433  
G01 X-3.0826 Y0.0419  
G01 X-2.9737 Y0.0419  
G01 X-2.9649 Y0.0433  
G01 X-2.9565 Y0.0461  
G01 X-2.9485 Y0.0501  
G01 X-2.9413 Y0.0553  
G01 X-2.9351 Y0.0616  
G01 X-2.9298 Y0.0688  
G01 X-2.9260 Y0.0764  
G01 X-2.7233 Y0.0774  
G01 X-2.7135 Y0.0675  
G01 X-2.6865 Y0.0675  
G01 X-2.6765 Y0.0775  
G01 X-2.5970 Y0.0775  
G01 X-2.5913 Y0.0790  
G01 X-2.5862 Y0.0820  
G01 X-2.5500 Y0.1182  
G01 X-2.4680 Y0.0362  
G01 X-2.4638 Y0.0320  
G01 X-2.4587 Y0.0290  
G01 X-2.4530 Y0.0275  
G01 X-1.7012 Y0.0275  
G01 X-1.6994 Y0.0273  
G01 X-1.6982 Y0.0275  
G01 X-1.6970 Y0.0275  
G01 X-1.6953 Y0.0280  
G01 X-1.6936 Y0.0282  
G01 X-1.6925 Y0.0287  
G01 X-1.6913 Y0.0290  
G01 X-1.6898 Y0.0299  
G01 X-1.6882 Y0.0306  
G01 X-1.6872 Y0.0314  
G01 X-1.6862 Y0.0320  
G01 X-1.6849 Y0.0332  
G01 X-1.6836 Y0.0344  
G01 X-1.6829 Y0.0353  
G01 X-1.6820 Y0.0362  
G01 X-1.6811 Y0.0377  
G01 X-1.6801 Y0.0391  
G01 X-1.6796 Y0.0403  
G01 X-1.6790 Y0.0413  
G01 X-1.6786 Y0.0430  
G01 X-1.5446 Y0.3903  
G01 X-1.5440 Y0.3913  
G01 X-1.5436 Y0.3930  
G01 X-1.5429 Y0.3947  
G01 X-1.5428 Y0.3959  
G01 X-1.5425 Y0.3970  
G01 X-1.5425 Y0.3988  
G01 X-1.5423 Y0.4006  
G01 X-1.5425 Y0.4018  
G01 X-1.5425 Y0.7412  
G01 X-1.4562 Y0.8350  
G01 X-1.4165 Y0.7494  
G01 X-1.4175 Y0.7485  
G01 X-1.4175 Y0.7215  
G01 X-1.3985 Y0.7025  
G01 X-1.3715 Y0.7025  
G01 X-1.3525 Y0.7215  
G01 X-1.3525 Y0.7485  
G01 X-1.3715 Y0.7675  
G01 X-1.3753 Y0.7675  
G01 X-1.4288 Y0.8827  
G01 X-1.4290 Y0.8837  
G01 X-1.4293 Y0.8841  
G01 X-1.4294 Y0.8845  
G01 X-1.4302 Y0.8858  
G01 X-1.4308 Y0.8872  
G01 X-1.4315 Y0.8879  
G01 X-1.4320 Y0.8888  
G01 X-1.4323 Y0.8892  
G01 X-1.4326 Y0.8896  
G01 X-1.4337 Y0.8906  
G01 X-1.4346 Y0.8917  
G01 X-1.4355 Y0.8923  
G01 X-1.4425 Y0.8993  
G01 X-1.4425 Y0.9135  
G01 X-1.4429 Y0.9139  
G01 X-1.4111 Y0.9775  
G01 X-1.3985 Y0.9775  
G01 X-1.3885 Y0.9675  
G01 X-1.3615 Y0.9675  
G01 X-1.3547 Y0.9744  
G01 X-1.2045 Y0.9529  
G01 X-1.2030 Y0.9525  
G01 X-1.2016 Y0.9525  
G01 X-1.2002 Y0.9523  
G01 X-1.1986 Y0.9525  
G01 X-0.4843 Y0.9525  
G01 X-0.3475 Y0.8157  
G01 X-0.3475 Y0.7843  
G01 X-0.3843 Y0.7475  
G01 X-0.6675 Y0.7475  
G01 X-0.6675 Y0.7635  
G01 X-0.6865 Y0.7825  
G01 X-0.7135 Y0.7825  
G01 X-0.7325 Y0.7635  
G01 X-0.7325 Y0.7365  
G01 X-0.7225 Y0.7265  
G01 X-0.7225 Y0.7253  
G01 X-0.7226 Y0.7226  
G01 X-0.7225 Y0.7223  
G01 X-0.7225 Y0.7220  
G01 X-0.7218 Y0.7195  
G01 X-0.6923 Y0.5963  
G01 X-0.6921 Y0.5950  
G01 X-0.6916 Y0.5935  
G01 X-0.6912 Y0.5919  
G01 X-0.6906 Y0.5907  
G01 X-0.6299 Y0.4261  
G01 X-0.6325 Y0.4235  
G01 X-0.6325 Y0.3965  
G01 X-0.6160 Y0.3800  
G01 X-0.5835 Y0.2434  
G01 X-0.5848 Y0.2402  
G01 X-0.5862 Y0.2332  
G01 X-0.5862 Y0.1668  
G01 X-0.5848 Y0.1598  
G01 X-0.5821 Y0.1532  
G01 X-0.5781 Y0.1472  
G01 X-0.5731 Y0.1422  
G01 X-0.5671 Y0.1382  
G01 X-0.5606 Y0.1355  
G01 X-0.5536 Y0.1341  
G01 X-0.5464 Y0.1341  
G01 X-0.5394 Y0.1355  
G01 X-0.5329 Y0.1382  
G01 X-0.5269 Y0.1422  
G01 X-0.5219 Y0.1472  
G00 Z0.0500  
G00 X-0.8536 Y0.1461  
G01 Z-0.0035 F10    
G01 X-0.8536 Y0.1539  F20    
G01 X-0.8549 Y0.1616  
G01 X-0.8573 Y0.1690  
G01 X-0.8608 Y0.1759  
G01 X-0.8654 Y0.1822  
G01 X-0.8709 Y0.1878  
G01 X-0.8772 Y0.1923  
G01 X-0.8841 Y0.1959  
G01 X-0.8916 Y0.1983  
G01 X-0.8993 Y0.1995  
G01 X-0.9070 Y0.1995  
G01 X-0.9147 Y0.1983  
G01 X-0.9222 Y0.1959  
G01 X-0.9241 Y0.1949  
G01 X-1.0963 Y0.3030  
G01 X-1.0970 Y0.3036  
G01 X-1.0988 Y0.3045  
G01 X-1.1005 Y0.3056  
G01 X-1.1014 Y0.3059  
G01 X-1.2058 Y0.3603  
G01 X-1.2275 Y0.4429  
G01 X-1.2277 Y0.4436  
G01 X-1.2277 Y0.4443  
G01 X-1.2284 Y0.4464  
G01 X-1.2290 Y0.4486  
G01 X-1.2294 Y0.4493  
G01 X-1.2296 Y0.4499  
G01 X-1.2308 Y0.4518  
G01 X-1.2319 Y0.4537  
G01 X-1.2325 Y0.4543  
G01 X-1.2329 Y0.4549  
G01 X-1.2345 Y0.4564  
G01 X-1.2361 Y0.4579  
G01 X-1.2375 Y0.4593  
G01 X-1.2375 Y0.4635  
G01 X-1.2565 Y0.4825  
G01 X-1.2606 Y0.4825  
G01 X-1.2607 Y0.4826  
G01 X-1.2610 Y0.4828  
G01 X-1.2612 Y0.4830  
G01 X-1.2635 Y0.4843  
G01 X-1.4625 Y0.6065  
G01 X-1.4625 Y0.6135  
G01 X-1.4815 Y0.6325  
G01 X-1.5085 Y0.6325  
G01 X-1.5275 Y0.6135  
G01 X-1.5275 Y0.5865  
G01 X-1.5085 Y0.5675  
G01 X-1.4851 Y0.5675  
G01 X-1.3025 Y0.4555  
G01 X-1.3025 Y0.4365  
G01 X-1.2835 Y0.4175  
G01 X-1.2673 Y0.4175  
G01 X-1.2474 Y0.3416  
G01 X-1.2474 Y0.3411  
G01 X-1.2466 Y0.3388  
G01 X-1.2460 Y0.3364  
G01 X-1.2457 Y0.3359  
G01 X-1.2456 Y0.3354  
G01 X-1.2443 Y0.3334  
G01 X-1.2431 Y0.3313  
G01 X-1.2427 Y0.3309  
G01 X-1.2424 Y0.3304  
G01 X-1.2406 Y0.3288  
G01 X-1.2389 Y0.3271  
G01 X-1.2384 Y0.3268  
G01 X-1.2380 Y0.3264  
G01 X-1.2359 Y0.3253  
G01 X-1.2338 Y0.3241  
G01 X-1.2333 Y0.3239  
G01 X-1.1212 Y0.2655  
G01 X-0.9518 Y0.1591  
G01 X-0.9526 Y0.1539  
G01 X-0.9526 Y0.1461  
G01 X-0.9514 Y0.1384  
G01 X-0.9490 Y0.1310  
G01 X-0.9455 Y0.1241  
G01 X-0.9409 Y0.1178  
G01 X-0.9354 Y0.1122  
G01 X-0.9291 Y0.1077  
G01 X-0.9222 Y0.1041  
G01 X-0.9147 Y0.1017  
G01 X-0.9070 Y0.1005  
G01 X-0.8993 Y0.1005  
G01 X-0.8916 Y0.1017  
G01 X-0.8841 Y0.1041  
G01 X-0.8772 Y0.1077  
G01 X-0.8709 Y0.1122  
G01 X-0.8654 Y0.1178  
G01 X-0.8608 Y0.1241  
G01 X-0.8573 Y0.1310  
G01 X-0.8549 Y0.1384  
G01 X-0.8536 Y0.1461  
G00 Z0.0500  
G00 X-1.0505 Y0.1461  
G01 Z-0.0035 F10    
G01 X-1.0505 Y0.1539  F20    
G01 X-1.0517 Y0.1616  
G01 X-1.0541 Y0.1690  
G01 X-1.0577 Y0.1759  
G01 X-1.0622 Y0.1822  
G01 X-1.0678 Y0.1878  
G01 X-1.0741 Y0.1923  
G01 X-1.0810 Y0.1959  
G01 X-1.0884 Y0.1983  
G01 X-1.0961 Y0.1995  
G01 X-1.1039 Y0.1995  
G01 X-1.1116 Y0.1983  
G01 X-1.1190 Y0.1959  
G01 X-1.1259 Y0.1923  
G01 X-1.1322 Y0.1878  
G01 X-1.1378 Y0.1822  
G01 X-1.1423 Y0.1759  
G01 X-1.1441 Y0.1725  
G01 X-1.2528 Y0.1725  
G01 X-1.2545 Y0.1759  
G01 X-1.2591 Y0.1822  
G01 X-1.2646 Y0.1878  
G01 X-1.2709 Y0.1923  
G01 X-1.2778 Y0.1959  
G01 X-1.2853 Y0.1983  
G01 X-1.2928 Y0.1995  
G01 X-1.3284 Y0.3064  
G01 X-1.3571 Y0.4170  
G01 X-1.3525 Y0.4215  
G01 X-1.3525 Y0.4485  
G01 X-1.3715 Y0.4675  
G01 X-1.3985 Y0.4675  
G01 X-1.4175 Y0.4485  
G01 X-1.4175 Y0.4215  
G01 X-1.4003 Y0.4043  
G01 X-1.3723 Y0.2965  
G01 X-1.3723 Y0.2957  
G01 X-1.3716 Y0.2936  
G01 X-1.3710 Y0.2915  
G01 X-1.3707 Y0.2908  
G01 X-1.3345 Y0.1824  
G01 X-1.3346 Y0.1822  
G01 X-1.3392 Y0.1759  
G01 X-1.3427 Y0.1690  
G01 X-1.3451 Y0.1616  
G01 X-1.3464 Y0.1539  
G01 X-1.3464 Y0.1461  
G01 X-1.3451 Y0.1384  
G01 X-1.3427 Y0.1310  
G01 X-1.3392 Y0.1241  
G01 X-1.3346 Y0.1178  
G01 X-1.3291 Y0.1122  
G01 X-1.3228 Y0.1077  
G01 X-1.3159 Y0.1041  
G01 X-1.3084 Y0.1017  
G01 X-1.3007 Y0.1005  
G01 X-1.2930 Y0.1005  
G01 X-1.2853 Y0.1017  
G01 X-1.2778 Y0.1041  
G01 X-1.2709 Y0.1077  
G01 X-1.2646 Y0.1122  
G01 X-1.2591 Y0.1178  
G01 X-1.2545 Y0.1241  
G01 X-1.2528 Y0.1275  
G01 X-1.1441 Y0.1275  
G01 X-1.1423 Y0.1241  
G01 X-1.1378 Y0.1178  
G01 X-1.1322 Y0.1122  
G01 X-1.1259 Y0.1077  
G01 X-1.1190 Y0.1041  
G01 X-1.1116 Y0.1017  
G01 X-1.1039 Y0.1005  
G01 X-1.0961 Y0.1005  
G01 X-1.0884 Y0.1017  
G01 X-1.0810 Y0.1041  
G01 X-1.0741 Y0.1077  
G01 X-1.0678 Y0.1122  
G01 X-1.0622 Y0.1178  
G01 X-1.0577 Y0.1241  
G01 X-1.0541 Y0.1310  
G01 X-1.0517 Y0.1384  
G01 X-1.0505 Y0.1461  
G00 Z0.0500  
G00 X-1.0635 Y0.3775  
G01 Z-0.0035 F10    
G01 X-1.0365 Y0.3775  F20    
G01 X-1.0281 Y0.3860  
G01 X-0.9144 Y0.3784  
G01 X-0.9135 Y0.3775  
G01 X-0.9007 Y0.3775  
G01 X-0.8985 Y0.3774  
G01 X-0.8978 Y0.3775  
G01 X-0.8865 Y0.3775  
G01 X-0.8675 Y0.3965  
G01 X-0.8675 Y0.4235  
G01 X-0.8865 Y0.4425  
G01 X-0.9135 Y0.4425  
G01 X-0.9313 Y0.4246  
G01 X-1.0249 Y0.4309  
G01 X-1.0365 Y0.4425  
G01 X-1.0635 Y0.4425  
G01 X-1.0735 Y0.4325  
G01 X-1.1265 Y0.4325  
G01 X-1.1365 Y0.4425  
G01 X-1.1635 Y0.4425  
G01 X-1.1825 Y0.4235  
G01 X-1.1825 Y0.3965  
G01 X-1.1635 Y0.3775  
G01 X-1.1365 Y0.3775  
G01 X-1.1265 Y0.3875  
G01 X-1.0735 Y0.3875  
G01 X-1.0635 Y0.3775  
G00 Z0.0500  
G00 X-0.9783 Y0.4668  
G01 Z-0.0035 F10    
G01 X-0.9728 Y0.4628  F20    
G01 X-0.9667 Y0.4597  
G01 X-0.9602 Y0.4576  
G01 X-0.9534 Y0.4565  
G01 X-0.9466 Y0.4565  
G01 X-0.9398 Y0.4576  
G01 X-0.9333 Y0.4597  
G01 X-0.9272 Y0.4628  
G01 X-0.9217 Y0.4668  
G01 X-0.9168 Y0.4717  
G01 X-0.9128 Y0.4772  
G01 X-0.9097 Y0.4833  
G01 X-0.9076 Y0.4898  
G01 X-0.9065 Y0.4966  
G01 X-0.9065 Y0.5034  
G01 X-0.9076 Y0.5102  
G01 X-0.9097 Y0.5167  
G01 X-0.9128 Y0.5228  
G01 X-0.9168 Y0.5283  
G01 X-0.9217 Y0.5332  
G01 X-0.9272 Y0.5372  
G01 X-0.9333 Y0.5403  
G01 X-0.9398 Y0.5424  
G01 X-0.9466 Y0.5435  
G01 X-0.9504 Y0.5435  
G01 X-1.0090 Y0.6388  
G01 X-1.0223 Y0.6918  
G01 X-1.0175 Y0.6965  
G01 X-1.0175 Y0.7235  
G01 X-1.0365 Y0.7425  
G01 X-1.0635 Y0.7425  
G01 X-1.0825 Y0.7235  
G01 X-1.0825 Y0.6965  
G01 X-1.0656 Y0.6796  
G01 X-1.0524 Y0.6269  
G01 X-1.0524 Y0.6264  
G01 X-1.0517 Y0.6241  
G01 X-1.0511 Y0.6217  
G01 X-1.0509 Y0.6212  
G01 X-1.0507 Y0.6207  
G01 X-1.0494 Y0.6186  
G01 X-1.0482 Y0.6165  
G01 X-1.0479 Y0.6161  
G01 X-0.9887 Y0.5199  
G01 X-0.9903 Y0.5167  
G01 X-0.9924 Y0.5102  
G01 X-0.9935 Y0.5034  
G01 X-0.9935 Y0.4966  
G01 X-0.9924 Y0.4898  
G01 X-0.9903 Y0.4833  
G01 X-0.9872 Y0.4772  
G01 X-0.9832 Y0.4717  
G01 X-0.9783 Y0.4668  
G00 Z0.0500  
G00 X-0.8635 Y0.5675  
G01 Z-0.0035 F10    
G01 X-0.8365 Y0.5675  F20    
G01 X-0.8175 Y0.5865  
G01 X-0.8175 Y0.6135  
G01 X-0.8232 Y0.6192  
G01 X-0.7816 Y0.8275  
G01 X-0.7235 Y0.8275  
G01 X-0.7135 Y0.8175  
G01 X-0.6865 Y0.8175  
G01 X-0.6675 Y0.8365  
G01 X-0.6675 Y0.8635  
G01 X-0.6865 Y0.8825  
G01 X-0.7135 Y0.8825  
G01 X-0.7235 Y0.8725  
G01 X-0.7907 Y0.8725  
G01 X-0.8175 Y0.8993  
G01 X-0.8175 Y0.9135  
G01 X-0.8365 Y0.9325  
G01 X-0.8635 Y0.9325  
G01 X-0.8825 Y0.9135  
G01 X-0.8825 Y0.8865  
G01 X-0.8635 Y0.8675  
G01 X-0.8493 Y0.8675  
G01 X-0.8244 Y0.8426  
G01 X-0.8672 Y0.6288  
G01 X-0.8825 Y0.6135  
G01 X-0.8825 Y0.5865  
G01 X-0.8635 Y0.5675  
G00 Z0.0500  
G00 X-0.9168 Y0.7717  
G01 Z-0.0035 F10    
G01 X-0.9128 Y0.7772  F20    
G01 X-0.9097 Y0.7833  
G01 X-0.9076 Y0.7898  
G01 X-0.9065 Y0.7966  
G01 X-0.9065 Y0.8034  
G01 X-0.9076 Y0.8102  
G01 X-0.9097 Y0.8167  
G01 X-0.9128 Y0.8228  
G01 X-0.9168 Y0.8283  
G01 X-0.9217 Y0.8332  
G01 X-0.9272 Y0.8372  
G01 X-0.9333 Y0.8403  
G01 X-0.9398 Y0.8424  
G01 X-0.9466 Y0.8435  
G01 X-0.9534 Y0.8435  
G01 X-0.9602 Y0.8424  
G01 X-0.9605 Y0.8423  
G01 X-1.0175 Y0.8993  
G01 X-1.0175 Y0.9135  
G01 X-1.0365 Y0.9325  
G01 X-1.0635 Y0.9325  
G01 X-1.0735 Y0.9225  
G01 X-1.1515 Y0.9225  
G01 X-1.1615 Y0.9325  
G01 X-1.1885 Y0.9325  
G01 X-1.2075 Y0.9135  
G01 X-1.2075 Y0.8865  
G01 X-1.1885 Y0.8675  
G01 X-1.1615 Y0.8675  
G01 X-1.1515 Y0.8775  
G01 X-1.0735 Y0.8775  
G01 X-1.0635 Y0.8675  
G01 X-1.0493 Y0.8675  
G01 X-0.9923 Y0.8105  
G01 X-0.9924 Y0.8102  
G01 X-0.9935 Y0.8034  
G01 X-0.9935 Y0.7966  
G01 X-0.9924 Y0.7898  
G01 X-0.9903 Y0.7833  
G01 X-0.9872 Y0.7772  
G01 X-0.9832 Y0.7717  
G01 X-0.9783 Y0.7668  
G01 X-0.9728 Y0.7628  
G01 X-0.9667 Y0.7597  
G01 X-0.9602 Y0.7576  
G01 X-0.9534 Y0.7565  
G01 X-0.9466 Y0.7565  
G01 X-0.9398 Y0.7576  
G01 X-0.9333 Y0.7597  
G01 X-0.9272 Y0.7628  
G01 X-0.9217 Y0.7668  
G01 X-0.9168 Y0.7717  
G00 Z0.0500  
G00 X-1.1365 Y0.7425  
G01 Z-0.0035 F10    
G01 X-1.1635 Y0.7425  F20    
G01 X-1.1825 Y0.7235  
G01 X-1.1825 Y0.7189  
G01 X-1.2561 Y0.6821  
G01 X-1.2565 Y0.6825  
G01 X-1.2835 Y0.6825  
G01 X-1.2935 Y0.6725  
G01 X-1.3925 Y0.6725  
G01 X-1.4675 Y0.7287  
G01 X-1.4675 Y0.7385  
G01 X-1.4865 Y0.7575  
G01 X-1.5135 Y0.7575  
G01 X-1.5325 Y0.7385  
G01 X-1.5325 Y0.7115  
G01 X-1.5135 Y0.6925  
G01 X-1.4942 Y0.6925  
G01 X-1.4148 Y0.6330  
G01 X-1.4138 Y0.6320  
G01 X-1.4124 Y0.6312  
G01 X-1.4111 Y0.6302  
G01 X-1.4099 Y0.6297  
G01 X-1.4087 Y0.6290  
G01 X-1.4071 Y0.6286  
G01 X-1.4056 Y0.6280  
G01 X-1.4043 Y0.6279  
G01 X-1.4030 Y0.6275  
G01 X-1.4014 Y0.6275  
G01 X-1.3998 Y0.6273  
G01 X-1.3984 Y0.6275  
G01 X-1.2935 Y0.6275  
G01 X-1.2835 Y0.6175  
G01 X-1.2565 Y0.6175  
G01 X-1.2375 Y0.6365  
G01 X-1.2375 Y0.6411  
G01 X-1.1639 Y0.6779  
G01 X-1.1635 Y0.6775  
G01 X-1.1365 Y0.6775  
G01 X-1.1175 Y0.6965  
G01 X-1.1175 Y0.7235  
G01 X-1.1365 Y0.7425  
G00 Z0.0500  
G00 X-0.6385 Y0.7675  
G01 Z-0.0035 F10    
G01 X-0.6115 Y0.7675  F20    
G01 X-0.6015 Y0.7775  
G01 X-0.4635 Y0.7775  
G01 X-0.4535 Y0.7675  
G01 X-0.4265 Y0.7675  
G01 X-0.4075 Y0.7865  
G01 X-0.4075 Y0.8135  
G01 X-0.4265 Y0.8325  
G01 X-0.4535 Y0.8325  
G01 X-0.4635 Y0.8225  
G01 X-0.6015 Y0.8225  
G01 X-0.6115 Y0.8325  
G01 X-0.6385 Y0.8325  
G01 X-0.6575 Y0.8135  
G01 X-0.6575 Y0.7865  
G01 X-0.6385 Y0.7675  
G00 Z0.0500  
G00 X-1.5925 Y0.8615  
G01 Z-0.0035 F10    
G01 X-1.5925 Y0.8885  F20    
G01 X-1.6115 Y0.9075  
G01 X-1.6385 Y0.9075  
G01 X-1.6575 Y0.8885  
G01 X-1.6575 Y0.8615  
G01 X-1.6475 Y0.8515  
G01 X-1.6475 Y0.6885  
G01 X-1.6965 Y0.6325  
G01 X-1.7085 Y0.6325  
G01 X-1.7275 Y0.6135  
G01 X-1.7275 Y0.5865  
G01 X-1.7122 Y0.5712  
G01 X-1.7018 Y0.5192  
G01 X-1.7075 Y0.5135  
G01 X-1.7075 Y0.4865  
G01 X-1.6885 Y0.4675  
G01 X-1.6615 Y0.4675  
G01 X-1.6425 Y0.4865  
G01 X-1.6425 Y0.5135  
G01 X-1.6578 Y0.5288  
G01 X-1.6682 Y0.5808  
G01 X-1.6625 Y0.5865  
G01 X-1.6625 Y0.6030  
G01 X-1.6086 Y0.6646  
G01 X-1.6070 Y0.6662  
G01 X-1.6066 Y0.6668  
G01 X-1.6061 Y0.6674  
G01 X-1.6051 Y0.6694  
G01 X-1.6040 Y0.6713  
G01 X-1.6038 Y0.6720  
G01 X-1.6035 Y0.6727  
G01 X-1.6031 Y0.6749  
G01 X-1.6025 Y0.6770  
G01 X-1.6025 Y0.6778  
G01 X-1.6024 Y0.6785  
G01 X-1.6025 Y0.6807  
G01 X-1.6025 Y0.8515  
G01 X-1.5925 Y0.8615  
G00 Z0.0500  
G00 X-1.6775 Y0.8733  
G01 Z-0.0035 F10    
G01 X-1.6773 Y0.8745  F20    
G01 X-1.6775 Y0.8762  
G01 X-1.6775 Y0.8780  
G01 X-1.6778 Y0.8792  
G01 X-1.6780 Y0.8804  
G01 X-1.6786 Y0.8820  
G01 X-1.6790 Y0.8837  
G01 X-1.6797 Y0.8848  
G01 X-1.6801 Y0.8859  
G01 X-1.6811 Y0.8873  
G01 X-1.6820 Y0.8888  
G01 X-1.6829 Y0.8897  
G01 X-1.6836 Y0.8907  
G01 X-1.6850 Y0.8918  
G01 X-1.6862 Y0.8930  
G01 X-1.6873 Y0.8936  
G01 X-1.8100 Y0.9918  
G01 X-1.8112 Y0.9930  
G01 X-1.8123 Y0.9936  
G01 X-1.8133 Y0.9944  
G01 X-1.8148 Y0.9951  
G01 X-1.8163 Y0.9960  
G01 X-1.8175 Y0.9963  
G01 X-1.8187 Y0.9968  
G01 X-1.8204 Y0.9971  
G01 X-1.8220 Y0.9975  
G01 X-1.8233 Y0.9975  
G01 X-1.8245 Y0.9977  
G01 X-1.8262 Y0.9975  
G01 X-2.1222 Y0.9975  
G01 X-2.1224 Y0.9975  
G01 X-2.1252 Y0.9975  
G01 X-2.1280 Y0.9975  
G01 X-2.1281 Y0.9975  
G01 X-2.1283 Y0.9974  
G01 X-2.1310 Y0.9967  
G01 X-2.1337 Y0.9960  
G01 X-2.1339 Y0.9959  
G01 X-2.1340 Y0.9958  
G01 X-2.1364 Y0.9944  
G01 X-2.1388 Y0.9930  
G01 X-2.1390 Y0.9929  
G01 X-2.2396 Y0.9325  
G01 X-2.2635 Y0.9325  
G01 X-2.2825 Y0.9135  
G01 X-2.2825 Y0.8865  
G01 X-2.2777 Y0.8818  
G01 X-2.2901 Y0.8325  
G01 X-2.3135 Y0.8325  
G01 X-2.3234 Y0.8225  
G01 X-2.3252 Y0.8225  
G01 X-2.3280 Y0.8225  
G01 X-2.3281 Y0.8225  
G01 X-2.3283 Y0.8224  
G01 X-2.3310 Y0.8217  
G01 X-2.3337 Y0.8210  
G01 X-2.3338 Y0.8209  
G01 X-2.3775 Y0.8084  
G01 X-2.3815 Y0.8125  
G01 X-2.4085 Y0.8125  
G01 X-2.4275 Y0.7935  
G01 X-2.4275 Y0.7665  
G01 X-2.4085 Y0.7475  
G01 X-2.3815 Y0.7475  
G01 X-2.3634 Y0.7656  
G01 X-2.3231 Y0.7771  
G01 X-2.3135 Y0.7675  
G01 X-2.2865 Y0.7675  
G01 X-2.2815 Y0.7725  
G01 X-2.2125 Y0.6890  
G01 X-2.2125 Y0.6715  
G01 X-2.1935 Y0.6525  
G01 X-2.1665 Y0.6525  
G01 X-2.1475 Y0.6715  
G01 X-2.1475 Y0.6985  
G01 X-2.1665 Y0.7175  
G01 X-2.1777 Y0.7175  
G01 X-2.2504 Y0.8056  
G01 X-2.2344 Y0.8696  
G01 X-2.2175 Y0.8865  
G01 X-2.2175 Y0.8933  
G01 X-2.1188 Y0.9525  
G01 X-1.8329 Y0.9525  
G01 X-1.7225 Y0.8642  
G01 X-1.7225 Y0.7485  
G01 X-1.7325 Y0.7385  
G01 X-1.7325 Y0.7115  
G01 X-1.7135 Y0.6925  
G01 X-1.6865 Y0.6925  
G01 X-1.6675 Y0.7115  
G01 X-1.6675 Y0.7385  
G01 X-1.6775 Y0.7485  
G01 X-1.6775 Y0.8733  
G00 Z0.0500  
G00 X-1.6885 Y0.9675  
G01 Z-0.0035 F10    
G01 X-1.6615 Y0.9675  F20    
G01 X-1.6425 Y0.9865  
G01 X-1.6425 Y1.0135  
G01 X-1.6615 Y1.0325  
G01 X-1.6885 Y1.0325  
G01 X-1.6962 Y1.0248  
G01 X-1.7355 Y1.0523  
G01 X-1.7362 Y1.0530  
G01 X-1.7379 Y1.0540  
G01 X-1.7395 Y1.0551  
G01 X-1.7405 Y1.0555  
G01 X-1.7413 Y1.0560  
G01 X-1.7432 Y1.0565  
G01 X-1.7451 Y1.0572  
G01 X-1.7461 Y1.0572  
G01 X-1.7470 Y1.0575  
G01 X-1.7490 Y1.0575  
G01 X-1.7510 Y1.0577  
G01 X-1.7520 Y1.0575  
G01 X-2.1478 Y1.0575  
G01 X-2.1485 Y1.0576  
G01 X-2.1507 Y1.0575  
G01 X-2.1530 Y1.0575  
G01 X-2.1537 Y1.0573  
G01 X-2.1544 Y1.0573  
G01 X-2.1565 Y1.0565  
G01 X-2.1587 Y1.0560  
G01 X-2.1593 Y1.0556  
G01 X-2.4037 Y0.9725  
G01 X-2.4615 Y0.9725  
G01 X-2.4715 Y0.9825  
G01 X-2.4985 Y0.9825  
G01 X-2.5175 Y0.9635  
G01 X-2.5175 Y0.9396  
G01 X-2.5179 Y0.9390  
G01 X-2.5180 Y0.9388  
G01 X-2.5194 Y0.9364  
G01 X-2.5208 Y0.9340  
G01 X-2.5209 Y0.9339  
G01 X-2.5210 Y0.9337  
G01 X-2.5217 Y0.9310  
G01 X-2.5224 Y0.9283  
G01 X-2.5225 Y0.9281  
G01 X-2.5225 Y0.9280  
G01 X-2.5225 Y0.9252  
G01 X-2.5225 Y0.9224  
G01 X-2.5225 Y0.9222  
G01 X-2.5225 Y0.8485  
G01 X-2.5325 Y0.8385  
G01 X-2.5325 Y0.8171  
G01 X-2.5781 Y0.7325  
G01 X-2.5835 Y0.7325  
G01 X-2.6025 Y0.7135  
G01 X-2.6025 Y0.6961  
G01 X-2.6722 Y0.6125  
G01 X-2.6835 Y0.6125  
G01 X-2.7025 Y0.5935  
G01 X-2.7025 Y0.5665  
G01 X-2.6835 Y0.5475  
G01 X-2.6565 Y0.5475  
G01 X-2.6375 Y0.5665  
G01 X-2.6375 Y0.5839  
G01 X-2.5678 Y0.6675  
G01 X-2.5565 Y0.6675  
G01 X-2.5375 Y0.6865  
G01 X-2.5375 Y0.7129  
G01 X-2.4946 Y0.7925  
G01 X-2.4865 Y0.7925  
G01 X-2.4675 Y0.8115  
G01 X-2.4675 Y0.8385  
G01 X-2.4775 Y0.8485  
G01 X-2.4775 Y0.9175  
G01 X-2.4715 Y0.9175  
G01 X-2.4615 Y0.9275  
G01 X-2.4022 Y0.9275  
G01 X-2.4015 Y0.9274  
G01 X-2.3993 Y0.9275  
G01 X-2.3970 Y0.9275  
G01 X-2.3963 Y0.9277  
G01 X-2.3956 Y0.9277  
G01 X-2.3935 Y0.9285  
G01 X-2.3913 Y0.9290  
G01 X-2.3907 Y0.9294  
G01 X-2.1463 Y1.0125  
G01 X-1.7571 Y1.0125  
G01 X-1.7145 Y0.9827  
G01 X-1.7138 Y0.9820  
G01 X-1.7121 Y0.9810  
G01 X-1.7105 Y0.9799  
G01 X-1.7095 Y0.9795  
G01 X-1.7087 Y0.9790  
G01 X-1.7068 Y0.9785  
G01 X-1.7049 Y0.9778  
G01 X-1.7039 Y0.9778  
G01 X-1.7030 Y0.9775  
G01 X-1.7010 Y0.9775  
G01 X-1.6990 Y0.9773  
G01 X-1.6984 Y0.9774  
G01 X-1.6885 Y0.9675  
G00 Z0.0500  
G00 X-1.8115 Y0.9075  
G01 Z-0.0035 F10    
G01 X-1.8385 Y0.9075  F20    
G01 X-1.8485 Y0.8975  
G01 X-1.9157 Y0.8975  
G01 X-1.9175 Y0.8993  
G01 X-1.9175 Y0.9135  
G01 X-1.9365 Y0.9325  
G01 X-1.9635 Y0.9325  
G01 X-1.9825 Y0.9135  
G01 X-1.9825 Y0.9129  
G01 X-2.1058 Y0.8718  
G01 X-2.1074 Y0.8714  
G01 X-2.1086 Y0.8708  
G01 X-2.1099 Y0.8704  
G01 X-2.1113 Y0.8695  
G01 X-2.1127 Y0.8688  
G01 X-2.1137 Y0.8679  
G01 X-2.1149 Y0.8671  
G01 X-2.1159 Y0.8659  
G01 X-2.1171 Y0.8649  
G01 X-2.1179 Y0.8637  
G01 X-2.1188 Y0.8627  
G01 X-2.1195 Y0.8613  
G01 X-2.1204 Y0.8599  
G01 X-2.1208 Y0.8586  
G01 X-2.1214 Y0.8574  
G01 X-2.1218 Y0.8558  
G01 X-2.1429 Y0.7925  
G01 X-2.1435 Y0.7925  
G01 X-2.1625 Y0.7735  
G01 X-2.1625 Y0.7465  
G01 X-2.1435 Y0.7275  
G01 X-2.1165 Y0.7275  
G01 X-2.0975 Y0.7465  
G01 X-2.0975 Y0.7735  
G01 X-2.1007 Y0.7767  
G01 X-2.0822 Y0.8322  
G01 X-1.9667 Y0.8707  
G01 X-1.9635 Y0.8675  
G01 X-1.9493 Y0.8675  
G01 X-1.9430 Y0.8612  
G01 X-1.9388 Y0.8570  
G01 X-1.9337 Y0.8540  
G01 X-1.9280 Y0.8525  
G01 X-1.8485 Y0.8525  
G01 X-1.8385 Y0.8425  
G01 X-1.8115 Y0.8425  
G01 X-1.7925 Y0.8615  
G01 X-1.7925 Y0.8885  
G01 X-1.8115 Y0.9075  
G00 Z0.0500  
G00 X-1.8835 Y0.8156  
G01 Z-0.0035 F10    
G01 X-1.8849 Y0.8167  F20    
G01 X-1.8862 Y0.8180  
G01 X-1.8872 Y0.8186  
G01 X-1.8882 Y0.8194  
G01 X-1.8898 Y0.8201  
G01 X-1.8913 Y0.8210  
G01 X-1.8925 Y0.8213  
G01 X-1.8936 Y0.8218  
G01 X-1.8953 Y0.8220  
G01 X-1.8970 Y0.8225  
G01 X-1.8982 Y0.8225  
G01 X-1.8994 Y0.8227  
G01 X-1.9012 Y0.8225  
G01 X-2.0229 Y0.8225  
G01 X-2.0238 Y0.8227  
G01 X-2.0259 Y0.8225  
G01 X-2.0280 Y0.8225  
G01 X-2.0288 Y0.8223  
G01 X-2.0297 Y0.8222  
G01 X-2.0317 Y0.8215  
G01 X-2.0337 Y0.8210  
G01 X-2.0344 Y0.8205  
G01 X-2.0353 Y0.8202  
G01 X-2.0370 Y0.8190  
G01 X-2.0388 Y0.8180  
G01 X-2.0394 Y0.8174  
G01 X-2.0402 Y0.8169  
G01 X-2.0415 Y0.8153  
G01 X-2.0430 Y0.8138  
G01 X-2.0434 Y0.8131  
G01 X-2.0440 Y0.8124  
G01 X-2.0449 Y0.8105  
G01 X-2.0460 Y0.8087  
G01 X-2.0462 Y0.8078  
G01 X-2.0894 Y0.7175  
G01 X-2.0935 Y0.7175  
G01 X-2.1125 Y0.6985  
G01 X-2.1125 Y0.6715  
G01 X-2.0935 Y0.6525  
G01 X-2.0665 Y0.6525  
G01 X-2.0475 Y0.6715  
G01 X-2.0475 Y0.6985  
G01 X-2.0483 Y0.6992  
G01 X-2.0108 Y0.7775  
G01 X-1.9155 Y0.7775  
G01 X-1.7964 Y0.4680  
G01 X-1.7960 Y0.4663  
G01 X-1.7954 Y0.4653  
G01 X-1.7949 Y0.4642  
G01 X-1.7939 Y0.4627  
G01 X-1.7930 Y0.4612  
G01 X-1.7922 Y0.4603  
G01 X-1.7915 Y0.4594  
G01 X-1.7901 Y0.4583  
G01 X-1.7425 Y0.4107  
G01 X-1.7425 Y0.2782  
G01 X-1.8020 Y0.2075  
G01 X-1.8135 Y0.2075  
G01 X-1.8281 Y0.1929  
G01 X-1.9813 Y0.1659  
G01 X-1.9823 Y0.1690  
G01 X-1.9858 Y0.1759  
G01 X-1.9904 Y0.1822  
G01 X-1.9959 Y0.1878  
G01 X-2.0022 Y0.1923  
G01 X-2.0091 Y0.1959  
G01 X-2.0166 Y0.1983  
G01 X-2.0243 Y0.1995  
G01 X-2.0320 Y0.1995  
G01 X-2.0397 Y0.1983  
G01 X-2.0472 Y0.1959  
G01 X-2.0541 Y0.1923  
G01 X-2.0604 Y0.1878  
G01 X-2.0659 Y0.1822  
G01 X-2.0705 Y0.1759  
G01 X-2.0740 Y0.1690  
G01 X-2.0764 Y0.1616  
G01 X-2.0776 Y0.1539  
G01 X-2.0776 Y0.1461  
G01 X-2.0764 Y0.1384  
G01 X-2.0740 Y0.1310  
G01 X-2.0705 Y0.1241  
G01 X-2.0659 Y0.1178  
G01 X-2.0604 Y0.1122  
G01 X-2.0541 Y0.1077  
G01 X-2.0472 Y0.1041  
G01 X-2.0397 Y0.1017  
G01 X-2.0320 Y0.1005  
G01 X-2.0243 Y0.1005  
G01 X-2.0166 Y0.1017  
G01 X-2.0091 Y0.1041  
G01 X-2.0090 Y0.1042  
G01 X-2.0087 Y0.1040  
G01 X-2.0030 Y0.1025  
G01 X-1.9970 Y0.1025  
G01 X-1.9913 Y0.1040  
G01 X-1.9862 Y0.1070  
G01 X-1.9820 Y0.1112  
G01 X-1.9790 Y0.1163  
G01 X-1.9778 Y0.1208  
G01 X-1.8196 Y0.1487  
G01 X-1.8135 Y0.1425  
G01 X-1.7865 Y0.1425  
G01 X-1.7675 Y0.1615  
G01 X-1.7675 Y0.1787  
G01 X-1.7034 Y0.2548  
G01 X-1.7020 Y0.2562  
G01 X-1.7015 Y0.2570  
G01 X-1.7009 Y0.2578  
G01 X-1.7000 Y0.2596  
G01 X-1.6990 Y0.2613  
G01 X-1.6988 Y0.2623  
G01 X-1.6984 Y0.2631  
G01 X-1.6980 Y0.2651  
G01 X-1.6975 Y0.2670  
G01 X-1.6975 Y0.2680  
G01 X-1.6973 Y0.2690  
G01 X-1.6975 Y0.2710  
G01 X-1.6975 Y0.4230  
G01 X-1.6990 Y0.4287  
G01 X-1.7020 Y0.4338  
G01 X-1.7062 Y0.4380  
G01 X-1.7557 Y0.4875  
G01 X-1.8786 Y0.8070  
G01 X-1.8790 Y0.8087  
G01 X-1.8796 Y0.8097  
G01 X-1.8801 Y0.8108  
G01 X-1.8811 Y0.8123  
G01 X-1.8820 Y0.8138  
G01 X-1.8828 Y0.8147  
G01 X-1.8835 Y0.8156  
G00 Z0.0500  
G00 X-1.8713 Y0.3975  
G01 Z-0.0035 F10    
G01 X-1.9325 Y0.4179  F20    
G01 X-1.9325 Y0.4285  
G01 X-1.9515 Y0.4475  
G01 X-1.9785 Y0.4475  
G01 X-1.9975 Y0.4285  
G01 X-1.9975 Y0.4140  
G01 X-2.2102 Y0.1972  
G01 X-2.2134 Y0.1983  
G01 X-2.2211 Y0.1995  
G01 X-2.2289 Y0.1995  
G01 X-2.2366 Y0.1983  
G01 X-2.2440 Y0.1959  
G01 X-2.2509 Y0.1923  
G01 X-2.2572 Y0.1878  
G01 X-2.2628 Y0.1822  
G01 X-2.2673 Y0.1759  
G01 X-2.2709 Y0.1690  
G01 X-2.2733 Y0.1616  
G01 X-2.2745 Y0.1539  
G01 X-2.2745 Y0.1461  
G01 X-2.2733 Y0.1384  
G01 X-2.2709 Y0.1310  
G01 X-2.2673 Y0.1241  
G01 X-2.2628 Y0.1178  
G01 X-2.2572 Y0.1122  
G01 X-2.2509 Y0.1077  
G01 X-2.2440 Y0.1041  
G01 X-2.2366 Y0.1017  
G01 X-2.2289 Y0.1005  
G01 X-2.2211 Y0.1005  
G01 X-2.2134 Y0.1017  
G01 X-2.2060 Y0.1041  
G01 X-2.1991 Y0.1077  
G01 X-2.1928 Y0.1122  
G01 X-2.1872 Y0.1178  
G01 X-2.1827 Y0.1241  
G01 X-2.1791 Y0.1310  
G01 X-2.1767 Y0.1384  
G01 X-2.1755 Y0.1461  
G01 X-2.1755 Y0.1539  
G01 X-2.1767 Y0.1616  
G01 X-2.1781 Y0.1657  
G01 X-1.9654 Y0.3825  
G01 X-1.9643 Y0.3825  
G01 X-1.9638 Y0.3820  
G01 X-1.9618 Y0.3809  
G01 X-1.9599 Y0.3796  
G01 X-1.9593 Y0.3794  
G01 X-1.9587 Y0.3790  
G01 X-1.9565 Y0.3784  
G01 X-1.8843 Y0.3544  
G01 X-1.8837 Y0.3540  
G01 X-1.8815 Y0.3534  
G01 X-1.8793 Y0.3527  
G01 X-1.8786 Y0.3527  
G01 X-1.8780 Y0.3525  
G01 X-1.8757 Y0.3525  
G01 X-1.8734 Y0.3524  
G01 X-1.8727 Y0.3525  
G01 X-1.8235 Y0.3525  
G01 X-1.8135 Y0.3425  
G01 X-1.7865 Y0.3425  
G01 X-1.7675 Y0.3615  
G01 X-1.7675 Y0.3885  
G01 X-1.7865 Y0.4075  
G01 X-1.8135 Y0.4075  
G01 X-1.8235 Y0.3975  
G01 X-1.8713 Y0.3975  
G00 Z0.0500  
G00 X-2.2925 Y0.4115  
G01 Z-0.0035 F10    
G01 X-2.2925 Y0.4257  F20    
G01 X-2.2820 Y0.4362  
G01 X-2.2790 Y0.4413  
G01 X-2.2775 Y0.4470  
G01 X-2.2775 Y0.5765  
G01 X-2.2675 Y0.5865  
G01 X-2.2675 Y0.6135  
G01 X-2.2865 Y0.6325  
G01 X-2.3135 Y0.6325  
G01 X-2.3325 Y0.6135  
G01 X-2.3325 Y0.5865  
G01 X-2.3225 Y0.5765  
G01 X-2.3225 Y0.4593  
G01 X-2.3243 Y0.4575  
G01 X-2.3385 Y0.4575  
G01 X-2.3538 Y0.4422  
G01 X-2.4308 Y0.4268  
G01 X-2.4365 Y0.4325  
G01 X-2.4635 Y0.4325  
G01 X-2.4825 Y0.4135  
G01 X-2.4825 Y0.3865  
G01 X-2.4635 Y0.3675  
G01 X-2.4365 Y0.3675  
G01 X-2.4212 Y0.3828  
G01 X-2.3442 Y0.3982  
G01 X-2.3385 Y0.3925  
G01 X-2.3115 Y0.3925  
G01 X-2.2925 Y0.4115  
G00 Z0.0500  
G00 X-2.5375 Y0.4865  
G01 Z-0.0035 F10    
G01 X-2.5375 Y0.5046  F20    
G01 X-2.5332 Y0.5100  
G01 X-2.4320 Y0.6112  
G01 X-2.4290 Y0.6163  
G01 X-2.4275 Y0.6220  
G01 X-2.4275 Y0.6765  
G01 X-2.4175 Y0.6865  
G01 X-2.4175 Y0.7135  
G01 X-2.4365 Y0.7325  
G01 X-2.4635 Y0.7325  
G01 X-2.4825 Y0.7135  
G01 X-2.4825 Y0.6865  
G01 X-2.4725 Y0.6765  
G01 X-2.4725 Y0.6343  
G01 X-2.5647 Y0.5421  
G01 X-2.5657 Y0.5414  
G01 X-2.5668 Y0.5400  
G01 X-2.5680 Y0.5388  
G01 X-2.5686 Y0.5377  
G01 X-2.5728 Y0.5325  
G01 X-2.5835 Y0.5325  
G01 X-2.6025 Y0.5135  
G01 X-2.6025 Y0.4865  
G01 X-2.5835 Y0.4675  
G01 X-2.5565 Y0.4675  
G01 X-2.5375 Y0.4865  
G00 Z0.0500  
G00 X-2.6820 Y0.4788  
G01 Z-0.0035 F10    
G01 X-2.6827 Y0.4795  F20    
G01 X-2.7125 Y0.5226  
G01 X-2.7125 Y0.5435  
G01 X-2.7315 Y0.5625  
G01 X-2.7585 Y0.5625  
G01 X-2.7775 Y0.5435  
G01 X-2.7775 Y0.5165  
G01 X-2.7585 Y0.4975  
G01 X-2.7499 Y0.4975  
G01 X-2.7225 Y0.4580  
G01 X-2.7225 Y0.4235  
G01 X-2.7325 Y0.4135  
G01 X-2.7325 Y0.3865  
G01 X-2.7135 Y0.3675  
G01 X-2.6865 Y0.3675  
G01 X-2.6675 Y0.3865  
G01 X-2.6675 Y0.4135  
G01 X-2.6775 Y0.4235  
G01 X-2.6775 Y0.4630  
G01 X-2.6773 Y0.4639  
G01 X-2.6775 Y0.4659  
G01 X-2.6775 Y0.4680  
G01 X-2.6777 Y0.4689  
G01 X-2.6778 Y0.4698  
G01 X-2.6785 Y0.4717  
G01 X-2.6790 Y0.4737  
G01 X-2.6795 Y0.4745  
G01 X-2.6798 Y0.4754  
G01 X-2.6810 Y0.4770  
G01 X-2.6820 Y0.4788  
G00 Z0.0500  
G00 X-2.7125 Y0.6165  
G01 Z-0.0035 F10    
G01 X-2.7125 Y0.6435  F20    
G01 X-2.7199 Y0.6509  
G01 X-2.7036 Y0.7896  
G01 X-2.7007 Y0.7925  
G01 X-2.6865 Y0.7925  
G01 X-2.6675 Y0.8115  
G01 X-2.6675 Y0.8385  
G01 X-2.6775 Y0.8485  
G01 X-2.6775 Y0.8727  
G01 X-2.6774 Y0.8734  
G01 X-2.6775 Y0.8757  
G01 X-2.6775 Y0.8780  
G01 X-2.6777 Y0.8786  
G01 X-2.6777 Y0.8794  
G01 X-2.6784 Y0.8815  
G01 X-2.6790 Y0.8837  
G01 X-2.6794 Y0.8843  
G01 X-2.6796 Y0.8850  
G01 X-2.6809 Y0.8869  
G01 X-2.6820 Y0.8888  
G01 X-2.6825 Y0.8893  
G01 X-2.6829 Y0.8899  
G01 X-2.6846 Y0.8914  
G01 X-2.6862 Y0.8930  
G01 X-2.6868 Y0.8934  
G01 X-2.7525 Y0.9513  
G01 X-2.7525 Y0.9635  
G01 X-2.7625 Y0.9735  
G01 X-2.7625 Y1.0315  
G01 X-2.7525 Y1.0415  
G01 X-2.7525 Y1.0685  
G01 X-2.7715 Y1.0875  
G01 X-2.7985 Y1.0875  
G01 X-2.8175 Y1.0685  
G01 X-2.8175 Y1.0415  
G01 X-2.8075 Y1.0315  
G01 X-2.8075 Y0.9735  
G01 X-2.8175 Y0.9635  
G01 X-2.8175 Y0.9469  
G01 X-2.8643 Y0.8928  
G01 X-2.8888 Y0.8794  
G01 X-2.8939 Y0.8815  
G01 X-2.9013 Y0.8830  
G01 X-2.9087 Y0.8830  
G01 X-2.9161 Y0.8815  
G01 X-2.9230 Y0.8787  
G01 X-2.9292 Y0.8745  
G01 X-2.9345 Y0.8692  
G01 X-2.9387 Y0.8630  
G01 X-2.9415 Y0.8561  
G01 X-2.9430 Y0.8487  
G01 X-2.9430 Y0.8413  
G01 X-2.9415 Y0.8339  
G01 X-2.9387 Y0.8270  
G01 X-2.9345 Y0.8208  
G01 X-2.9292 Y0.8155  
G01 X-2.9230 Y0.8113  
G01 X-2.9161 Y0.8085  
G01 X-2.9087 Y0.8070  
G01 X-2.9013 Y0.8070  
G01 X-2.8939 Y0.8085  
G01 X-2.8870 Y0.8113  
G01 X-2.8808 Y0.8155  
G01 X-2.8755 Y0.8208  
G01 X-2.8713 Y0.8270  
G01 X-2.8685 Y0.8339  
G01 X-2.8673 Y0.8400  
G01 X-2.8409 Y0.8543  
G01 X-2.8398 Y0.8547  
G01 X-2.8383 Y0.8558  
G01 X-2.8366 Y0.8567  
G01 X-2.8358 Y0.8574  
G01 X-2.8349 Y0.8580  
G01 X-2.8337 Y0.8595  
G01 X-2.8323 Y0.8608  
G01 X-2.8318 Y0.8617  
G01 X-2.7834 Y0.9175  
G01 X-2.7822 Y0.9175  
G01 X-2.7225 Y0.8648  
G01 X-2.7225 Y0.8485  
G01 X-2.7325 Y0.8385  
G01 X-2.7325 Y0.8243  
G01 X-2.7400 Y0.8168  
G01 X-2.7413 Y0.8158  
G01 X-2.7421 Y0.8148  
G01 X-2.7430 Y0.8138  
G01 X-2.7438 Y0.8124  
G01 X-2.7448 Y0.8111  
G01 X-2.7453 Y0.8098  
G01 X-2.7460 Y0.8087  
G01 X-2.7464 Y0.8071  
G01 X-2.7470 Y0.8056  
G01 X-2.7472 Y0.8042  
G01 X-2.7475 Y0.8030  
G01 X-2.7475 Y0.8013  
G01 X-2.7645 Y0.6564  
G01 X-2.7775 Y0.6435  
G01 X-2.7775 Y0.6165  
G01 X-2.7585 Y0.5975  
G01 X-2.7315 Y0.5975  
G01 X-2.7125 Y0.6165  
G00 Z0.0500  
G00 X-2.9216 Y0.6137  
G01 Z-0.0035 F10    
G01 X-2.9216 Y0.6226  F20    
G01 X-2.9230 Y0.6313  
G01 X-2.9258 Y0.6398  
G01 X-2.9298 Y0.6477  
G01 X-2.9351 Y0.6549  
G01 X-2.9413 Y0.6612  
G01 X-2.9485 Y0.6664  
G01 X-2.9494 Y0.6669  
G01 X-2.9105 Y0.7070  
G01 X-2.8893 Y0.7070  
G01 X-2.8670 Y0.7293  
G01 X-2.8670 Y0.7607  
G01 X-2.8893 Y0.7830  
G01 X-2.9207 Y0.7830  
G01 X-2.9430 Y0.7607  
G01 X-2.9430 Y0.7382  
G01 X-3.0047 Y0.6746  
G01 X-3.0826 Y0.6746  
G01 X-3.0914 Y0.6732  
G01 X-3.0998 Y0.6705  
G01 X-3.1078 Y0.6664  
G01 X-3.1150 Y0.6612  
G01 X-3.1212 Y0.6549  
G01 X-3.1265 Y0.6477  
G01 X-3.1305 Y0.6398  
G01 X-3.1333 Y0.6313  
G01 X-3.1346 Y0.6226  
G01 X-3.1346 Y0.6137  
G01 X-3.1333 Y0.6049  
G01 X-3.1305 Y0.5964  
G01 X-3.1265 Y0.5885  
G01 X-3.1212 Y0.5813  
G01 X-3.1150 Y0.5750  
G01 X-3.1078 Y0.5698  
G01 X-3.0998 Y0.5657  
G01 X-3.0914 Y0.5630  
G01 X-3.0826 Y0.5616  
G01 X-2.9737 Y0.5616  
G01 X-2.9649 Y0.5630  
G01 X-2.9565 Y0.5657  
G01 X-2.9485 Y0.5698  
G01 X-2.9413 Y0.5750  
G01 X-2.9351 Y0.5813  
G01 X-2.9298 Y0.5885  
G01 X-2.9258 Y0.5964  
G01 X-2.9230 Y0.6049  
G01 X-2.9216 Y0.6137  
G00 Z0.0500  
G00 X-2.4596 Y0.1822  
G01 Z-0.0035 F10    
G01 X-2.4642 Y0.1759  F20    
G01 X-2.4677 Y0.1690  
G01 X-2.4701 Y0.1616  
G01 X-2.4714 Y0.1539  
G01 X-2.4714 Y0.1461  
G01 X-2.4701 Y0.1384  
G01 X-2.4677 Y0.1310  
G01 X-2.4642 Y0.1241  
G01 X-2.4596 Y0.1178  
G01 X-2.4541 Y0.1122  
G01 X-2.4478 Y0.1077  
G01 X-2.4409 Y0.1041  
G01 X-2.4334 Y0.1017  
G01 X-2.4257 Y0.1005  
G01 X-2.4180 Y0.1005  
G01 X-2.4103 Y0.1017  
G01 X-2.4028 Y0.1041  
G01 X-2.3959 Y0.1077  
G01 X-2.3896 Y0.1122  
G01 X-2.3841 Y0.1178  
G01 X-2.3795 Y0.1241  
G01 X-2.3760 Y0.1310  
G01 X-2.3736 Y0.1384  
G01 X-2.3724 Y0.1461  
G01 X-2.3724 Y0.1539  
G01 X-2.3736 Y0.1616  
G01 X-2.3760 Y0.1690  
G01 X-2.3795 Y0.1759  
G01 X-2.3841 Y0.1822  
G01 X-2.3896 Y0.1878  
G01 X-2.3959 Y0.1923  
G01 X-2.4028 Y0.1959  
G01 X-2.4103 Y0.1983  
G01 X-2.4180 Y0.1995  
G01 X-2.4257 Y0.1995  
G01 X-2.4334 Y0.1983  
G01 X-2.4409 Y0.1959  
G01 X-2.4478 Y0.1923  
G01 X-2.4541 Y0.1878  
G01 X-2.4596 Y0.1822  
G00 Z0.0500  
G00 X-0.2850 Y0.0818  
G01 Z-0.0035 F10    
G01 X-0.2834 Y0.0834  F20    
G01 X-0.2817 Y0.0850  
G01 X-0.2805 Y0.0870  
G01 X-0.2792 Y0.0889  
G01 X-0.2004 Y0.2070  
G01 X-0.1992 Y0.2089  
G01 X-0.1983 Y0.2110  
G01 X-0.1974 Y0.2131  
G01 X-0.1969 Y0.2154  
G01 X-0.1965 Y0.2177  
G01 X-0.1965 Y0.2200  
G01 X-0.1965 Y0.8798  
G01 X-0.1965 Y0.8819  
G01 X-0.1965 Y0.8821  
G01 X-0.1965 Y0.8823  
G01 X-0.1969 Y0.8844  
G01 X-0.1973 Y0.8864  
G01 X-0.1974 Y0.8866  
G01 X-0.1974 Y0.8869  
G01 X-0.1982 Y0.8888  
G01 X-0.1990 Y0.8907  
G01 X-0.1991 Y0.8909  
G01 X-0.1992 Y0.8911  
G01 X-0.2003 Y0.8929  
G01 X-0.2015 Y0.8946  
G01 X-0.2016 Y0.8948  
G01 X-0.2017 Y0.8950  
G01 X-0.2032 Y0.8965  
G01 X-0.4516 Y1.1548  
G01 X-0.4517 Y1.1550  
G01 X-0.4532 Y1.1565  
G01 X-0.4547 Y1.1580  
G01 X-0.4549 Y1.1581  
G01 X-0.4550 Y1.1583  
G01 X-0.4568 Y1.1594  
G01 X-0.4585 Y1.1606  
G01 X-0.4587 Y1.1607  
G01 X-0.4589 Y1.1608  
G01 X-0.4608 Y1.1616  
G01 X-0.4627 Y1.1625  
G01 X-0.4629 Y1.1625  
G01 X-0.4631 Y1.1626  
G01 X-0.4652 Y1.1630  
G01 X-0.4672 Y1.1634  
G01 X-0.4675 Y1.1635  
G01 X-0.4677 Y1.1635  
G01 X-0.4698 Y1.1635  
G01 X-0.4719 Y1.1635  
G01 X-0.4721 Y1.1635  
G01 X-2.8197 Y1.1635  
G01 X-2.8218 Y1.1635  
G01 X-2.8221 Y1.1635  
G01 X-2.8223 Y1.1635  
G01 X-2.8243 Y1.1631  
G01 X-2.8264 Y1.1627  
G01 X-2.8266 Y1.1626  
G01 X-2.8269 Y1.1626  
G01 X-2.8288 Y1.1618  
G01 X-2.8307 Y1.1611  
G01 X-2.8309 Y1.1609  
G01 X-2.8311 Y1.1608  
G01 X-2.8328 Y1.1597  
G01 X-2.8346 Y1.1586  
G01 X-2.8348 Y1.1584  
G01 X-2.8350 Y1.1583  
G01 X-2.8364 Y1.1568  
G01 X-2.8379 Y1.1554  
G01 X-2.8381 Y1.1552  
G01 X-2.8383 Y1.1550  
G01 X-2.8394 Y1.1533  
G01 X-2.9788 Y0.9541  
G01 X-3.1773 Y0.7060  
G01 X-3.1777 Y0.7057  
G01 X-3.1787 Y0.7042  
G01 X-3.1798 Y0.7029  
G01 X-3.1801 Y0.7024  
G01 X-3.1804 Y0.7019  
G01 X-3.1811 Y0.7003  
G01 X-3.1819 Y0.6988  
G01 X-3.1821 Y0.6982  
G01 X-3.2112 Y0.6349  
G01 X-3.2194 Y0.6376  
G01 X-3.2283 Y0.6390  
G01 X-3.2374 Y0.6390  
G01 X-3.2463 Y0.6376  
G01 X-3.2549 Y0.6348  
G01 X-3.2630 Y0.6307  
G01 X-3.2703 Y0.6254  
G01 X-3.2767 Y0.6190  
G01 X-3.2821 Y0.6116  
G01 X-3.2862 Y0.6036  
G01 X-3.2890 Y0.5950  
G01 X-3.2904 Y0.5860  
G01 X-3.2904 Y0.4770  
G01 X-3.2890 Y0.4680  
G01 X-3.2862 Y0.4594  
G01 X-3.2821 Y0.4514  
G01 X-3.2767 Y0.4440  
G01 X-3.2703 Y0.4376  
G01 X-3.2630 Y0.4323  
G01 X-3.2549 Y0.4282  
G01 X-3.2463 Y0.4254  
G01 X-3.2374 Y0.4240  
G01 X-3.2283 Y0.4240  
G01 X-3.2194 Y0.4254  
G01 X-3.2108 Y0.4282  
G01 X-3.2027 Y0.4323  
G01 X-3.1954 Y0.4376  
G01 X-3.1890 Y0.4440  
G01 X-3.1837 Y0.4514  
G01 X-3.1796 Y0.4594  
G01 X-3.1768 Y0.4680  
G01 X-3.1754 Y0.4770  
G01 X-3.1754 Y0.5860  
G01 X-3.1768 Y0.5950  
G01 X-3.1772 Y0.5963  
G01 X-3.1399 Y0.6776  
G01 X-2.9426 Y0.9241  
G01 X-2.9421 Y0.9246  
G01 X-2.9412 Y0.9259  
G01 X-2.9402 Y0.9271  
G01 X-2.9399 Y0.9278  
G01 X-2.8078 Y1.1165  
G01 X-0.4800 Y1.1165  
G01 X-0.2435 Y0.8705  
G01 X-0.2435 Y0.2271  
G01 X-0.3126 Y0.1235  
G01 X-0.5855 Y0.1235  
G01 X-0.6128 Y0.1782  
G01 X-0.6128 Y0.2333  
G01 X-0.6142 Y0.2405  
G01 X-0.6170 Y0.2473  
G01 X-0.6211 Y0.2534  
G01 X-0.6263 Y0.2586  
G01 X-0.6324 Y0.2626  
G01 X-0.6392 Y0.2654  
G01 X-0.6463 Y0.2669  
G01 X-0.6537 Y0.2669  
G01 X-0.6608 Y0.2654  
G01 X-0.6676 Y0.2626  
G01 X-0.6737 Y0.2586  
G01 X-0.6789 Y0.2534  
G01 X-0.6830 Y0.2473  
G01 X-0.6858 Y0.2405  
G01 X-0.6872 Y0.2333  
G01 X-0.6872 Y0.1667  
G01 X-0.6858 Y0.1595  
G01 X-0.6830 Y0.1527  
G01 X-0.6789 Y0.1466  
G01 X-0.6737 Y0.1414  
G01 X-0.6676 Y0.1374  
G01 X-0.6608 Y0.1346  
G01 X-0.6537 Y0.1331  
G01 X-0.6463 Y0.1331  
G01 X-0.6432 Y0.1338  
G01 X-0.6214 Y0.0902  
G01 X-0.6208 Y0.0889  
G01 X-0.6204 Y0.0882  
G01 X-0.6200 Y0.0874  
G01 X-0.6191 Y0.0863  
G01 X-0.6183 Y0.0850  
G01 X-0.6177 Y0.0844  
G01 X-0.6171 Y0.0838  
G01 X-0.6160 Y0.0828  
G01 X-0.6150 Y0.0817  
G01 X-0.6143 Y0.0813  
G01 X-0.6136 Y0.0807  
G01 X-0.6124 Y0.0800  
G01 X-0.6111 Y0.0792  
G01 X-0.6104 Y0.0789  
G01 X-0.6096 Y0.0784  
G01 X-0.6082 Y0.0780  
G01 X-0.6069 Y0.0774  
G01 X-0.6060 Y0.0772  
G01 X-0.6052 Y0.0770  
G01 X-0.6038 Y0.0768  
G01 X-0.6023 Y0.0765  
G01 X-0.6015 Y0.0765  
G01 X-0.6006 Y0.0764  
G01 X-0.5992 Y0.0765  
G01 X-0.3023 Y0.0765  
G01 X-0.3000 Y0.0765  
G01 X-0.2977 Y0.0765  
G01 X-0.2955 Y0.0769  
G01 X-0.2931 Y0.0774  
G01 X-0.2910 Y0.0783  
G01 X-0.2889 Y0.0792  
G01 X-0.2870 Y0.0804  
G01 X-0.2850 Y0.0817  
G00 Z0.0500  
G00 X-0.3211 Y0.1466  
G01 Z-0.0035 F10    
G01 X-0.3170 Y0.1527  F20    
G01 X-0.3142 Y0.1595  
G01 X-0.3128 Y0.1667  
G01 X-0.3128 Y0.2333  
G01 X-0.3142 Y0.2405  
G01 X-0.3170 Y0.2473  
G01 X-0.3211 Y0.2534  
G01 X-0.3263 Y0.2586  
G01 X-0.3265 Y0.2587  
G01 X-0.3265 Y0.3650  
G01 X-0.3265 Y0.3673  
G01 X-0.3269 Y0.3696  
G01 X-0.3274 Y0.3718  
G01 X-0.3283 Y0.3740  
G01 X-0.3292 Y0.3761  
G01 X-0.3304 Y0.3780  
G01 X-0.4065 Y0.4921  
G01 X-0.4065 Y0.5139  
G01 X-0.4261 Y0.5335  
G01 X-0.4539 Y0.5335  
G01 X-0.4735 Y0.5139  
G01 X-0.4735 Y0.4861  
G01 X-0.4539 Y0.4665  
G01 X-0.4459 Y0.4665  
G01 X-0.3735 Y0.3579  
G01 X-0.3735 Y0.2587  
G01 X-0.3737 Y0.2586  
G01 X-0.3789 Y0.2534  
G01 X-0.3830 Y0.2473  
G01 X-0.3858 Y0.2405  
G01 X-0.3872 Y0.2333  
G01 X-0.3872 Y0.1667  
G01 X-0.3858 Y0.1595  
G01 X-0.3830 Y0.1527  
G01 X-0.3789 Y0.1466  
G01 X-0.3737 Y0.1414  
G01 X-0.3676 Y0.1374  
G01 X-0.3608 Y0.1346  
G01 X-0.3537 Y0.1331  
G01 X-0.3463 Y0.1331  
G01 X-0.3392 Y0.1346  
G01 X-0.3324 Y0.1374  
G01 X-0.3263 Y0.1414  
G01 X-0.3211 Y0.1466  
G00 Z0.0500  
G00 X-0.4211 Y0.1466  
G01 Z-0.0035 F10    
G01 X-0.4170 Y0.1527  F20    
G01 X-0.4142 Y0.1595  
G01 X-0.4128 Y0.1667  
G01 X-0.4128 Y0.2333  
G01 X-0.4142 Y0.2405  
G01 X-0.4170 Y0.2473  
G01 X-0.4211 Y0.2534  
G01 X-0.4263 Y0.2586  
G01 X-0.4265 Y0.2587  
G01 X-0.4265 Y0.3579  
G01 X-0.4265 Y0.3581  
G01 X-0.4265 Y0.3602  
G01 X-0.4265 Y0.3623  
G01 X-0.4265 Y0.3625  
G01 X-0.4265 Y0.3627  
G01 X-0.4270 Y0.3648  
G01 X-0.4274 Y0.3669  
G01 X-0.4275 Y0.3670  
G01 X-0.4275 Y0.3672  
G01 X-0.4284 Y0.3692  
G01 X-0.4292 Y0.3711  
G01 X-0.4293 Y0.3713  
G01 X-0.4294 Y0.3715  
G01 X-0.4306 Y0.3732  
G01 X-0.4317 Y0.3750  
G01 X-0.4319 Y0.3751  
G01 X-0.5172 Y0.4983  
G01 X-0.5243 Y0.5765  
G01 X-0.4227 Y0.5765  
G01 X-0.4181 Y0.5774  
G01 X-0.4139 Y0.5792  
G01 X-0.4100 Y0.5817  
G01 X-0.4067 Y0.5850  
G01 X-0.2567 Y0.7350  
G01 X-0.2542 Y0.7389  
G01 X-0.2524 Y0.7431  
G01 X-0.2515 Y0.7477  
G01 X-0.2515 Y0.8496  
G01 X-0.2514 Y0.8516  
G01 X-0.2515 Y0.8519  
G01 X-0.2515 Y0.8523  
G01 X-0.2519 Y0.8542  
G01 X-0.2522 Y0.8561  
G01 X-0.2523 Y0.8565  
G01 X-0.2524 Y0.8569  
G01 X-0.2531 Y0.8586  
G01 X-0.2538 Y0.8605  
G01 X-0.2540 Y0.8608  
G01 X-0.2542 Y0.8611  
G01 X-0.2553 Y0.8627  
G01 X-0.2563 Y0.8644  
G01 X-0.2565 Y0.8647  
G01 X-0.2567 Y0.8650  
G01 X-0.2581 Y0.8664  
G01 X-0.4815 Y1.1047  
G01 X-0.4817 Y1.1050  
G01 X-0.4831 Y1.1063  
G01 X-0.4844 Y1.1078  
G01 X-0.4847 Y1.1080  
G01 X-0.4850 Y1.1083  
G01 X-0.4866 Y1.1093  
G01 X-0.4882 Y1.1105  
G01 X-0.4886 Y1.1106  
G01 X-0.4889 Y1.1108  
G01 X-0.4907 Y1.1116  
G01 X-0.4924 Y1.1124  
G01 X-0.4928 Y1.1125  
G01 X-0.4931 Y1.1126  
G01 X-0.4950 Y1.1130  
G01 X-0.4969 Y1.1134  
G01 X-0.4973 Y1.1134  
G01 X-0.4977 Y1.1135  
G01 X-0.4996 Y1.1135  
G01 X-0.5016 Y1.1136  
G01 X-0.5019 Y1.1135  
G01 X-2.2485 Y1.1135  
G01 X-2.2493 Y1.1136  
G01 X-2.2508 Y1.1135  
G01 X-2.2523 Y1.1135  
G01 X-2.2531 Y1.1133  
G01 X-2.3727 Y1.1051  
G01 X-2.3811 Y1.1135  
G01 X-2.4089 Y1.1135  
G01 X-2.4189 Y1.1035  
G01 X-2.4481 Y1.1035  
G01 X-2.4484 Y1.1036  
G01 X-2.4504 Y1.1035  
G01 X-2.4523 Y1.1035  
G01 X-2.4527 Y1.1034  
G01 X-2.4530 Y1.1034  
G01 X-2.4549 Y1.1030  
G01 X-2.4569 Y1.1026  
G01 X-2.4572 Y1.1025  
G01 X-2.4576 Y1.1024  
G01 X-2.4593 Y1.1016  
G01 X-2.4611 Y1.1008  
G01 X-2.4614 Y1.1006  
G01 X-2.4618 Y1.1005  
G01 X-2.4634 Y1.0993  
G01 X-2.4650 Y1.0983  
G01 X-2.4652 Y1.0980  
G01 X-2.4785 Y1.0885  
G01 X-2.4989 Y1.0885  
G01 X-2.5185 Y1.0689  
G01 X-2.5185 Y1.0411  
G01 X-2.4989 Y1.0215  
G01 X-2.4711 Y1.0215  
G01 X-2.4515 Y1.0411  
G01 X-2.4515 Y1.0500  
G01 X-2.4425 Y1.0565  
G01 X-2.4189 Y1.0565  
G01 X-2.4089 Y1.0465  
G01 X-2.3811 Y1.0465  
G01 X-2.3694 Y1.0582  
G01 X-2.2492 Y1.0665  
G01 X-0.5102 Y1.0665  
G01 X-0.2985 Y0.8407  
G01 X-0.2985 Y0.7597  
G01 X-0.4347 Y0.6235  
G01 X-0.5261 Y0.6235  
G01 X-0.5361 Y0.6335  
G01 X-0.5639 Y0.6335  
G01 X-0.5835 Y0.6139  
G01 X-0.5835 Y0.5861  
G01 X-0.5712 Y0.5738  
G01 X-0.5635 Y0.4887  
G01 X-0.5635 Y0.4873  
G01 X-0.5633 Y0.4864  
G01 X-0.5632 Y0.4856  
G01 X-0.5628 Y0.4842  
G01 X-0.5625 Y0.4828  
G01 X-0.5621 Y0.4820  
G01 X-0.5619 Y0.4811  
G01 X-0.5612 Y0.4799  
G01 X-0.5606 Y0.4785  
G01 X-0.5601 Y0.4778  
G01 X-0.5597 Y0.4770  
G01 X-0.5588 Y0.4759  
G01 X-0.4735 Y0.3527  
G01 X-0.4735 Y0.2587  
G01 X-0.4737 Y0.2586  
G01 X-0.4789 Y0.2534  
G01 X-0.4830 Y0.2473  
G01 X-0.4858 Y0.2405  
G01 X-0.4872 Y0.2333  
G01 X-0.4872 Y0.1667  
G01 X-0.4858 Y0.1595  
G01 X-0.4830 Y0.1527  
G01 X-0.4789 Y0.1466  
G01 X-0.4737 Y0.1414  
G01 X-0.4676 Y0.1374  
G01 X-0.4608 Y0.1346  
G01 X-0.4537 Y0.1331  
G01 X-0.4463 Y0.1331  
G01 X-0.4392 Y0.1346  
G01 X-0.4324 Y0.1374  
G01 X-0.4263 Y0.1414  
G01 X-0.4211 Y0.1466  
G00 Z0.0500  
G00 X-0.5211 Y0.1466  
G01 Z-0.0035 F10    
G01 X-0.5170 Y0.1527  F20    
G01 X-0.5142 Y0.1595  
G01 X-0.5128 Y0.1667  
G01 X-0.5128 Y0.2333  
G01 X-0.5142 Y0.2405  
G01 X-0.5170 Y0.2473  
G01 X-0.5211 Y0.2534  
G01 X-0.5263 Y0.2586  
G01 X-0.5324 Y0.2626  
G01 X-0.5392 Y0.2654  
G01 X-0.5415 Y0.2659  
G01 X-0.5714 Y0.3912  
G01 X-0.5665 Y0.3961  
G01 X-0.5665 Y0.4239  
G01 X-0.5861 Y0.4435  
G01 X-0.5873 Y0.4435  
G01 X-0.6475 Y0.6068  
G01 X-0.6702 Y0.7015  
G01 X-0.3727 Y0.7015  
G01 X-0.3681 Y0.7024  
G01 X-0.3639 Y0.7042  
G01 X-0.3600 Y0.7067  
G01 X-0.3567 Y0.7100  
G01 X-0.3067 Y0.7600  
G01 X-0.3042 Y0.7639  
G01 X-0.3024 Y0.7681  
G01 X-0.3015 Y0.7727  
G01 X-0.3015 Y0.8273  
G01 X-0.3024 Y0.8319  
G01 X-0.3042 Y0.8361  
G01 X-0.3067 Y0.8400  
G01 X-0.3100 Y0.8433  
G01 X-0.4600 Y0.9933  
G01 X-0.4639 Y0.9958  
G01 X-0.4681 Y0.9976  
G01 X-0.4727 Y0.9985  
G01 X-1.1983 Y0.9985  
G01 X-1.3474 Y1.0198  
G01 X-1.3611 Y1.0335  
G01 X-1.3889 Y1.0335  
G01 X-1.3989 Y1.0235  
G01 X-1.4242 Y1.0235  
G01 X-1.4256 Y1.0236  
G01 X-1.4265 Y1.0235  
G01 X-1.4273 Y1.0235  
G01 X-1.4288 Y1.0232  
G01 X-1.4302 Y1.0230  
G01 X-1.4310 Y1.0228  
G01 X-1.4319 Y1.0226  
G01 X-1.4332 Y1.0220  
G01 X-1.4346 Y1.0216  
G01 X-1.4354 Y1.0211  
G01 X-1.4361 Y1.0208  
G01 X-1.4374 Y1.0200  
G01 X-1.4386 Y1.0193  
G01 X-1.4393 Y1.0187  
G01 X-1.4400 Y1.0183  
G01 X-1.4410 Y1.0172  
G01 X-1.4421 Y1.0162  
G01 X-1.4427 Y1.0156  
G01 X-1.4433 Y1.0150  
G01 X-1.4441 Y1.0137  
G01 X-1.4450 Y1.0126  
G01 X-1.4454 Y1.0118  
G01 X-1.4458 Y1.0111  
G01 X-1.4464 Y1.0098  
G01 X-1.4845 Y0.9335  
G01 X-1.4889 Y0.9335  
G01 X-1.5085 Y0.9139  
G01 X-1.5085 Y0.8861  
G01 X-1.4893 Y0.8670  
G01 X-1.5820 Y0.7663  
G01 X-1.5833 Y0.7650  
G01 X-1.5835 Y0.7646  
G01 X-1.5839 Y0.7642  
G01 X-1.5848 Y0.7626  
G01 X-1.5858 Y0.7611  
G01 X-1.5860 Y0.7607  
G01 X-1.5863 Y0.7603  
G01 X-1.5869 Y0.7585  
G01 X-1.5876 Y0.7569  
G01 X-1.5877 Y0.7564  
G01 X-1.5879 Y0.7559  
G01 X-1.5881 Y0.7541  
G01 X-1.5885 Y0.7523  
G01 X-1.5885 Y0.7518  
G01 X-1.5886 Y0.7513  
G01 X-1.5885 Y0.7495  
G01 X-1.5885 Y0.4044  
G01 X-1.7161 Y0.0735  
G01 X-2.4403 Y0.0735  
G01 X-2.5168 Y0.1500  
G01 X-2.3653 Y0.3015  
G01 X-2.3265 Y0.3015  
G01 X-2.3256 Y0.3014  
G01 X-2.3242 Y0.3015  
G01 X-2.3227 Y0.3015  
G01 X-2.3219 Y0.3017  
G01 X-2.3210 Y0.3017  
G01 X-2.3196 Y0.3021  
G01 X-2.3181 Y0.3024  
G01 X-2.3174 Y0.3027  
G01 X-2.3166 Y0.3029  
G01 X-2.3152 Y0.3036  
G01 X-2.3139 Y0.3042  
G01 X-2.3132 Y0.3046  
G01 X-2.1391 Y0.3917  
G01 X-2.1389 Y0.3915  
G01 X-2.1111 Y0.3915  
G01 X-2.0915 Y0.4111  
G01 X-2.0915 Y0.4293  
G01 X-2.0071 Y0.5347  
G01 X-2.0061 Y0.5358  
G01 X-2.0057 Y0.5365  
G01 X-2.0052 Y0.5371  
G01 X-2.0045 Y0.5385  
G01 X-2.0037 Y0.5398  
G01 X-2.0034 Y0.5405  
G01 X-2.0031 Y0.5412  
G01 X-2.0026 Y0.5427  
G01 X-1.9635 Y0.6505  
G01 X-1.9069 Y0.5154  
G01 X-1.9085 Y0.5139  
G01 X-1.9085 Y0.4861  
G01 X-1.8889 Y0.4665  
G01 X-1.8611 Y0.4665  
G01 X-1.8415 Y0.4861  
G01 X-1.8415 Y0.5139  
G01 X-1.8611 Y0.5335  
G01 X-1.8635 Y0.5335  
G01 X-1.9331 Y0.6996  
G01 X-1.9315 Y0.7011  
G01 X-1.9315 Y0.7289  
G01 X-1.9511 Y0.7485  
G01 X-1.9789 Y0.7485  
G01 X-1.9985 Y0.7289  
G01 X-1.9985 Y0.7011  
G01 X-1.9960 Y0.6986  
G01 X-2.0458 Y0.5617  
G01 X-2.1283 Y0.4585  
G01 X-2.1389 Y0.4585  
G01 X-2.1585 Y0.4389  
G01 X-2.1585 Y0.4345  
G01 X-2.3305 Y0.3485  
G01 X-2.3773 Y0.3485  
G01 X-2.3819 Y0.3476  
G01 X-2.3861 Y0.3458  
G01 X-2.3900 Y0.3433  
G01 X-2.3933 Y0.3400  
G01 X-2.5650 Y0.1683  
G01 X-2.6097 Y0.1235  
G01 X-2.6761 Y0.1235  
G01 X-2.6861 Y0.1335  
G01 X-2.7139 Y0.1335  
G01 X-2.7240 Y0.1234  
G01 X-2.9258 Y0.1224  
G01 X-2.9290 Y0.1286  
G01 X-2.9343 Y0.1359  
G01 X-2.9407 Y0.1423  
G01 X-2.9480 Y0.1476  
G01 X-2.9561 Y0.1517  
G01 X-2.9647 Y0.1545  
G01 X-2.9736 Y0.1559  
G01 X-3.0827 Y0.1559  
G01 X-3.0916 Y0.1545  
G01 X-3.1002 Y0.1517  
G01 X-3.1083 Y0.1476  
G01 X-3.1156 Y0.1423  
G01 X-3.1220 Y0.1359  
G01 X-3.1273 Y0.1286  
G01 X-3.1314 Y0.1205  
G01 X-3.1342 Y0.1119  
G01 X-3.1356 Y0.1030  
G01 X-3.1356 Y0.0939  
G01 X-3.1342 Y0.0850  
G01 X-3.1314 Y0.0764  
G01 X-3.1273 Y0.0683  
G01 X-3.1220 Y0.0610  
G01 X-3.1156 Y0.0546  
G01 X-3.1083 Y0.0492  
G01 X-3.1002 Y0.0451  
G01 X-3.0916 Y0.0423  
G01 X-3.0827 Y0.0409  
G01 X-2.9736 Y0.0409  
G01 X-2.9647 Y0.0423  
G01 X-2.9561 Y0.0451  
G01 X-2.9480 Y0.0492  
G01 X-2.9407 Y0.0546  
G01 X-2.9343 Y0.0610  
G01 X-2.9290 Y0.0683  
G01 X-2.9253 Y0.0754  
G01 X-2.7238 Y0.0764  
G01 X-2.7139 Y0.0665  
G01 X-2.6861 Y0.0665  
G01 X-2.6761 Y0.0765  
G01 X-2.5977 Y0.0765  
G01 X-2.5931 Y0.0774  
G01 X-2.5889 Y0.0792  
G01 X-2.5850 Y0.0817  
G01 X-2.5500 Y0.1168  
G01 X-2.4683 Y0.0350  
G01 X-2.4650 Y0.0317  
G01 X-2.4611 Y0.0292  
G01 X-2.4569 Y0.0274  
G01 X-2.4523 Y0.0265  
G01 X-1.7020 Y0.0265  
G01 X-1.7017 Y0.0265  
G01 X-1.6997 Y0.0265  
G01 X-1.6977 Y0.0265  
G01 X-1.6974 Y0.0266  
G01 X-1.6971 Y0.0266  
G01 X-1.6951 Y0.0270  
G01 X-1.6931 Y0.0274  
G01 X-1.6929 Y0.0275  
G01 X-1.6926 Y0.0276  
G01 X-1.6907 Y0.0284  
G01 X-1.6889 Y0.0292  
G01 X-1.6886 Y0.0293  
G01 X-1.6884 Y0.0295  
G01 X-1.6867 Y0.0306  
G01 X-1.6850 Y0.0317  
G01 X-1.6848 Y0.0320  
G01 X-1.6846 Y0.0321  
G01 X-1.6832 Y0.0336  
G01 X-1.6817 Y0.0350  
G01 X-1.6816 Y0.0353  
G01 X-1.6814 Y0.0355  
G01 X-1.6803 Y0.0372  
G01 X-1.6792 Y0.0389  
G01 X-1.6791 Y0.0391  
G01 X-1.6789 Y0.0394  
G01 X-1.6782 Y0.0413  
G01 X-1.6774 Y0.0431  
G01 X-1.6773 Y0.0434  
G01 X-1.5432 Y0.3913  
G01 X-1.5424 Y0.3931  
G01 X-1.5423 Y0.3934  
G01 X-1.5422 Y0.3937  
G01 X-1.5419 Y0.3957  
G01 X-1.5415 Y0.3977  
G01 X-1.5415 Y0.3980  
G01 X-1.5415 Y0.3983  
G01 X-1.5415 Y0.4003  
G01 X-1.5415 Y0.7408  
G01 X-1.4565 Y0.8332  
G01 X-1.4177 Y0.7497  
G01 X-1.4185 Y0.7489  
G01 X-1.4185 Y0.7211  
G01 X-1.3989 Y0.7015  
G01 X-1.3711 Y0.7015  
G01 X-1.3515 Y0.7211  
G01 X-1.3515 Y0.7489  
G01 X-1.3711 Y0.7685  
G01 X-1.3746 Y0.7685  
G01 X-1.4285 Y0.8844  
G01 X-1.4292 Y0.8861  
G01 X-1.4294 Y0.8865  
G01 X-1.4297 Y0.8870  
G01 X-1.4307 Y0.8885  
G01 X-1.4317 Y0.8900  
G01 X-1.4321 Y0.8903  
G01 X-1.4324 Y0.8907  
G01 X-1.4337 Y0.8920  
G01 X-1.4415 Y0.8997  
G01 X-1.4415 Y0.9139  
G01 X-1.4417 Y0.9141  
G01 X-1.4105 Y0.9765  
G01 X-1.3989 Y0.9765  
G01 X-1.3889 Y0.9665  
G01 X-1.3611 Y0.9665  
G01 X-1.3543 Y0.9733  
G01 X-1.2040 Y0.9518  
G01 X-1.2023 Y0.9515  
G01 X-1.2017 Y0.9515  
G01 X-1.2010 Y0.9514  
G01 X-1.1994 Y0.9515  
G01 X-0.4847 Y0.9515  
G01 X-0.3485 Y0.8153  
G01 X-0.3485 Y0.7847  
G01 X-0.3847 Y0.7485  
G01 X-0.6665 Y0.7485  
G01 X-0.6665 Y0.7639  
G01 X-0.6861 Y0.7835  
G01 X-0.7139 Y0.7835  
G01 X-0.7335 Y0.7639  
G01 X-0.7335 Y0.7361  
G01 X-0.7236 Y0.7262  
G01 X-0.7235 Y0.7245  
G01 X-0.7235 Y0.7227  
G01 X-0.7234 Y0.7222  
G01 X-0.7234 Y0.7218  
G01 X-0.7230 Y0.7200  
G01 X-0.7226 Y0.7181  
G01 X-0.7224 Y0.7177  
G01 X-0.6931 Y0.5954  
G01 X-0.6929 Y0.5940  
G01 X-0.6925 Y0.5932  
G01 X-0.6923 Y0.5923  
G01 X-0.6917 Y0.5910  
G01 X-0.6311 Y0.4263  
G01 X-0.6335 Y0.4239  
G01 X-0.6335 Y0.3961  
G01 X-0.6169 Y0.3795  
G01 X-0.5845 Y0.2435  
G01 X-0.5858 Y0.2405  
G01 X-0.5872 Y0.2333  
G01 X-0.5872 Y0.1667  
G01 X-0.5858 Y0.1595  
G01 X-0.5830 Y0.1527  
G01 X-0.5789 Y0.1466  
G01 X-0.5737 Y0.1414  
G01 X-0.5676 Y0.1374  
G01 X-0.5608 Y0.1346  
G01 X-0.5537 Y0.1331  
G01 X-0.5463 Y0.1331  
G01 X-0.5392 Y0.1346  
G01 X-0.5324 Y0.1374  
G01 X-0.5263 Y0.1414  
G01 X-0.5211 Y0.1466  
G00 Z0.0500  
G00 X-0.8526 Y0.1460  
G01 Z-0.0035 F10    
G01 X-0.8526 Y0.1540  F20    
G01 X-0.8539 Y0.1618  
G01 X-0.8563 Y0.1694  
G01 X-0.8600 Y0.1765  
G01 X-0.8646 Y0.1829  
G01 X-0.8703 Y0.1885  
G01 X-0.8767 Y0.1932  
G01 X-0.8838 Y0.1968  
G01 X-0.8913 Y0.1993  
G01 X-0.8992 Y0.2005  
G01 X-0.9071 Y0.2005  
G01 X-0.9150 Y0.1993  
G01 X-0.9225 Y0.1968  
G01 X-0.9241 Y0.1960  
G01 X-1.0963 Y0.3042  
G01 X-1.0971 Y0.3048  
G01 X-1.0983 Y0.3054  
G01 X-1.0995 Y0.3061  
G01 X-1.1003 Y0.3065  
G01 X-1.2049 Y0.3610  
G01 X-1.2269 Y0.4445  
G01 X-1.2270 Y0.4452  
G01 X-1.2272 Y0.4460  
G01 X-1.2274 Y0.4469  
G01 X-1.2277 Y0.4475  
G01 X-1.2279 Y0.4482  
G01 X-1.2282 Y0.4489  
G01 X-1.2284 Y0.4496  
G01 X-1.2289 Y0.4504  
G01 X-1.2292 Y0.4511  
G01 X-1.2296 Y0.4517  
G01 X-1.2299 Y0.4524  
G01 X-1.2304 Y0.4530  
G01 X-1.2307 Y0.4536  
G01 X-1.2313 Y0.4543  
G01 X-1.2317 Y0.4550  
G01 X-1.2323 Y0.4555  
G01 X-1.2327 Y0.4561  
G01 X-1.2333 Y0.4566  
G01 X-1.2338 Y0.4571  
G01 X-1.2344 Y0.4577  
G01 X-1.2365 Y0.4597  
G01 X-1.2365 Y0.4639  
G01 X-1.2561 Y0.4835  
G01 X-1.2604 Y0.4835  
G01 X-1.2607 Y0.4838  
G01 X-1.2623 Y0.4848  
G01 X-1.2639 Y0.4858  
G01 X-1.2643 Y0.4860  
G01 X-1.4615 Y0.6070  
G01 X-1.4615 Y0.6139  
G01 X-1.4811 Y0.6335  
G01 X-1.5089 Y0.6335  
G01 X-1.5285 Y0.6139  
G01 X-1.5285 Y0.5861  
G01 X-1.5089 Y0.5665  
G01 X-1.4853 Y0.5665  
G01 X-1.3035 Y0.4549  
G01 X-1.3035 Y0.4361  
G01 X-1.2839 Y0.4165  
G01 X-1.2681 Y0.4165  
G01 X-1.2482 Y0.3407  
G01 X-1.2481 Y0.3402  
G01 X-1.2476 Y0.3385  
G01 X-1.2471 Y0.3368  
G01 X-1.2469 Y0.3363  
G01 X-1.2467 Y0.3357  
G01 X-1.2459 Y0.3342  
G01 X-1.2451 Y0.3326  
G01 X-1.2448 Y0.3322  
G01 X-1.2445 Y0.3317  
G01 X-1.2434 Y0.3303  
G01 X-1.2423 Y0.3289  
G01 X-1.2419 Y0.3286  
G01 X-1.2415 Y0.3281  
G01 X-1.2402 Y0.3270  
G01 X-1.2388 Y0.3259  
G01 X-1.2384 Y0.3256  
G01 X-1.2379 Y0.3252  
G01 X-1.2364 Y0.3244  
G01 X-1.2348 Y0.3235  
G01 X-1.2343 Y0.3234  
G01 X-1.1217 Y0.2646  
G01 X-0.9529 Y0.1586  
G01 X-0.9536 Y0.1540  
G01 X-0.9536 Y0.1460  
G01 X-0.9524 Y0.1382  
G01 X-0.9499 Y0.1306  
G01 X-0.9463 Y0.1235  
G01 X-0.9417 Y0.1171  
G01 X-0.9360 Y0.1115  
G01 X-0.9296 Y0.1068  
G01 X-0.9225 Y0.1032  
G01 X-0.9150 Y0.1007  
G01 X-0.9071 Y0.0995  
G01 X-0.8992 Y0.0995  
G01 X-0.8913 Y0.1007  
G01 X-0.8838 Y0.1032  
G01 X-0.8767 Y0.1068  
G01 X-0.8703 Y0.1115  
G01 X-0.8646 Y0.1171  
G01 X-0.8600 Y0.1235  
G01 X-0.8563 Y0.1306  
G01 X-0.8539 Y0.1382  
G01 X-0.8526 Y0.1460  
G00 Z0.0500  
G00 X-1.0495 Y0.1460  
G01 Z-0.0035 F10    
G01 X-1.0495 Y0.1540  F20    
G01 X-1.0507 Y0.1618  
G01 X-1.0532 Y0.1694  
G01 X-1.0568 Y0.1765  
G01 X-1.0615 Y0.1829  
G01 X-1.0671 Y0.1885  
G01 X-1.0735 Y0.1932  
G01 X-1.0806 Y0.1968  
G01 X-1.0882 Y0.1993  
G01 X-1.0960 Y0.2005  
G01 X-1.1040 Y0.2005  
G01 X-1.1118 Y0.1993  
G01 X-1.1194 Y0.1968  
G01 X-1.1265 Y0.1932  
G01 X-1.1329 Y0.1885  
G01 X-1.1385 Y0.1829  
G01 X-1.1432 Y0.1765  
G01 X-1.1447 Y0.1735  
G01 X-1.2521 Y0.1735  
G01 X-1.2537 Y0.1765  
G01 X-1.2583 Y0.1829  
G01 X-1.2640 Y0.1885  
G01 X-1.2704 Y0.1932  
G01 X-1.2775 Y0.1968  
G01 X-1.2850 Y0.1993  
G01 X-1.2920 Y0.2004  
G01 X-1.3275 Y0.3067  
G01 X-1.3560 Y0.4167  
G01 X-1.3515 Y0.4211  
G01 X-1.3515 Y0.4489  
G01 X-1.3711 Y0.4685  
G01 X-1.3989 Y0.4685  
G01 X-1.4185 Y0.4489  
G01 X-1.4185 Y0.4211  
G01 X-1.4012 Y0.4038  
G01 X-1.3731 Y0.2956  
G01 X-1.3730 Y0.2948  
G01 X-1.3725 Y0.2933  
G01 X-1.3722 Y0.2919  
G01 X-1.3718 Y0.2911  
G01 X-1.3356 Y0.1826  
G01 X-1.3400 Y0.1765  
G01 X-1.3437 Y0.1694  
G01 X-1.3461 Y0.1618  
G01 X-1.3474 Y0.1540  
G01 X-1.3474 Y0.1460  
G01 X-1.3461 Y0.1382  
G01 X-1.3437 Y0.1306  
G01 X-1.3400 Y0.1235  
G01 X-1.3354 Y0.1171  
G01 X-1.3297 Y0.1115  
G01 X-1.3233 Y0.1068  
G01 X-1.3162 Y0.1032  
G01 X-1.3087 Y0.1007  
G01 X-1.3008 Y0.0995  
G01 X-1.2929 Y0.0995  
G01 X-1.2850 Y0.1007  
G01 X-1.2775 Y0.1032  
G01 X-1.2704 Y0.1068  
G01 X-1.2640 Y0.1115  
G01 X-1.2583 Y0.1171  
G01 X-1.2537 Y0.1235  
G01 X-1.2521 Y0.1265  
G01 X-1.1447 Y0.1265  
G01 X-1.1432 Y0.1235  
G01 X-1.1385 Y0.1171  
G01 X-1.1329 Y0.1115  
G01 X-1.1265 Y0.1068  
G01 X-1.1194 Y0.1032  
G01 X-1.1118 Y0.1007  
G01 X-1.1040 Y0.0995  
G01 X-1.0960 Y0.0995  
G01 X-1.0882 Y0.1007  
G01 X-1.0806 Y0.1032  
G01 X-1.0735 Y0.1068  
G01 X-1.0671 Y0.1115  
G01 X-1.0615 Y0.1171  
G01 X-1.0568 Y0.1235  
G01 X-1.0532 Y0.1306  
G01 X-1.0507 Y0.1382  
G01 X-1.0495 Y0.1460  
G00 Z0.0500  
G00 X-1.0361 Y0.3765  
G01 Z-0.0035 F10    
G01 X-1.0277 Y0.3850  F20    
G01 X-0.9148 Y0.3774  
G01 X-0.9139 Y0.3765  
G01 X-0.9008 Y0.3765  
G01 X-0.8993 Y0.3764  
G01 X-0.8985 Y0.3765  
G01 X-0.8861 Y0.3765  
G01 X-0.8665 Y0.3961  
G01 X-0.8665 Y0.4239  
G01 X-0.8861 Y0.4435  
G01 X-0.9139 Y0.4435  
G01 X-0.9317 Y0.4257  
G01 X-1.0245 Y0.4319  
G01 X-1.0361 Y0.4435  
G01 X-1.0639 Y0.4435  
G01 X-1.0739 Y0.4335  
G01 X-1.1261 Y0.4335  
G01 X-1.1361 Y0.4435  
G01 X-1.1639 Y0.4435  
G01 X-1.1835 Y0.4239  
G01 X-1.1835 Y0.3961  
G01 X-1.1639 Y0.3765  
G01 X-1.1361 Y0.3765  
G01 X-1.1261 Y0.3865  
G01 X-1.0739 Y0.3865  
G01 X-1.0639 Y0.3765  
G01 X-1.0361 Y0.3765  
G00 Z0.0500  
G00 X-0.9790 Y0.4661  
G01 Z-0.0035 F10    
G01 X-0.9733 Y0.4619  F20    
G01 X-0.9671 Y0.4588  
G01 X-0.9604 Y0.4566  
G01 X-0.9535 Y0.4555  
G01 X-0.9465 Y0.4555  
G01 X-0.9396 Y0.4566  
G01 X-0.9329 Y0.4588  
G01 X-0.9267 Y0.4619  
G01 X-0.9210 Y0.4661  
G01 X-0.9161 Y0.4710  
G01 X-0.9119 Y0.4767  
G01 X-0.9088 Y0.4829  
G01 X-0.9066 Y0.4896  
G01 X-0.9055 Y0.4965  
G01 X-0.9055 Y0.5035  
G01 X-0.9066 Y0.5104  
G01 X-0.9088 Y0.5171  
G01 X-0.9119 Y0.5233  
G01 X-0.9161 Y0.5290  
G01 X-0.9210 Y0.5339  
G01 X-0.9267 Y0.5381  
G01 X-0.9329 Y0.5412  
G01 X-0.9396 Y0.5434  
G01 X-0.9465 Y0.5445  
G01 X-0.9498 Y0.5445  
G01 X-1.0081 Y0.6392  
G01 X-1.0211 Y0.6915  
G01 X-1.0165 Y0.6961  
G01 X-1.0165 Y0.7239  
G01 X-1.0361 Y0.7435  
G01 X-1.0639 Y0.7435  
G01 X-1.0835 Y0.7239  
G01 X-1.0835 Y0.6961  
G01 X-1.0665 Y0.6791  
G01 X-1.0530 Y0.6253  
G01 X-1.0528 Y0.6240  
G01 X-1.0525 Y0.6230  
G01 X-1.0522 Y0.6221  
G01 X-1.0517 Y0.6209  
G01 X-1.0512 Y0.6197  
G01 X-1.0507 Y0.6188  
G01 X-1.0503 Y0.6179  
G01 X-1.0495 Y0.6168  
G01 X-0.9898 Y0.5199  
G01 X-0.9912 Y0.5171  
G01 X-0.9934 Y0.5104  
G01 X-0.9945 Y0.5035  
G01 X-0.9945 Y0.4965  
G01 X-0.9934 Y0.4896  
G01 X-0.9912 Y0.4829  
G01 X-0.9881 Y0.4767  
G01 X-0.9839 Y0.4710  
G01 X-0.9790 Y0.4661  
G00 Z0.0500  
G00 X-0.8639 Y0.5665  
G01 Z-0.0035 F10    
G01 X-0.8361 Y0.5665  F20    
G01 X-0.8165 Y0.5861  
G01 X-0.8165 Y0.6139  
G01 X-0.8221 Y0.6195  
G01 X-0.7807 Y0.8265  
G01 X-0.7239 Y0.8265  
G01 X-0.7139 Y0.8165  
G01 X-0.6861 Y0.8165  
G01 X-0.6665 Y0.8361  
G01 X-0.6665 Y0.8639  
G01 X-0.6861 Y0.8835  
G01 X-0.7139 Y0.8835  
G01 X-0.7239 Y0.8735  
G01 X-0.7903 Y0.8735  
G01 X-0.8165 Y0.8997  
G01 X-0.8165 Y0.9139  
G01 X-0.8361 Y0.9335  
G01 X-0.8639 Y0.9335  
G01 X-0.8835 Y0.9139  
G01 X-0.8835 Y0.8861  
G01 X-0.8639 Y0.8665  
G01 X-0.8497 Y0.8665  
G01 X-0.8255 Y0.8423  
G01 X-0.8681 Y0.6293  
G01 X-0.8835 Y0.6139  
G01 X-0.8835 Y0.5861  
G01 X-0.8639 Y0.5665  
G00 Z0.0500  
G00 X-0.9161 Y0.7710  
G01 Z-0.0035 F10    
G01 X-0.9119 Y0.7767  F20    
G01 X-0.9088 Y0.7829  
G01 X-0.9066 Y0.7896  
G01 X-0.9055 Y0.7965  
G01 X-0.9055 Y0.8035  
G01 X-0.9066 Y0.8104  
G01 X-0.9088 Y0.8171  
G01 X-0.9119 Y0.8233  
G01 X-0.9161 Y0.8290  
G01 X-0.9210 Y0.8339  
G01 X-0.9267 Y0.8381  
G01 X-0.9329 Y0.8412  
G01 X-0.9396 Y0.8434  
G01 X-0.9465 Y0.8445  
G01 X-0.9535 Y0.8445  
G01 X-0.9602 Y0.8434  
G01 X-1.0165 Y0.8997  
G01 X-1.0165 Y0.9139  
G01 X-1.0361 Y0.9335  
G01 X-1.0639 Y0.9335  
G01 X-1.0739 Y0.9235  
G01 X-1.1511 Y0.9235  
G01 X-1.1611 Y0.9335  
G01 X-1.1889 Y0.9335  
G01 X-1.2085 Y0.9139  
G01 X-1.2085 Y0.8861  
G01 X-1.1889 Y0.8665  
G01 X-1.1611 Y0.8665  
G01 X-1.1511 Y0.8765  
G01 X-1.0739 Y0.8765  
G01 X-1.0639 Y0.8665  
G01 X-1.0497 Y0.8665  
G01 X-0.9934 Y0.8102  
G01 X-0.9945 Y0.8035  
G01 X-0.9945 Y0.7965  
G01 X-0.9934 Y0.7896  
G01 X-0.9912 Y0.7829  
G01 X-0.9881 Y0.7767  
G01 X-0.9839 Y0.7710  
G01 X-0.9790 Y0.7661  
G01 X-0.9733 Y0.7619  
G01 X-0.9671 Y0.7588  
G01 X-0.9604 Y0.7566  
G01 X-0.9535 Y0.7555  
G01 X-0.9465 Y0.7555  
G01 X-0.9396 Y0.7566  
G01 X-0.9329 Y0.7588  
G01 X-0.9267 Y0.7619  
G01 X-0.9210 Y0.7661  
G01 X-0.9161 Y0.7710  
G00 Z0.0500  
G00 X-1.1361 Y0.7435  
G01 Z-0.0035 F10    
G01 X-1.1639 Y0.7435  F20    
G01 X-1.1835 Y0.7239  
G01 X-1.1835 Y0.7195  
G01 X-1.2559 Y0.6833  
G01 X-1.2561 Y0.6835  
G01 X-1.2839 Y0.6835  
G01 X-1.2939 Y0.6735  
G01 X-1.3922 Y0.6735  
G01 X-1.4665 Y0.7292  
G01 X-1.4665 Y0.7389  
G01 X-1.4861 Y0.7585  
G01 X-1.5139 Y0.7585  
G01 X-1.5335 Y0.7389  
G01 X-1.5335 Y0.7111  
G01 X-1.5139 Y0.6915  
G01 X-1.4945 Y0.6915  
G01 X-1.4154 Y0.6322  
G01 X-1.4150 Y0.6317  
G01 X-1.4136 Y0.6308  
G01 X-1.4122 Y0.6298  
G01 X-1.4117 Y0.6295  
G01 X-1.4111 Y0.6292  
G01 X-1.4096 Y0.6285  
G01 X-1.4081 Y0.6278  
G01 X-1.4075 Y0.6276  
G01 X-1.4069 Y0.6274  
G01 X-1.4052 Y0.6271  
G01 X-1.4036 Y0.6267  
G01 X-1.4029 Y0.6266  
G01 X-1.4023 Y0.6265  
G01 X-1.4006 Y0.6265  
G01 X-1.3990 Y0.6264  
G01 X-1.3983 Y0.6265  
G01 X-1.2939 Y0.6265  
G01 X-1.2839 Y0.6165  
G01 X-1.2561 Y0.6165  
G01 X-1.2365 Y0.6361  
G01 X-1.2365 Y0.6405  
G01 X-1.1641 Y0.6767  
G01 X-1.1639 Y0.6765  
G01 X-1.1361 Y0.6765  
G01 X-1.1165 Y0.6961  
G01 X-1.1165 Y0.7239  
G01 X-1.1361 Y0.7435  
G00 Z0.0500  
G00 X-0.6389 Y0.7665  
G01 Z-0.0035 F10    
G01 X-0.6111 Y0.7665  F20    
G01 X-0.6011 Y0.7765  
G01 X-0.4639 Y0.7765  
G01 X-0.4539 Y0.7665  
G01 X-0.4261 Y0.7665  
G01 X-0.4065 Y0.7861  
G01 X-0.4065 Y0.8139  
G01 X-0.4261 Y0.8335  
G01 X-0.4539 Y0.8335  
G01 X-0.4639 Y0.8235  
G01 X-0.6011 Y0.8235  
G01 X-0.6111 Y0.8335  
G01 X-0.6389 Y0.8335  
G01 X-0.6585 Y0.8139  
G01 X-0.6585 Y0.7861  
G01 X-0.6389 Y0.7665  
G00 Z0.0500  
G00 X-1.5915 Y0.8611  
G01 Z-0.0035 F10    
G01 X-1.5915 Y0.8889  F20    
G01 X-1.6111 Y0.9085  
G01 X-1.6389 Y0.9085  
G01 X-1.6585 Y0.8889  
G01 X-1.6585 Y0.8611  
G01 X-1.6485 Y0.8511  
G01 X-1.6485 Y0.6888  
G01 X-1.6969 Y0.6335  
G01 X-1.7089 Y0.6335  
G01 X-1.7285 Y0.6139  
G01 X-1.7285 Y0.5861  
G01 X-1.7131 Y0.5707  
G01 X-1.7029 Y0.5195  
G01 X-1.7085 Y0.5139  
G01 X-1.7085 Y0.4861  
G01 X-1.6889 Y0.4665  
G01 X-1.6611 Y0.4665  
G01 X-1.6415 Y0.4861  
G01 X-1.6415 Y0.5139  
G01 X-1.6569 Y0.5293  
G01 X-1.6671 Y0.5805  
G01 X-1.6615 Y0.5861  
G01 X-1.6615 Y0.6026  
G01 X-1.6078 Y0.6639  
G01 X-1.6067 Y0.6650  
G01 X-1.6063 Y0.6657  
G01 X-1.6058 Y0.6663  
G01 X-1.6050 Y0.6676  
G01 X-1.6042 Y0.6689  
G01 X-1.6039 Y0.6696  
G01 X-1.6035 Y0.6703  
G01 X-1.6030 Y0.6717  
G01 X-1.6024 Y0.6731  
G01 X-1.6022 Y0.6739  
G01 X-1.6020 Y0.6747  
G01 X-1.6018 Y0.6762  
G01 X-1.6015 Y0.6777  
G01 X-1.6015 Y0.6785  
G01 X-1.6014 Y0.6793  
G01 X-1.6015 Y0.6808  
G01 X-1.6015 Y0.8511  
G01 X-1.5915 Y0.8611  
G00 Z0.0500  
G00 X-1.6765 Y0.8740  
G01 Z-0.0035 F10    
G01 X-1.6764 Y0.8753  F20    
G01 X-1.6765 Y0.8763  
G01 X-1.6765 Y0.8773  
G01 X-1.6768 Y0.8786  
G01 X-1.6769 Y0.8799  
G01 X-1.6772 Y0.8809  
G01 X-1.6774 Y0.8819  
G01 X-1.6779 Y0.8831  
G01 X-1.6783 Y0.8843  
G01 X-1.6788 Y0.8852  
G01 X-1.6792 Y0.8861  
G01 X-1.6799 Y0.8872  
G01 X-1.6805 Y0.8884  
G01 X-1.6812 Y0.8891  
G01 X-1.6817 Y0.8900  
G01 X-1.6827 Y0.8909  
G01 X-1.6835 Y0.8919  
G01 X-1.6843 Y0.8925  
G01 X-1.6850 Y0.8933  
G01 X-1.6861 Y0.8940  
G01 X-1.8093 Y0.9925  
G01 X-1.8100 Y0.9933  
G01 X-1.8111 Y0.9940  
G01 X-1.8121 Y0.9948  
G01 X-1.8130 Y0.9953  
G01 X-1.8139 Y0.9958  
G01 X-1.8151 Y0.9963  
G01 X-1.8162 Y0.9969  
G01 X-1.8172 Y0.9972  
G01 X-1.8181 Y0.9976  
G01 X-1.8194 Y0.9979  
G01 X-1.8207 Y0.9982  
G01 X-1.8217 Y0.9983  
G01 X-1.8227 Y0.9985  
G01 X-1.8240 Y0.9985  
G01 X-1.8253 Y0.9986  
G01 X-1.8263 Y0.9985  
G01 X-2.1244 Y0.9985  
G01 X-2.1262 Y0.9986  
G01 X-2.1267 Y0.9985  
G01 X-2.1273 Y0.9985  
G01 X-2.1290 Y0.9982  
G01 X-2.1307 Y0.9979  
G01 X-2.1313 Y0.9977  
G01 X-2.1319 Y0.9976  
G01 X-2.1335 Y0.9969  
G01 X-2.1351 Y0.9963  
G01 X-2.1356 Y0.9960  
G01 X-2.1361 Y0.9958  
G01 X-2.1376 Y0.9949  
G01 X-2.2398 Y0.9335  
G01 X-2.2639 Y0.9335  
G01 X-2.2835 Y0.9139  
G01 X-2.2835 Y0.8861  
G01 X-2.2789 Y0.8815  
G01 X-2.2908 Y0.8335  
G01 X-2.3139 Y0.8335  
G01 X-2.3239 Y0.8235  
G01 X-2.3246 Y0.8236  
G01 X-2.3260 Y0.8235  
G01 X-2.3273 Y0.8235  
G01 X-2.3283 Y0.8233  
G01 X-2.3292 Y0.8232  
G01 X-2.3305 Y0.8229  
G01 X-2.3319 Y0.8226  
G01 X-2.3327 Y0.8222  
G01 X-2.3772 Y0.8095  
G01 X-2.3811 Y0.8135  
G01 X-2.4089 Y0.8135  
G01 X-2.4285 Y0.7939  
G01 X-2.4285 Y0.7661  
G01 X-2.4089 Y0.7465  
G01 X-2.3811 Y0.7465  
G01 X-2.3629 Y0.7647  
G01 X-2.3234 Y0.7760  
G01 X-2.3139 Y0.7665  
G01 X-2.2861 Y0.7665  
G01 X-2.2816 Y0.7711  
G01 X-2.2135 Y0.6887  
G01 X-2.2135 Y0.6711  
G01 X-2.1939 Y0.6515  
G01 X-2.1661 Y0.6515  
G01 X-2.1465 Y0.6711  
G01 X-2.1465 Y0.6989  
G01 X-2.1661 Y0.7185  
G01 X-2.1772 Y0.7185  
G01 X-2.2493 Y0.8058  
G01 X-2.2335 Y0.8691  
G01 X-2.2165 Y0.8861  
G01 X-2.2165 Y0.8927  
G01 X-2.1185 Y0.9515  
G01 X-1.8332 Y0.9515  
G01 X-1.7235 Y0.8637  
G01 X-1.7235 Y0.7489  
G01 X-1.7335 Y0.7389  
G01 X-1.7335 Y0.7111  
G01 X-1.7139 Y0.6915  
G01 X-1.6861 Y0.6915  
G01 X-1.6665 Y0.7111  
G01 X-1.6665 Y0.7389  
G01 X-1.6765 Y0.7489  
G01 X-1.6765 Y0.8740  
G00 Z0.0500  
G00 X-1.6889 Y0.9665  
G01 Z-0.0035 F10    
G01 X-1.6611 Y0.9665  F20    
G01 X-1.6415 Y0.9861  
G01 X-1.6415 Y1.0139  
G01 X-1.6611 Y1.0335  
G01 X-1.6889 Y1.0335  
G01 X-1.6963 Y1.0261  
G01 X-1.7348 Y1.0531  
G01 X-1.7350 Y1.0533  
G01 X-1.7367 Y1.0544  
G01 X-1.7384 Y1.0556  
G01 X-1.7387 Y1.0557  
G01 X-1.7389 Y1.0558  
G01 X-1.7408 Y1.0566  
G01 X-1.7427 Y1.0574  
G01 X-1.7429 Y1.0575  
G01 X-1.7431 Y1.0576  
G01 X-1.7452 Y1.0580  
G01 X-1.7472 Y1.0584  
G01 X-1.7474 Y1.0584  
G01 X-1.7477 Y1.0585  
G01 X-1.7497 Y1.0585  
G01 X-1.7518 Y1.0585  
G01 X-1.7521 Y1.0585  
G01 X-2.1492 Y1.0585  
G01 X-2.1508 Y1.0586  
G01 X-2.1515 Y1.0585  
G01 X-2.1523 Y1.0585  
G01 X-2.1538 Y1.0582  
G01 X-2.1554 Y1.0580  
G01 X-2.1561 Y1.0577  
G01 X-2.1569 Y1.0576  
G01 X-2.1583 Y1.0570  
G01 X-2.4039 Y0.9735  
G01 X-2.4611 Y0.9735  
G01 X-2.4711 Y0.9835  
G01 X-2.4989 Y0.9835  
G01 X-2.5185 Y0.9639  
G01 X-2.5185 Y0.9398  
G01 X-2.5199 Y0.9376  
G01 X-2.5208 Y0.9361  
G01 X-2.5210 Y0.9356  
G01 X-2.5213 Y0.9351  
G01 X-2.5219 Y0.9335  
G01 X-2.5226 Y0.9319  
G01 X-2.5227 Y0.9313  
G01 X-2.5229 Y0.9307  
G01 X-2.5232 Y0.9290  
G01 X-2.5235 Y0.9273  
G01 X-2.5235 Y0.9267  
G01 X-2.5236 Y0.9262  
G01 X-2.5235 Y0.9244  
G01 X-2.5235 Y0.8489  
G01 X-2.5335 Y0.8389  
G01 X-2.5335 Y0.8174  
G01 X-2.5787 Y0.7335  
G01 X-2.5839 Y0.7335  
G01 X-2.6035 Y0.7139  
G01 X-2.6035 Y0.6965  
G01 X-2.6727 Y0.6135  
G01 X-2.6839 Y0.6135  
G01 X-2.7035 Y0.5939  
G01 X-2.7035 Y0.5661  
G01 X-2.6839 Y0.5465  
G01 X-2.6561 Y0.5465  
G01 X-2.6365 Y0.5661  
G01 X-2.6365 Y0.5835  
G01 X-2.5673 Y0.6665  
G01 X-2.5561 Y0.6665  
G01 X-2.5365 Y0.6861  
G01 X-2.5365 Y0.7126  
G01 X-2.4940 Y0.7915  
G01 X-2.4861 Y0.7915  
G01 X-2.4665 Y0.8111  
G01 X-2.4665 Y0.8389  
G01 X-2.4765 Y0.8489  
G01 X-2.4765 Y0.9165  
G01 X-2.4711 Y0.9165  
G01 X-2.4611 Y0.9265  
G01 X-2.4008 Y0.9265  
G01 X-2.3992 Y0.9264  
G01 X-2.3985 Y0.9265  
G01 X-2.3977 Y0.9265  
G01 X-2.3962 Y0.9268  
G01 X-2.3946 Y0.9270  
G01 X-2.3939 Y0.9273  
G01 X-2.3931 Y0.9274  
G01 X-2.3917 Y0.9280  
G01 X-2.1461 Y1.0115  
G01 X-1.7574 Y1.0115  
G01 X-1.7152 Y0.9819  
G01 X-1.7150 Y0.9817  
G01 X-1.7133 Y0.9806  
G01 X-1.7116 Y0.9794  
G01 X-1.7113 Y0.9793  
G01 X-1.7111 Y0.9792  
G01 X-1.7092 Y0.9784  
G01 X-1.7073 Y0.9776  
G01 X-1.7071 Y0.9775  
G01 X-1.7069 Y0.9774  
G01 X-1.7048 Y0.9770  
G01 X-1.7028 Y0.9766  
G01 X-1.7026 Y0.9766  
G01 X-1.7023 Y0.9765  
G01 X-1.7003 Y0.9765  
G01 X-1.6988 Y0.9765  
G01 X-1.6889 Y0.9665  
G00 Z0.0500  
G00 X-1.8111 Y0.9085  
G01 Z-0.0035 F10    
G01 X-1.8389 Y0.9085  F20    
G01 X-1.8489 Y0.8985  
G01 X-1.9153 Y0.8985  
G01 X-1.9165 Y0.8997  
G01 X-1.9165 Y0.9139  
G01 X-1.9361 Y0.9335  
G01 X-1.9639 Y0.9335  
G01 X-1.9835 Y0.9139  
G01 X-1.9835 Y0.9136  
G01 X-2.1068 Y0.8725  
G01 X-2.1084 Y0.8721  
G01 X-2.1090 Y0.8718  
G01 X-2.1096 Y0.8716  
G01 X-2.1111 Y0.8707  
G01 X-2.1126 Y0.8700  
G01 X-2.1131 Y0.8696  
G01 X-2.1136 Y0.8693  
G01 X-2.1149 Y0.8682  
G01 X-2.1162 Y0.8671  
G01 X-2.1167 Y0.8667  
G01 X-2.1171 Y0.8662  
G01 X-2.1182 Y0.8649  
G01 X-2.1193 Y0.8636  
G01 X-2.1196 Y0.8631  
G01 X-2.1200 Y0.8626  
G01 X-2.1207 Y0.8611  
G01 X-2.1216 Y0.8596  
G01 X-2.1218 Y0.8590  
G01 X-2.1221 Y0.8584  
G01 X-2.1225 Y0.8568  
G01 X-2.1436 Y0.7935  
G01 X-2.1439 Y0.7935  
G01 X-2.1635 Y0.7739  
G01 X-2.1635 Y0.7461  
G01 X-2.1439 Y0.7265  
G01 X-2.1161 Y0.7265  
G01 X-2.0965 Y0.7461  
G01 X-2.0965 Y0.7739  
G01 X-2.0996 Y0.7770  
G01 X-2.0814 Y0.8314  
G01 X-1.9670 Y0.8696  
G01 X-1.9639 Y0.8665  
G01 X-1.9497 Y0.8665  
G01 X-1.9433 Y0.8600  
G01 X-1.9400 Y0.8567  
G01 X-1.9361 Y0.8542  
G01 X-1.9319 Y0.8524  
G01 X-1.9273 Y0.8515  
G01 X-1.8489 Y0.8515  
G01 X-1.8389 Y0.8415  
G01 X-1.8111 Y0.8415  
G01 X-1.7915 Y0.8611  
G01 X-1.7915 Y0.8889  
G01 X-1.8111 Y0.9085  
G00 Z0.0500  
G00 X-1.8846 Y0.8179  
G01 Z-0.0035 F10    
G01 X-1.8848 Y0.8180  F20    
G01 X-1.8850 Y0.8183  
G01 X-1.8867 Y0.8194  
G01 X-1.8883 Y0.8205  
G01 X-1.8886 Y0.8207  
G01 X-1.8889 Y0.8208  
G01 X-1.8907 Y0.8216  
G01 X-1.8926 Y0.8224  
G01 X-1.8929 Y0.8225  
G01 X-1.8931 Y0.8226  
G01 X-1.8951 Y0.8230  
G01 X-1.8971 Y0.8234  
G01 X-1.8974 Y0.8234  
G01 X-1.8977 Y0.8235  
G01 X-1.8997 Y0.8235  
G01 X-1.9017 Y0.8236  
G01 X-1.9020 Y0.8235  
G01 X-2.0244 Y0.8235  
G01 X-2.0261 Y0.8236  
G01 X-2.0267 Y0.8235  
G01 X-2.0273 Y0.8235  
G01 X-2.0290 Y0.8232  
G01 X-2.0306 Y0.8229  
G01 X-2.0312 Y0.8227  
G01 X-2.0319 Y0.8226  
G01 X-2.0334 Y0.8220  
G01 X-2.0350 Y0.8214  
G01 X-2.0355 Y0.8211  
G01 X-2.0361 Y0.8208  
G01 X-2.0375 Y0.8199  
G01 X-2.0390 Y0.8190  
G01 X-2.0395 Y0.8186  
G01 X-2.0400 Y0.8183  
G01 X-2.0412 Y0.8171  
G01 X-2.0424 Y0.8159  
G01 X-2.0428 Y0.8154  
G01 X-2.0433 Y0.8150  
G01 X-2.0442 Y0.8136  
G01 X-2.0452 Y0.8122  
G01 X-2.0455 Y0.8117  
G01 X-2.0458 Y0.8111  
G01 X-2.0465 Y0.8096  
G01 X-2.0900 Y0.7185  
G01 X-2.0939 Y0.7185  
G01 X-2.1135 Y0.6989  
G01 X-2.1135 Y0.6711  
G01 X-2.0939 Y0.6515  
G01 X-2.0661 Y0.6515  
G01 X-2.0465 Y0.6711  
G01 X-2.0465 Y0.6989  
G01 X-2.0471 Y0.6994  
G01 X-2.0102 Y0.7765  
G01 X-1.9161 Y0.7765  
G01 X-1.7977 Y0.4684  
G01 X-1.7976 Y0.4681  
G01 X-1.7968 Y0.4663  
G01 X-1.7961 Y0.4644  
G01 X-1.7959 Y0.4641  
G01 X-1.7958 Y0.4639  
G01 X-1.7947 Y0.4622  
G01 X-1.7936 Y0.4605  
G01 X-1.7934 Y0.4603  
G01 X-1.7933 Y0.4600  
G01 X-1.7918 Y0.4586  
G01 X-1.7904 Y0.4571  
G01 X-1.7902 Y0.4570  
G01 X-1.7435 Y0.4103  
G01 X-1.7435 Y0.2786  
G01 X-1.8025 Y0.2085  
G01 X-1.8139 Y0.2085  
G01 X-1.8286 Y0.1938  
G01 X-1.9806 Y0.1670  
G01 X-1.9813 Y0.1694  
G01 X-1.9850 Y0.1765  
G01 X-1.9896 Y0.1829  
G01 X-1.9953 Y0.1885  
G01 X-2.0017 Y0.1932  
G01 X-2.0088 Y0.1968  
G01 X-2.0163 Y0.1993  
G01 X-2.0242 Y0.2005  
G01 X-2.0321 Y0.2005  
G01 X-2.0400 Y0.1993  
G01 X-2.0475 Y0.1968  
G01 X-2.0546 Y0.1932  
G01 X-2.0610 Y0.1885  
G01 X-2.0667 Y0.1829  
G01 X-2.0713 Y0.1765  
G01 X-2.0749 Y0.1694  
G01 X-2.0774 Y0.1618  
G01 X-2.0786 Y0.1540  
G01 X-2.0786 Y0.1460  
G01 X-2.0774 Y0.1382  
G01 X-2.0749 Y0.1306  
G01 X-2.0713 Y0.1235  
G01 X-2.0667 Y0.1171  
G01 X-2.0610 Y0.1115  
G01 X-2.0546 Y0.1068  
G01 X-2.0475 Y0.1032  
G01 X-2.0400 Y0.1007  
G01 X-2.0321 Y0.0995  
G01 X-2.0242 Y0.0995  
G01 X-2.0163 Y0.1007  
G01 X-2.0088 Y0.1032  
G01 X-2.0069 Y0.1024  
G01 X-2.0023 Y0.1015  
G01 X-1.9977 Y0.1015  
G01 X-1.9931 Y0.1024  
G01 X-1.9889 Y0.1042  
G01 X-1.9850 Y0.1067  
G01 X-1.9817 Y0.1100  
G01 X-1.9792 Y0.1139  
G01 X-1.9774 Y0.1181  
G01 X-1.9771 Y0.1199  
G01 X-1.8200 Y0.1476  
G01 X-1.8139 Y0.1415  
G01 X-1.7861 Y0.1415  
G01 X-1.7665 Y0.1611  
G01 X-1.7665 Y0.1783  
G01 X-1.7027 Y0.2541  
G01 X-1.7017 Y0.2550  
G01 X-1.7012 Y0.2559  
G01 X-1.7005 Y0.2566  
G01 X-1.6999 Y0.2578  
G01 X-1.6992 Y0.2589  
G01 X-1.6988 Y0.2598  
G01 X-1.6983 Y0.2607  
G01 X-1.6979 Y0.2619  
G01 X-1.6974 Y0.2631  
G01 X-1.6972 Y0.2641  
G01 X-1.6969 Y0.2651  
G01 X-1.6968 Y0.2664  
G01 X-1.6965 Y0.2677  
G01 X-1.6965 Y0.2687  
G01 X-1.6964 Y0.2697  
G01 X-1.6965 Y0.2710  
G01 X-1.6965 Y0.4223  
G01 X-1.6974 Y0.4269  
G01 X-1.6992 Y0.4311  
G01 X-1.7017 Y0.4350  
G01 X-1.7050 Y0.4383  
G01 X-1.7549 Y0.4881  
G01 X-1.8773 Y0.8066  
G01 X-1.8774 Y0.8069  
G01 X-1.8782 Y0.8087  
G01 X-1.8789 Y0.8106  
G01 X-1.8791 Y0.8109  
G01 X-1.8792 Y0.8111  
G01 X-1.8803 Y0.8128  
G01 X-1.8814 Y0.8145  
G01 X-1.8816 Y0.8147  
G01 X-1.8817 Y0.8150  
G01 X-1.8832 Y0.8164  
G01 X-1.8846 Y0.8179  
G00 Z0.0500  
G00 X-1.8712 Y0.3985  
G01 Z-0.0035 F10    
G01 X-1.9315 Y0.4186  F20    
G01 X-1.9315 Y0.4289  
G01 X-1.9511 Y0.4485  
G01 X-1.9789 Y0.4485  
G01 X-1.9985 Y0.4289  
G01 X-1.9985 Y0.4144  
G01 X-2.2105 Y0.1984  
G01 X-2.2132 Y0.1993  
G01 X-2.2210 Y0.2005  
G01 X-2.2290 Y0.2005  
G01 X-2.2368 Y0.1993  
G01 X-2.2444 Y0.1968  
G01 X-2.2515 Y0.1932  
G01 X-2.2579 Y0.1885  
G01 X-2.2635 Y0.1829  
G01 X-2.2682 Y0.1765  
G01 X-2.2718 Y0.1694  
G01 X-2.2743 Y0.1618  
G01 X-2.2755 Y0.1540  
G01 X-2.2755 Y0.1460  
G01 X-2.2743 Y0.1382  
G01 X-2.2718 Y0.1306  
G01 X-2.2682 Y0.1235  
G01 X-2.2635 Y0.1171  
G01 X-2.2579 Y0.1115  
G01 X-2.2515 Y0.1068  
G01 X-2.2444 Y0.1032  
G01 X-2.2368 Y0.1007  
G01 X-2.2290 Y0.0995  
G01 X-2.2210 Y0.0995  
G01 X-2.2132 Y0.1007  
G01 X-2.2056 Y0.1032  
G01 X-2.1985 Y0.1068  
G01 X-2.1921 Y0.1115  
G01 X-2.1865 Y0.1171  
G01 X-2.1818 Y0.1235  
G01 X-2.1782 Y0.1306  
G01 X-2.1757 Y0.1382  
G01 X-2.1745 Y0.1460  
G01 X-2.1745 Y0.1540  
G01 X-2.1757 Y0.1618  
G01 X-2.1769 Y0.1654  
G01 X-1.9649 Y0.3815  
G01 X-1.9646 Y0.3815  
G01 X-1.9643 Y0.3813  
G01 X-1.9636 Y0.3807  
G01 X-1.9624 Y0.3800  
G01 X-1.9611 Y0.3792  
G01 X-1.9604 Y0.3789  
G01 X-1.9596 Y0.3784  
G01 X-1.9582 Y0.3780  
G01 X-1.9569 Y0.3774  
G01 X-1.9560 Y0.3772  
G01 X-1.8832 Y0.3530  
G01 X-1.8819 Y0.3524  
G01 X-1.8810 Y0.3522  
G01 X-1.8802 Y0.3520  
G01 X-1.8788 Y0.3518  
G01 X-1.8773 Y0.3515  
G01 X-1.8765 Y0.3515  
G01 X-1.8756 Y0.3514  
G01 X-1.8742 Y0.3515  
G01 X-1.8239 Y0.3515  
G01 X-1.8139 Y0.3415  
G01 X-1.7861 Y0.3415  
G01 X-1.7665 Y0.3611  
G01 X-1.7665 Y0.3889  
G01 X-1.7861 Y0.4085  
G01 X-1.8139 Y0.4085  
G01 X-1.8239 Y0.3985  
G01 X-1.8712 Y0.3985  
G00 Z0.0500  
G00 X-2.2915 Y0.4111  
G01 Z-0.0035 F10    
G01 X-2.2915 Y0.4253  F20    
G01 X-2.2817 Y0.4350  
G01 X-2.2792 Y0.4389  
G01 X-2.2774 Y0.4431  
G01 X-2.2765 Y0.4477  
G01 X-2.2765 Y0.5761  
G01 X-2.2665 Y0.5861  
G01 X-2.2665 Y0.6139  
G01 X-2.2861 Y0.6335  
G01 X-2.3139 Y0.6335  
G01 X-2.3335 Y0.6139  
G01 X-2.3335 Y0.5861  
G01 X-2.3235 Y0.5761  
G01 X-2.3235 Y0.4597  
G01 X-2.3247 Y0.4585  
G01 X-2.3389 Y0.4585  
G01 X-2.3543 Y0.4431  
G01 X-2.4305 Y0.4279  
G01 X-2.4361 Y0.4335  
G01 X-2.4639 Y0.4335  
G01 X-2.4835 Y0.4139  
G01 X-2.4835 Y0.3861  
G01 X-2.4639 Y0.3665  
G01 X-2.4361 Y0.3665  
G01 X-2.4207 Y0.3819  
G01 X-2.3445 Y0.3971  
G01 X-2.3389 Y0.3915  
G01 X-2.3111 Y0.3915  
G01 X-2.2915 Y0.4111  
G00 Z0.0500  
G00 X-2.5365 Y0.4861  
G01 Z-0.0035 F10    
G01 X-2.5365 Y0.5043  F20    
G01 X-2.5325 Y0.5093  
G01 X-2.4317 Y0.6100  
G01 X-2.4292 Y0.6139  
G01 X-2.4274 Y0.6181  
G01 X-2.4265 Y0.6227  
G01 X-2.4265 Y0.6761  
G01 X-2.4165 Y0.6861  
G01 X-2.4165 Y0.7139  
G01 X-2.4361 Y0.7335  
G01 X-2.4639 Y0.7335  
G01 X-2.4835 Y0.7139  
G01 X-2.4835 Y0.6861  
G01 X-2.4735 Y0.6761  
G01 X-2.4735 Y0.6347  
G01 X-2.5659 Y0.5423  
G01 X-2.5669 Y0.5415  
G01 X-2.5675 Y0.5407  
G01 X-2.5683 Y0.5400  
G01 X-2.5690 Y0.5389  
G01 X-2.5733 Y0.5335  
G01 X-2.5839 Y0.5335  
G01 X-2.6035 Y0.5139  
G01 X-2.6035 Y0.4861  
G01 X-2.5839 Y0.4665  
G01 X-2.5561 Y0.4665  
G01 X-2.5365 Y0.4861  
G00 Z0.0500  
G00 X-2.6819 Y0.4801  
G01 Z-0.0035 F10    
G01 X-2.7115 Y0.5229  F20    
G01 X-2.7115 Y0.5439  
G01 X-2.7311 Y0.5635  
G01 X-2.7589 Y0.5635  
G01 X-2.7785 Y0.5439  
G01 X-2.7785 Y0.5161  
G01 X-2.7589 Y0.4965  
G01 X-2.7504 Y0.4965  
G01 X-2.7235 Y0.4577  
G01 X-2.7235 Y0.4239  
G01 X-2.7335 Y0.4139  
G01 X-2.7335 Y0.3861  
G01 X-2.7139 Y0.3665  
G01 X-2.6861 Y0.3665  
G01 X-2.6665 Y0.3861  
G01 X-2.6665 Y0.4139  
G01 X-2.6765 Y0.4239  
G01 X-2.6765 Y0.4629  
G01 X-2.6765 Y0.4631  
G01 X-2.6765 Y0.4652  
G01 X-2.6765 Y0.4673  
G01 X-2.6765 Y0.4675  
G01 X-2.6765 Y0.4677  
G01 X-2.6770 Y0.4698  
G01 X-2.6774 Y0.4719  
G01 X-2.6775 Y0.4720  
G01 X-2.6775 Y0.4722  
G01 X-2.6784 Y0.4742  
G01 X-2.6792 Y0.4761  
G01 X-2.6793 Y0.4763  
G01 X-2.6794 Y0.4765  
G01 X-2.6806 Y0.4782  
G01 X-2.6817 Y0.4800  
G01 X-2.6819 Y0.4801  
G00 Z0.0500  
G00 X-2.7115 Y0.6161  
G01 Z-0.0035 F10    
G01 X-2.7115 Y0.6439  F20    
G01 X-2.7188 Y0.6512  
G01 X-2.7026 Y0.7892  
G01 X-2.7003 Y0.7915  
G01 X-2.6861 Y0.7915  
G01 X-2.6665 Y0.8111  
G01 X-2.6665 Y0.8389  
G01 X-2.6765 Y0.8489  
G01 X-2.6765 Y0.8734  
G01 X-2.6764 Y0.8742  
G01 X-2.6765 Y0.8757  
G01 X-2.6765 Y0.8773  
G01 X-2.6766 Y0.8780  
G01 X-2.6767 Y0.8788  
G01 X-2.6771 Y0.8803  
G01 X-2.6774 Y0.8819  
G01 X-2.6777 Y0.8825  
G01 X-2.6779 Y0.8833  
G01 X-2.6786 Y0.8847  
G01 X-2.6792 Y0.8861  
G01 X-2.6796 Y0.8867  
G01 X-2.6799 Y0.8874  
G01 X-2.6809 Y0.8887  
G01 X-2.6817 Y0.8900  
G01 X-2.6823 Y0.8905  
G01 X-2.6827 Y0.8911  
G01 X-2.6839 Y0.8921  
G01 X-2.6850 Y0.8933  
G01 X-2.6856 Y0.8937  
G01 X-2.7515 Y0.9518  
G01 X-2.7515 Y0.9639  
G01 X-2.7615 Y0.9739  
G01 X-2.7615 Y1.0311  
G01 X-2.7515 Y1.0411  
G01 X-2.7515 Y1.0689  
G01 X-2.7711 Y1.0885  
G01 X-2.7989 Y1.0885  
G01 X-2.8185 Y1.0689  
G01 X-2.8185 Y1.0411  
G01 X-2.8085 Y1.0311  
G01 X-2.8085 Y0.9739  
G01 X-2.8185 Y0.9639  
G01 X-2.8185 Y0.9472  
G01 X-2.8650 Y0.8936  
G01 X-2.8889 Y0.8805  
G01 X-2.8936 Y0.8825  
G01 X-2.9012 Y0.8840  
G01 X-2.9088 Y0.8840  
G01 X-2.9164 Y0.8825  
G01 X-2.9235 Y0.8796  
G01 X-2.9299 Y0.8753  
G01 X-2.9353 Y0.8699  
G01 X-2.9396 Y0.8635  
G01 X-2.9425 Y0.8564  
G01 X-2.9440 Y0.8488  
G01 X-2.9440 Y0.8412  
G01 X-2.9425 Y0.8336  
G01 X-2.9396 Y0.8265  
G01 X-2.9353 Y0.8201  
G01 X-2.9299 Y0.8147  
G01 X-2.9235 Y0.8104  
G01 X-2.9164 Y0.8075  
G01 X-2.9088 Y0.8060  
G01 X-2.9012 Y0.8060  
G01 X-2.8936 Y0.8075  
G01 X-2.8865 Y0.8104  
G01 X-2.8801 Y0.8147  
G01 X-2.8747 Y0.8201  
G01 X-2.8704 Y0.8265  
G01 X-2.8675 Y0.8336  
G01 X-2.8664 Y0.8393  
G01 X-2.8391 Y0.8542  
G01 X-2.8374 Y0.8550  
G01 X-2.8371 Y0.8553  
G01 X-2.8367 Y0.8555  
G01 X-2.8353 Y0.8567  
G01 X-2.8338 Y0.8579  
G01 X-2.8335 Y0.8582  
G01 X-2.8332 Y0.8584  
G01 X-2.8320 Y0.8599  
G01 X-2.7829 Y0.9165  
G01 X-2.7826 Y0.9165  
G01 X-2.7235 Y0.8644  
G01 X-2.7235 Y0.8489  
G01 X-2.7335 Y0.8389  
G01 X-2.7335 Y0.8247  
G01 X-2.7406 Y0.8176  
G01 X-2.7414 Y0.8170  
G01 X-2.7423 Y0.8160  
G01 X-2.7433 Y0.8150  
G01 X-2.7438 Y0.8142  
G01 X-2.7444 Y0.8135  
G01 X-2.7451 Y0.8123  
G01 X-2.7458 Y0.8111  
G01 X-2.7462 Y0.8103  
G01 X-2.7466 Y0.8094  
G01 X-2.7471 Y0.8081  
G01 X-2.7476 Y0.8069  
G01 X-2.7478 Y0.8059  
G01 X-2.7481 Y0.8050  
G01 X-2.7482 Y0.8037  
G01 X-2.7485 Y0.8023  
G01 X-2.7485 Y0.8014  
G01 X-2.7655 Y0.6569  
G01 X-2.7785 Y0.6439  
G01 X-2.7785 Y0.6161  
G01 X-2.7589 Y0.5965  
G01 X-2.7311 Y0.5965  
G01 X-2.7115 Y0.6161  
G00 Z0.0500  
G00 X-2.9206 Y0.6136  
G01 Z-0.0035 F10    
G01 X-2.9206 Y0.6226  F20    
G01 X-2.9221 Y0.6316  
G01 X-2.9249 Y0.6402  
G01 X-2.9290 Y0.6482  
G01 X-2.9343 Y0.6556  
G01 X-2.9407 Y0.6620  
G01 X-2.9478 Y0.6671  
G01 X-2.9101 Y0.7060  
G01 X-2.8888 Y0.7060  
G01 X-2.8660 Y0.7288  
G01 X-2.8660 Y0.7612  
G01 X-2.8888 Y0.7840  
G01 X-2.9212 Y0.7840  
G01 X-2.9440 Y0.7612  
G01 X-2.9440 Y0.7386  
G01 X-3.0051 Y0.6756  
G01 X-3.0827 Y0.6756  
G01 X-3.0916 Y0.6742  
G01 X-3.1002 Y0.6714  
G01 X-3.1083 Y0.6673  
G01 X-3.1156 Y0.6620  
G01 X-3.1220 Y0.6556  
G01 X-3.1273 Y0.6482  
G01 X-3.1314 Y0.6402  
G01 X-3.1342 Y0.6316  
G01 X-3.1356 Y0.6226  
G01 X-3.1356 Y0.6136  
G01 X-3.1342 Y0.6046  
G01 X-3.1314 Y0.5960  
G01 X-3.1273 Y0.5880  
G01 X-3.1220 Y0.5807  
G01 X-3.1156 Y0.5743  
G01 X-3.1083 Y0.5689  
G01 X-3.1002 Y0.5648  
G01 X-3.0916 Y0.5620  
G01 X-3.0827 Y0.5606  
G01 X-2.9736 Y0.5606  
G01 X-2.9647 Y0.5620  
G01 X-2.9561 Y0.5648  
G01 X-2.9480 Y0.5689  
G01 X-2.9407 Y0.5743  
G01 X-2.9343 Y0.5807  
G01 X-2.9290 Y0.5880  
G01 X-2.9249 Y0.5960  
G01 X-2.9221 Y0.6046  
G01 X-2.9206 Y0.6136  
G00 Z0.0500  
G00 X-2.4604 Y0.1829  
G01 Z-0.0035 F10    
G01 X-2.4650 Y0.1765  F20    
G01 X-2.4687 Y0.1694  
G01 X-2.4711 Y0.1618  
G01 X-2.4724 Y0.1540  
G01 X-2.4724 Y0.1460  
G01 X-2.4711 Y0.1382  
G01 X-2.4687 Y0.1306  
G01 X-2.4650 Y0.1235  
G01 X-2.4604 Y0.1171  
G01 X-2.4547 Y0.1115  
G01 X-2.4483 Y0.1068  
G01 X-2.4412 Y0.1032  
G01 X-2.4337 Y0.1007  
G01 X-2.4258 Y0.0995  
G01 X-2.4179 Y0.0995  
G01 X-2.4100 Y0.1007  
G01 X-2.4025 Y0.1032  
G01 X-2.3954 Y0.1068  
G01 X-2.3890 Y0.1115  
G01 X-2.3833 Y0.1171  
G01 X-2.3787 Y0.1235  
G01 X-2.3751 Y0.1306  
G01 X-2.3726 Y0.1382  
G01 X-2.3714 Y0.1460  
G01 X-2.3714 Y0.1540  
G01 X-2.3726 Y0.1618  
G01 X-2.3751 Y0.1694  
G01 X-2.3787 Y0.1765  
G01 X-2.3833 Y0.1829  
G01 X-2.3890 Y0.1885  
G01 X-2.3954 Y0.1932  
G01 X-2.4025 Y0.1968  
G01 X-2.4100 Y0.1993  
G01 X-2.4179 Y0.2005  
G01 X-2.4258 Y0.2005  
G01 X-2.4337 Y0.1993  
G01 X-2.4412 Y0.1968  
G01 X-2.4483 Y0.1932  
G01 X-2.4547 Y0.1885  
G01 X-2.4604 Y0.1829  
G00 Z0.0500  
G00 X-0.2844 Y0.0810  
G01 Z-0.0035 F10    
G01 X-0.2827 Y0.0827  F20    
G01 X-0.2810 Y0.0844  
G01 X-0.2796 Y0.0864  
G01 X-0.2783 Y0.0884  
G01 X-0.1996 Y0.2064  
G01 X-0.1983 Y0.2084  
G01 X-0.1974 Y0.2107  
G01 X-0.1964 Y0.2129  
G01 X-0.1960 Y0.2152  
G01 X-0.1955 Y0.2176  
G01 X-0.1955 Y0.2200  
G01 X-0.1955 Y0.8798  
G01 X-0.1955 Y0.8819  
G01 X-0.1955 Y0.8822  
G01 X-0.1955 Y0.8824  
G01 X-0.1959 Y0.8845  
G01 X-0.1963 Y0.8867  
G01 X-0.1964 Y0.8869  
G01 X-0.1964 Y0.8871  
G01 X-0.1973 Y0.8892  
G01 X-0.1981 Y0.8912  
G01 X-0.1982 Y0.8914  
G01 X-0.1983 Y0.8916  
G01 X-0.1995 Y0.8934  
G01 X-0.2007 Y0.8952  
G01 X-0.2008 Y0.8954  
G01 X-0.2010 Y0.8956  
G01 X-0.2025 Y0.8972  
G01 X-0.4508 Y1.1554  
G01 X-0.4510 Y1.1556  
G01 X-0.4525 Y1.1572  
G01 X-0.4540 Y1.1587  
G01 X-0.4542 Y1.1589  
G01 X-0.4544 Y1.1590  
G01 X-0.4562 Y1.1602  
G01 X-0.4580 Y1.1615  
G01 X-0.4582 Y1.1616  
G01 X-0.4584 Y1.1617  
G01 X-0.4604 Y1.1625  
G01 X-0.4624 Y1.1634  
G01 X-0.4626 Y1.1635  
G01 X-0.4629 Y1.1636  
G01 X-0.4650 Y1.1640  
G01 X-0.4671 Y1.1644  
G01 X-0.4673 Y1.1645  
G01 X-0.4676 Y1.1645  
G01 X-0.4698 Y1.1645  
G01 X-0.4719 Y1.1645  
G01 X-0.4722 Y1.1645  
G01 X-2.8197 Y1.1645  
G01 X-2.8219 Y1.1645  
G01 X-2.8221 Y1.1645  
G01 X-2.8224 Y1.1645  
G01 X-2.8245 Y1.1641  
G01 X-2.8266 Y1.1637  
G01 X-2.8269 Y1.1636  
G01 X-2.8271 Y1.1636  
G01 X-2.8291 Y1.1627  
G01 X-2.8311 Y1.1620  
G01 X-2.8314 Y1.1618  
G01 X-2.8316 Y1.1617  
G01 X-2.8334 Y1.1605  
G01 X-2.8352 Y1.1594  
G01 X-2.8354 Y1.1592  
G01 X-2.8356 Y1.1590  
G01 X-2.8371 Y1.1575  
G01 X-2.8387 Y1.1560  
G01 X-2.8388 Y1.1558  
G01 X-2.8390 Y1.1556  
G01 X-2.8402 Y1.1538  
G01 X-2.9796 Y0.9547  
G01 X-3.1780 Y0.7067  
G01 X-3.1784 Y0.7063  
G01 X-3.1795 Y0.7049  
G01 X-3.1806 Y0.7034  
G01 X-3.1809 Y0.7029  
G01 X-3.1813 Y0.7024  
G01 X-3.1820 Y0.7008  
G01 X-3.1829 Y0.6991  
G01 X-3.1830 Y0.6986  
G01 X-3.2117 Y0.6361  
G01 X-3.2192 Y0.6386  
G01 X-3.2283 Y0.6400  
G01 X-3.2375 Y0.6400  
G01 X-3.2466 Y0.6386  
G01 X-3.2553 Y0.6357  
G01 X-3.2635 Y0.6315  
G01 X-3.2710 Y0.6261  
G01 X-3.2775 Y0.6196  
G01 X-3.2829 Y0.6122  
G01 X-3.2871 Y0.6040  
G01 X-3.2899 Y0.5952  
G01 X-3.2914 Y0.5861  
G01 X-3.2914 Y0.4769  
G01 X-3.2899 Y0.4678  
G01 X-3.2871 Y0.4590  
G01 X-3.2829 Y0.4508  
G01 X-3.2775 Y0.4434  
G01 X-3.2710 Y0.4369  
G01 X-3.2635 Y0.4315  
G01 X-3.2553 Y0.4273  
G01 X-3.2466 Y0.4244  
G01 X-3.2375 Y0.4230  
G01 X-3.2283 Y0.4230  
G01 X-3.2192 Y0.4244  
G01 X-3.2104 Y0.4273  
G01 X-3.2022 Y0.4315  
G01 X-3.1948 Y0.4369  
G01 X-3.1883 Y0.4434  
G01 X-3.1828 Y0.4508  
G01 X-3.1787 Y0.4590  
G01 X-3.1758 Y0.4678  
G01 X-3.1744 Y0.4769  
G01 X-3.1744 Y0.5861  
G01 X-3.1758 Y0.5952  
G01 X-3.1761 Y0.5962  
G01 X-3.1390 Y0.6770  
G01 X-2.9419 Y0.9234  
G01 X-2.9413 Y0.9240  
G01 X-2.9404 Y0.9253  
G01 X-2.9394 Y0.9266  
G01 X-2.9390 Y0.9273  
G01 X-2.8072 Y1.1155  
G01 X-0.4804 Y1.1155  
G01 X-0.2445 Y0.8701  
G01 X-0.2445 Y0.2274  
G01 X-0.3131 Y0.1245  
G01 X-0.5849 Y0.1245  
G01 X-0.6118 Y0.1784  
G01 X-0.6118 Y0.2334  
G01 X-0.6133 Y0.2408  
G01 X-0.6162 Y0.2478  
G01 X-0.6203 Y0.2540  
G01 X-0.6257 Y0.2593  
G01 X-0.6319 Y0.2635  
G01 X-0.6389 Y0.2664  
G01 X-0.6462 Y0.2679  
G01 X-0.6538 Y0.2679  
G01 X-0.6611 Y0.2664  
G01 X-0.6681 Y0.2635  
G01 X-0.6743 Y0.2593  
G01 X-0.6797 Y0.2540  
G01 X-0.6838 Y0.2478  
G01 X-0.6867 Y0.2408  
G01 X-0.6882 Y0.2334  
G01 X-0.6882 Y0.1666  
G01 X-0.6867 Y0.1592  
G01 X-0.6838 Y0.1522  
G01 X-0.6797 Y0.1460  
G01 X-0.6743 Y0.1407  
G01 X-0.6681 Y0.1365  
G01 X-0.6611 Y0.1336  
G01 X-0.6538 Y0.1321  
G01 X-0.6462 Y0.1321  
G01 X-0.6437 Y0.1326  
G01 X-0.6223 Y0.0898  
G01 X-0.6217 Y0.0884  
G01 X-0.6212 Y0.0877  
G01 X-0.6208 Y0.0869  
G01 X-0.6199 Y0.0857  
G01 X-0.6190 Y0.0844  
G01 X-0.6184 Y0.0838  
G01 X-0.6179 Y0.0831  
G01 X-0.6167 Y0.0821  
G01 X-0.6156 Y0.0810  
G01 X-0.6149 Y0.0805  
G01 X-0.6142 Y0.0799  
G01 X-0.6129 Y0.0791  
G01 X-0.6116 Y0.0783  
G01 X-0.6108 Y0.0780  
G01 X-0.6100 Y0.0775  
G01 X-0.6086 Y0.0770  
G01 X-0.6071 Y0.0764  
G01 X-0.6063 Y0.0763  
G01 X-0.6055 Y0.0760  
G01 X-0.6039 Y0.0758  
G01 X-0.6024 Y0.0755  
G01 X-0.6015 Y0.0755  
G01 X-0.6007 Y0.0754  
G01 X-0.5991 Y0.0755  
G01 X-0.3024 Y0.0755  
G01 X-0.3000 Y0.0755  
G01 X-0.2976 Y0.0755  
G01 X-0.2952 Y0.0760  
G01 X-0.2929 Y0.0764  
G01 X-0.2906 Y0.0774  
G01 X-0.2884 Y0.0783  
G01 X-0.2864 Y0.0796  
G01 X-0.2844 Y0.0810  
G00 Z0.0500  
G00 X-0.3203 Y0.1460  
G01 Z-0.0035 F10    
G01 X-0.3162 Y0.1522  F20    
G01 X-0.3133 Y0.1592  
G01 X-0.3118 Y0.1666  
G01 X-0.3118 Y0.2334  
G01 X-0.3133 Y0.2408  
G01 X-0.3162 Y0.2478  
G01 X-0.3203 Y0.2540  
G01 X-0.3255 Y0.2592  
G01 X-0.3255 Y0.3650  
G01 X-0.3255 Y0.3674  
G01 X-0.3260 Y0.3698  
G01 X-0.3264 Y0.3721  
G01 X-0.3274 Y0.3743  
G01 X-0.3283 Y0.3766  
G01 X-0.3296 Y0.3786  
G01 X-0.4055 Y0.4924  
G01 X-0.4055 Y0.5143  
G01 X-0.4257 Y0.5345  
G01 X-0.4543 Y0.5345  
G01 X-0.4745 Y0.5143  
G01 X-0.4745 Y0.4857  
G01 X-0.4543 Y0.4655  
G01 X-0.4464 Y0.4655  
G01 X-0.3745 Y0.3576  
G01 X-0.3745 Y0.2592  
G01 X-0.3797 Y0.2540  
G01 X-0.3838 Y0.2478  
G01 X-0.3867 Y0.2408  
G01 X-0.3882 Y0.2334  
G01 X-0.3882 Y0.1666  
G01 X-0.3867 Y0.1592  
G01 X-0.3838 Y0.1522  
G01 X-0.3797 Y0.1460  
G01 X-0.3743 Y0.1407  
G01 X-0.3681 Y0.1365  
G01 X-0.3611 Y0.1336  
G01 X-0.3538 Y0.1321  
G01 X-0.3462 Y0.1321  
G01 X-0.3389 Y0.1336  
G01 X-0.3319 Y0.1365  
G01 X-0.3257 Y0.1407  
G01 X-0.3203 Y0.1460  
G00 Z0.0500  
G00 X-0.4203 Y0.1460  
G01 Z-0.0035 F10    
G01 X-0.4162 Y0.1522  F20    
G01 X-0.4133 Y0.1592  
G01 X-0.4118 Y0.1666  
G01 X-0.4118 Y0.2334  
G01 X-0.4133 Y0.2408  
G01 X-0.4162 Y0.2478  
G01 X-0.4203 Y0.2540  
G01 X-0.4255 Y0.2592  
G01 X-0.4255 Y0.3578  
G01 X-0.4255 Y0.3580  
G01 X-0.4255 Y0.3602  
G01 X-0.4255 Y0.3624  
G01 X-0.4255 Y0.3626  
G01 X-0.4255 Y0.3628  
G01 X-0.4260 Y0.3650  
G01 X-0.4264 Y0.3671  
G01 X-0.4265 Y0.3673  
G01 X-0.4266 Y0.3675  
G01 X-0.4274 Y0.3696  
G01 X-0.4283 Y0.3716  
G01 X-0.4284 Y0.3718  
G01 X-0.4285 Y0.3720  
G01 X-0.4297 Y0.3738  
G01 X-0.4310 Y0.3756  
G01 X-0.4311 Y0.3758  
G01 X-0.5162 Y0.4986  
G01 X-0.5232 Y0.5755  
G01 X-0.4226 Y0.5755  
G01 X-0.4179 Y0.5764  
G01 X-0.4134 Y0.5783  
G01 X-0.4094 Y0.5810  
G01 X-0.4060 Y0.5844  
G01 X-0.2560 Y0.7344  
G01 X-0.2533 Y0.7384  
G01 X-0.2514 Y0.7429  
G01 X-0.2505 Y0.7476  
G01 X-0.2505 Y0.8496  
G01 X-0.2504 Y0.8516  
G01 X-0.2505 Y0.8520  
G01 X-0.2505 Y0.8524  
G01 X-0.2509 Y0.8544  
G01 X-0.2512 Y0.8564  
G01 X-0.2514 Y0.8568  
G01 X-0.2514 Y0.8571  
G01 X-0.2522 Y0.8590  
G01 X-0.2529 Y0.8609  
G01 X-0.2531 Y0.8612  
G01 X-0.2533 Y0.8616  
G01 X-0.2544 Y0.8633  
G01 X-0.2555 Y0.8650  
G01 X-0.2557 Y0.8653  
G01 X-0.2560 Y0.8656  
G01 X-0.2574 Y0.8670  
G01 X-0.4807 Y1.1053  
G01 X-0.4810 Y1.1056  
G01 X-0.4824 Y1.1070  
G01 X-0.4838 Y1.1085  
G01 X-0.4841 Y1.1087  
G01 X-0.4844 Y1.1090  
G01 X-0.4861 Y1.1102  
G01 X-0.4877 Y1.1113  
G01 X-0.4881 Y1.1115  
G01 X-0.4884 Y1.1117  
G01 X-0.4903 Y1.1125  
G01 X-0.4921 Y1.1133  
G01 X-0.4925 Y1.1134  
G01 X-0.4929 Y1.1136  
G01 X-0.4948 Y1.1140  
G01 X-0.4968 Y1.1144  
G01 X-0.4972 Y1.1144  
G01 X-0.4976 Y1.1145  
G01 X-0.4996 Y1.1145  
G01 X-0.5016 Y1.1146  
G01 X-0.5020 Y1.1145  
G01 X-2.2484 Y1.1145  
G01 X-2.2493 Y1.1146  
G01 X-2.2508 Y1.1145  
G01 X-2.2524 Y1.1145  
G01 X-2.2532 Y1.1143  
G01 X-2.3723 Y1.1061  
G01 X-2.3807 Y1.1145  
G01 X-2.4093 Y1.1145  
G01 X-2.4193 Y1.1045  
G01 X-2.4480 Y1.1045  
G01 X-2.4484 Y1.1046  
G01 X-2.4504 Y1.1045  
G01 X-2.4524 Y1.1045  
G01 X-2.4528 Y1.1044  
G01 X-2.4532 Y1.1044  
G01 X-2.4552 Y1.1040  
G01 X-2.4571 Y1.1036  
G01 X-2.4575 Y1.1034  
G01 X-2.4579 Y1.1033  
G01 X-2.4597 Y1.1025  
G01 X-2.4616 Y1.1017  
G01 X-2.4619 Y1.1015  
G01 X-2.4623 Y1.1013  
G01 X-2.4639 Y1.1002  
G01 X-2.4656 Y1.0990  
G01 X-2.4659 Y1.0988  
G01 X-2.4789 Y1.0895  
G01 X-2.4993 Y1.0895  
G01 X-2.5195 Y1.0693  
G01 X-2.5195 Y1.0407  
G01 X-2.4993 Y1.0205  
G01 X-2.4707 Y1.0205  
G01 X-2.4505 Y1.0407  
G01 X-2.4505 Y1.0495  
G01 X-2.4421 Y1.0555  
G01 X-2.4193 Y1.0555  
G01 X-2.4093 Y1.0455  
G01 X-2.3807 Y1.0455  
G01 X-2.3690 Y1.0572  
G01 X-2.2492 Y1.0655  
G01 X-0.5106 Y1.0655  
G01 X-0.2995 Y0.8403  
G01 X-0.2995 Y0.7601  
G01 X-0.4351 Y0.6245  
G01 X-0.5257 Y0.6245  
G01 X-0.5357 Y0.6345  
G01 X-0.5643 Y0.6345  
G01 X-0.5845 Y0.6143  
G01 X-0.5845 Y0.5857  
G01 X-0.5722 Y0.5734  
G01 X-0.5645 Y0.4887  
G01 X-0.5645 Y0.4872  
G01 X-0.5643 Y0.4863  
G01 X-0.5642 Y0.4854  
G01 X-0.5638 Y0.4839  
G01 X-0.5634 Y0.4825  
G01 X-0.5631 Y0.4816  
G01 X-0.5628 Y0.4808  
G01 X-0.5621 Y0.4794  
G01 X-0.5615 Y0.4780  
G01 X-0.5610 Y0.4773  
G01 X-0.5606 Y0.4765  
G01 X-0.5596 Y0.4753  
G01 X-0.4745 Y0.3523  
G01 X-0.4745 Y0.2592  
G01 X-0.4797 Y0.2540  
G01 X-0.4838 Y0.2478  
G01 X-0.4867 Y0.2408  
G01 X-0.4882 Y0.2334  
G01 X-0.4882 Y0.1666  
G01 X-0.4867 Y0.1592  
G01 X-0.4838 Y0.1522  
G01 X-0.4797 Y0.1460  
G01 X-0.4743 Y0.1407  
G01 X-0.4681 Y0.1365  
G01 X-0.4611 Y0.1336  
G01 X-0.4538 Y0.1321  
G01 X-0.4462 Y0.1321  
G01 X-0.4389 Y0.1336  
G01 X-0.4319 Y0.1365  
G01 X-0.4257 Y0.1407  
G01 X-0.4203 Y0.1460  
G00 Z0.0500  
G00 X-0.5203 Y0.1460  
G01 Z-0.0035 F10    
G01 X-0.5162 Y0.1522  F20    
G01 X-0.5133 Y0.1592  
G01 X-0.5118 Y0.1666  
G01 X-0.5118 Y0.2334  
G01 X-0.5133 Y0.2408  
G01 X-0.5162 Y0.2478  
G01 X-0.5203 Y0.2540  
G01 X-0.5257 Y0.2593  
G01 X-0.5319 Y0.2635  
G01 X-0.5389 Y0.2664  
G01 X-0.5407 Y0.2668  
G01 X-0.5703 Y0.3909  
G01 X-0.5655 Y0.3957  
G01 X-0.5655 Y0.4243  
G01 X-0.5857 Y0.4445  
G01 X-0.5866 Y0.4445  
G01 X-0.6465 Y0.6071  
G01 X-0.6689 Y0.7005  
G01 X-0.3726 Y0.7005  
G01 X-0.3679 Y0.7014  
G01 X-0.3634 Y0.7033  
G01 X-0.3594 Y0.7060  
G01 X-0.3560 Y0.7094  
G01 X-0.3060 Y0.7594  
G01 X-0.3033 Y0.7634  
G01 X-0.3014 Y0.7679  
G01 X-0.3005 Y0.7726  
G01 X-0.3005 Y0.8274  
G01 X-0.3014 Y0.8321  
G01 X-0.3033 Y0.8366  
G01 X-0.3060 Y0.8406  
G01 X-0.3094 Y0.8440  
G01 X-0.4594 Y0.9940  
G01 X-0.4634 Y0.9967  
G01 X-0.4679 Y0.9986  
G01 X-0.4726 Y0.9995  
G01 X-1.1983 Y0.9995  
G01 X-1.3470 Y1.0207  
G01 X-1.3607 Y1.0345  
G01 X-1.3893 Y1.0345  
G01 X-1.3993 Y1.0245  
G01 X-1.4241 Y1.0245  
G01 X-1.4257 Y1.0246  
G01 X-1.4265 Y1.0245  
G01 X-1.4274 Y1.0245  
G01 X-1.4289 Y1.0242  
G01 X-1.4305 Y1.0240  
G01 X-1.4313 Y1.0237  
G01 X-1.4321 Y1.0236  
G01 X-1.4336 Y1.0230  
G01 X-1.4350 Y1.0225  
